%
(guilloche)
(T502  D=0.125 CR=0 - ZMIN=-0.129 - vee)
G90
G17
G21
G28 G91 Z10
G90

(scribe)
T502 M6
S10000 M3
G54
G0 X0.600 Y-10.363
Z10
Z2
G1 Z-0.525 F80
G1 X0.600 Y-10.363 F200
G1 X0.596 Y-10.293
G1 X0.584 Y-10.224
G1 X0.563 Y-10.156
G1 X0.535 Y-10.092
G1 X0.500 Y-10.031
G1 X0.458 Y-9.975
G1 X0.409 Y-9.924
G1 X0.355 Y-9.879
G1 X0.296 Y-9.841
G1 X0.233 Y-9.810
G1 X0.167 Y-9.787
G1 X0.099 Y-9.771
G1 X0.029 Y-9.764
G1 X-0.041 Y-9.764
G1 X-0.111 Y-9.773
G1 X-0.179 Y-9.790
G1 X-0.245 Y-9.815
G1 X-0.307 Y-9.848
G1 X-0.365 Y-9.887
G1 X-0.419 Y-9.933
G1 X-0.466 Y-9.985
G1 X-0.507 Y-10.042
G1 X-0.541 Y-10.103
G1 X-0.568 Y-10.168
G1 X-0.586 Y-10.236
G1 X-0.597 Y-10.306
G1 X-0.600 Y-10.376
G1 X-0.594 Y-10.446
G1 X-0.581 Y-10.515
G1 X-0.559 Y-10.581
G1 X-0.529 Y-10.645
G1 X-0.493 Y-10.705
G1 X-0.449 Y-10.761
G1 X-0.400 Y-10.810
G1 X-0.345 Y-10.854
G1 X-0.285 Y-10.891
G1 X-0.221 Y-10.921
G1 X-0.155 Y-10.943
G1 X-0.086 Y-10.957
G1 X-0.016 Y-10.963
G1 X0.054 Y-10.961
G1 X0.124 Y-10.950
G1 X0.191 Y-10.932
G1 X0.257 Y-10.905
G1 X0.318 Y-10.872
G1 X0.376 Y-10.831
G1 X0.428 Y-10.784
G1 X0.474 Y-10.731
G1 X0.514 Y-10.673
G1 X0.546 Y-10.611
G1 X0.572 Y-10.545
G1 X0.589 Y-10.477
G1 X0.598 Y-10.408
G1 X0.599 Y-10.337
G1 X0.592 Y-10.268
G1 X0.577 Y-10.199
G1 X0.554 Y-10.133
G1 X0.523 Y-10.069
G1 X0.485 Y-10.010
G0 Z10
G0 X0.832 Y-10.363
Z10
Z2
G1 Z-0.525 F80
G1 X0.832 Y-10.363 F200
G1 X0.826 Y-10.266
G1 X0.809 Y-10.170
G1 X0.781 Y-10.077
G1 X0.742 Y-9.987
G1 X0.693 Y-9.903
G1 X0.634 Y-9.825
G1 X0.567 Y-9.755
G1 X0.492 Y-9.693
G1 X0.411 Y-9.640
G1 X0.323 Y-9.597
G1 X0.232 Y-9.564
G1 X0.137 Y-9.543
G1 X0.040 Y-9.532
G1 X-0.058 Y-9.533
G1 X-0.154 Y-9.546
G1 X-0.249 Y-9.569
G1 X-0.340 Y-9.604
G1 X-0.426 Y-9.649
G1 X-0.507 Y-9.703
G1 X-0.580 Y-9.767
G1 X-0.646 Y-9.839
G1 X-0.703 Y-9.918
G1 X-0.750 Y-10.003
G1 X-0.787 Y-10.093
G1 X-0.813 Y-10.187
G1 X-0.828 Y-10.283
G1 X-0.831 Y-10.381
G1 X-0.824 Y-10.478
G1 X-0.805 Y-10.573
G1 X-0.774 Y-10.666
G1 X-0.734 Y-10.754
G1 X-0.683 Y-10.837
G1 X-0.623 Y-10.914
G1 X-0.554 Y-10.983
G1 X-0.478 Y-11.043
G1 X-0.395 Y-11.095
G1 X-0.307 Y-11.136
G1 X-0.215 Y-11.166
G1 X-0.119 Y-11.186
G1 X-0.022 Y-11.194
G1 X0.075 Y-11.191
G1 X0.171 Y-11.177
G1 X0.265 Y-11.151
G1 X0.356 Y-11.115
G1 X0.441 Y-11.068
G1 X0.520 Y-11.012
G1 X0.593 Y-10.946
G1 X0.657 Y-10.873
G1 X0.712 Y-10.793
G1 X0.757 Y-10.707
G1 X0.792 Y-10.616
G1 X0.816 Y-10.521
G1 X0.829 Y-10.425
G1 X0.831 Y-10.328
G1 X0.821 Y-10.231
G1 X0.800 Y-10.136
G1 X0.768 Y-10.044
G1 X0.725 Y-9.956
G1 X0.673 Y-9.874
G0 Z10
G0 X1.063 Y-10.363
Z10
Z2
G1 Z-0.525 F80
G1 X1.063 Y-10.363 F200
G1 X1.056 Y-10.239
G1 X1.034 Y-10.116
G1 X0.998 Y-9.997
G1 X0.949 Y-9.883
G1 X0.886 Y-9.775
G1 X0.811 Y-9.676
G1 X0.725 Y-9.586
G1 X0.629 Y-9.506
G1 X0.525 Y-9.439
G1 X0.413 Y-9.383
G1 X0.296 Y-9.342
G1 X0.175 Y-9.314
G1 X0.051 Y-9.301
G1 X-0.074 Y-9.302
G1 X-0.197 Y-9.318
G1 X-0.318 Y-9.348
G1 X-0.434 Y-9.393
G1 X-0.545 Y-9.450
G1 X-0.648 Y-9.520
G1 X-0.742 Y-9.601
G1 X-0.826 Y-9.693
G1 X-0.898 Y-9.794
G1 X-0.959 Y-9.903
G1 X-1.006 Y-10.018
G1 X-1.039 Y-10.138
G1 X-1.058 Y-10.261
G1 X-1.063 Y-10.386
G1 X-1.053 Y-10.510
G1 X-1.029 Y-10.632
G1 X-0.990 Y-10.750
G1 X-0.938 Y-10.863
G1 X-0.873 Y-10.969
G1 X-0.796 Y-11.067
G1 X-0.709 Y-11.156
G1 X-0.611 Y-11.233
G1 X-0.505 Y-11.298
G1 X-0.392 Y-11.351
G1 X-0.274 Y-11.390
G1 X-0.152 Y-11.415
G1 X-0.028 Y-11.426
G1 X0.096 Y-11.422
G1 X0.219 Y-11.403
G1 X0.339 Y-11.371
G1 X0.455 Y-11.324
G1 X0.564 Y-11.264
G1 X0.665 Y-11.192
G1 X0.758 Y-11.109
G1 X0.840 Y-11.015
G1 X0.910 Y-10.912
G1 X0.968 Y-10.802
G1 X1.013 Y-10.686
G1 X1.044 Y-10.566
G1 X1.060 Y-10.442
G1 X1.062 Y-10.318
G1 X1.050 Y-10.194
G1 X1.023 Y-10.072
G1 X0.982 Y-9.955
G1 X0.927 Y-9.843
G1 X0.860 Y-9.738
G0 Z10
G0 X1.295 Y-10.363
Z10
Z2
G1 Z-0.525 F80
G1 X1.295 Y-10.363 F200
G1 X1.286 Y-10.212
G1 X1.259 Y-10.062
G1 X1.216 Y-9.917
G1 X1.155 Y-9.778
G1 X1.079 Y-9.647
G1 X0.988 Y-9.526
G1 X0.883 Y-9.416
G1 X0.767 Y-9.320
G1 X0.639 Y-9.237
G1 X0.503 Y-9.170
G1 X0.361 Y-9.119
G1 X0.213 Y-9.086
G1 X0.062 Y-9.070
G1 X-0.090 Y-9.071
G1 X-0.240 Y-9.091
G1 X-0.387 Y-9.127
G1 X-0.529 Y-9.181
G1 X-0.663 Y-9.251
G1 X-0.789 Y-9.336
G1 X-0.903 Y-9.435
G1 X-1.005 Y-9.547
G1 X-1.094 Y-9.670
G1 X-1.167 Y-9.803
G1 X-1.225 Y-9.943
G1 X-1.265 Y-10.089
G1 X-1.289 Y-10.239
G1 X-1.294 Y-10.391
G1 X-1.282 Y-10.542
G1 X-1.253 Y-10.690
G1 X-1.206 Y-10.834
G1 X-1.142 Y-10.972
G1 X-1.063 Y-11.102
G1 X-0.970 Y-11.221
G1 X-0.863 Y-11.328
G1 X-0.744 Y-11.422
G1 X-0.615 Y-11.502
G1 X-0.478 Y-11.566
G1 X-0.334 Y-11.614
G1 X-0.186 Y-11.644
G1 X-0.034 Y-11.657
G1 X0.117 Y-11.652
G1 X0.267 Y-11.630
G1 X0.413 Y-11.590
G1 X0.554 Y-11.533
G1 X0.687 Y-11.461
G1 X0.810 Y-11.373
G1 X0.923 Y-11.271
G1 X1.023 Y-11.157
G1 X1.108 Y-11.032
G1 X1.179 Y-10.898
G1 X1.233 Y-10.757
G1 X1.271 Y-10.610
G1 X1.291 Y-10.459
G1 X1.294 Y-10.308
G1 X1.278 Y-10.157
G1 X1.245 Y-10.009
G1 X1.196 Y-9.866
G1 X1.129 Y-9.730
G1 X1.047 Y-9.602
G0 Z10
G0 X1.526 Y-10.363
Z10
Z2
G1 Z-0.525 F80
G1 X1.526 Y-10.363 F200
G1 X1.516 Y-10.185
G1 X1.485 Y-10.009
G1 X1.433 Y-9.838
G1 X1.362 Y-9.674
G1 X1.272 Y-9.519
G1 X1.165 Y-9.376
G1 X1.041 Y-9.247
G1 X0.904 Y-9.133
G1 X0.754 Y-9.036
G1 X0.593 Y-8.957
G1 X0.425 Y-8.897
G1 X0.251 Y-8.857
G1 X0.073 Y-8.838
G1 X-0.106 Y-8.840
G1 X-0.283 Y-8.863
G1 X-0.456 Y-8.906
G1 X-0.623 Y-8.970
G1 X-0.782 Y-9.052
G1 X-0.930 Y-9.153
G1 X-1.065 Y-9.269
G1 X-1.185 Y-9.401
G1 X-1.290 Y-9.547
G1 X-1.376 Y-9.703
G1 X-1.444 Y-9.868
G1 X-1.492 Y-10.040
G1 X-1.519 Y-10.217
G1 X-1.526 Y-10.396
G1 X-1.512 Y-10.574
G1 X-1.477 Y-10.749
G1 X-1.422 Y-10.919
G1 X-1.347 Y-11.081
G1 X-1.254 Y-11.234
G1 X-1.143 Y-11.374
G1 X-1.017 Y-11.501
G1 X-0.877 Y-11.612
G1 X-0.725 Y-11.706
G1 X-0.563 Y-11.782
G1 X-0.394 Y-11.838
G1 X-0.219 Y-11.874
G1 X-0.041 Y-11.889
G1 X0.138 Y-11.883
G1 X0.315 Y-11.857
G1 X0.487 Y-11.810
G1 X0.653 Y-11.743
G1 X0.810 Y-11.657
G1 X0.955 Y-11.553
G1 X1.088 Y-11.434
G1 X1.206 Y-11.299
G1 X1.307 Y-11.152
G1 X1.390 Y-10.994
G1 X1.454 Y-10.827
G1 X1.498 Y-10.654
G1 X1.522 Y-10.477
G1 X1.525 Y-10.298
G1 X1.507 Y-10.120
G1 X1.468 Y-9.946
G1 X1.409 Y-9.777
G1 X1.331 Y-9.616
G1 X1.235 Y-9.466
G0 Z10
G0 X1.758 Y-10.363
Z10
Z2
G1 Z-0.525 F80
G1 X1.758 Y-10.363 F200
G1 X1.746 Y-10.158
G1 X1.710 Y-9.955
G1 X1.650 Y-9.758
G1 X1.568 Y-9.569
G1 X1.465 Y-9.391
G1 X1.341 Y-9.227
G1 X1.199 Y-9.078
G1 X1.041 Y-8.946
G1 X0.868 Y-8.834
G1 X0.684 Y-8.743
G1 X0.490 Y-8.675
G1 X0.289 Y-8.629
G1 X0.084 Y-8.607
G1 X-0.122 Y-8.609
G1 X-0.326 Y-8.636
G1 X-0.525 Y-8.685
G1 X-0.718 Y-8.758
G1 X-0.900 Y-8.853
G1 X-1.071 Y-8.969
G1 X-1.226 Y-9.104
G1 X-1.365 Y-9.256
G1 X-1.485 Y-9.423
G1 X-1.585 Y-9.603
G1 X-1.663 Y-9.793
G1 X-1.718 Y-9.991
G1 X-1.750 Y-10.195
G1 X-1.757 Y-10.400
G1 X-1.741 Y-10.606
G1 X-1.701 Y-10.807
G1 X-1.637 Y-11.003
G1 X-1.551 Y-11.190
G1 X-1.444 Y-11.366
G1 X-1.317 Y-11.528
G1 X-1.172 Y-11.674
G1 X-1.010 Y-11.801
G1 X-0.835 Y-11.910
G1 X-0.649 Y-11.997
G1 X-0.453 Y-12.061
G1 X-0.252 Y-12.103
G1 X-0.047 Y-12.120
G1 X0.159 Y-12.114
G1 X0.362 Y-12.083
G1 X0.561 Y-12.029
G1 X0.752 Y-11.952
G1 X0.932 Y-11.853
G1 X1.100 Y-11.734
G1 X1.253 Y-11.596
G1 X1.388 Y-11.441
G1 X1.505 Y-11.272
G1 X1.601 Y-11.089
G1 X1.675 Y-10.897
G1 X1.726 Y-10.698
G1 X1.753 Y-10.494
G1 X1.756 Y-10.288
G1 X1.736 Y-10.083
G1 X1.691 Y-9.882
G1 X1.623 Y-9.688
G1 X1.533 Y-9.503
G1 X1.422 Y-9.330
G0 Z10
G0 X1.989 Y-10.363
Z10
Z2
G1 Z-0.525 F80
G1 X1.989 Y-10.363 F200
G1 X1.976 Y-10.130
G1 X1.935 Y-9.901
G1 X1.868 Y-9.678
G1 X1.775 Y-9.465
G1 X1.658 Y-9.263
G1 X1.518 Y-9.077
G1 X1.357 Y-8.908
G1 X1.178 Y-8.760
G1 X0.982 Y-8.633
G1 X0.774 Y-8.530
G1 X0.554 Y-8.452
G1 X0.327 Y-8.401
G1 X0.095 Y-8.376
G1 X-0.138 Y-8.378
G1 X-0.369 Y-8.408
G1 X-0.595 Y-8.464
G1 X-0.812 Y-8.547
G1 X-1.019 Y-8.654
G1 X-1.212 Y-8.785
G1 X-1.388 Y-8.938
G1 X-1.545 Y-9.110
G1 X-1.681 Y-9.299
G1 X-1.794 Y-9.503
G1 X-1.882 Y-9.718
G1 X-1.945 Y-9.942
G1 X-1.980 Y-10.173
G1 X-1.989 Y-10.405
G1 X-1.970 Y-10.638
G1 X-1.925 Y-10.866
G1 X-1.853 Y-11.087
G1 X-1.755 Y-11.299
G1 X-1.634 Y-11.498
G1 X-1.490 Y-11.681
G1 X-1.326 Y-11.846
G1 X-1.144 Y-11.991
G1 X-0.945 Y-12.113
G1 X-0.734 Y-12.212
G1 X-0.513 Y-12.285
G1 X-0.285 Y-12.332
G1 X-0.053 Y-12.352
G1 X0.180 Y-12.344
G1 X0.410 Y-12.310
G1 X0.635 Y-12.248
G1 X0.851 Y-12.161
G1 X1.055 Y-12.050
G1 X1.245 Y-11.915
G1 X1.418 Y-11.758
G1 X1.571 Y-11.583
G1 X1.703 Y-11.391
G1 X1.812 Y-11.185
G1 X1.895 Y-10.968
G1 X1.953 Y-10.742
G1 X1.984 Y-10.511
G1 X1.988 Y-10.278
G1 X1.964 Y-10.047
G1 X1.914 Y-9.819
G1 X1.837 Y-9.599
G1 X1.735 Y-9.390
G1 X1.610 Y-9.194
G0 Z10
G0 X2.221 Y-10.363
Z10
Z2
G1 Z-0.525 F80
G1 X2.221 Y-10.363 F200
G1 X2.206 Y-10.103
G1 X2.160 Y-9.847
G1 X2.085 Y-9.598
G1 X1.982 Y-9.360
G1 X1.851 Y-9.135
G1 X1.695 Y-8.927
G1 X1.515 Y-8.739
G1 X1.315 Y-8.573
G1 X1.097 Y-8.432
G1 X0.864 Y-8.317
G1 X0.619 Y-8.230
G1 X0.365 Y-8.172
G1 X0.106 Y-8.144
G1 X-0.154 Y-8.147
G1 X-0.412 Y-8.180
G1 X-0.664 Y-8.243
G1 X-0.907 Y-8.336
G1 X-1.138 Y-8.455
G1 X-1.353 Y-8.602
G1 X-1.549 Y-8.772
G1 X-1.725 Y-8.964
G1 X-1.877 Y-9.175
G1 X-2.003 Y-9.402
G1 X-2.101 Y-9.643
G1 X-2.171 Y-9.894
G1 X-2.211 Y-10.150
G1 X-2.221 Y-10.410
G1 X-2.200 Y-10.670
G1 X-2.149 Y-10.925
G1 X-2.069 Y-11.172
G1 X-1.960 Y-11.408
G1 X-1.824 Y-11.630
G1 X-1.664 Y-11.834
G1 X-1.480 Y-12.019
G1 X-1.277 Y-12.180
G1 X-1.055 Y-12.317
G1 X-0.820 Y-12.427
G1 X-0.573 Y-12.509
G1 X-0.318 Y-12.561
G1 X-0.059 Y-12.583
G1 X0.201 Y-12.575
G1 X0.458 Y-12.536
G1 X0.709 Y-12.468
G1 X0.950 Y-12.371
G1 X1.178 Y-12.246
G1 X1.390 Y-12.095
G1 X1.583 Y-11.921
G1 X1.754 Y-11.725
G1 X1.901 Y-11.511
G1 X2.023 Y-11.281
G1 X2.116 Y-11.038
G1 X2.180 Y-10.786
G1 X2.215 Y-10.528
G1 X2.219 Y-10.268
G1 X2.193 Y-10.010
G1 X2.136 Y-9.756
G1 X2.051 Y-9.510
G1 X1.937 Y-9.276
G1 X1.797 Y-9.057
G0 Z10
G0 X2.453 Y-10.363
Z10
Z2
G1 Z-0.525 F80
G1 X2.453 Y-10.363 F200
G1 X2.436 Y-10.076
G1 X2.386 Y-9.794
G1 X2.303 Y-9.519
G1 X2.188 Y-9.255
G1 X2.044 Y-9.007
G1 X1.871 Y-8.778
G1 X1.673 Y-8.570
G1 X1.452 Y-8.386
G1 X1.211 Y-8.230
G1 X0.954 Y-8.103
G1 X0.683 Y-8.007
G1 X0.403 Y-7.944
G1 X0.117 Y-7.913
G1 X-0.170 Y-7.916
G1 X-0.454 Y-7.953
G1 X-0.733 Y-8.022
G1 X-1.002 Y-8.124
G1 X-1.256 Y-8.257
G1 X-1.494 Y-8.418
G1 X-1.711 Y-8.606
G1 X-1.905 Y-8.818
G1 X-2.072 Y-9.051
G1 X-2.211 Y-9.302
G1 X-2.320 Y-9.568
G1 X-2.397 Y-9.845
G1 X-2.441 Y-10.128
G1 X-2.452 Y-10.415
G1 X-2.429 Y-10.701
G1 X-2.373 Y-10.983
G1 X-2.284 Y-11.256
G1 X-2.164 Y-11.517
G1 X-2.014 Y-11.762
G1 X-1.837 Y-11.988
G1 X-1.635 Y-12.191
G1 X-1.410 Y-12.370
G1 X-1.166 Y-12.521
G1 X-0.905 Y-12.642
G1 X-0.633 Y-12.733
G1 X-0.351 Y-12.790
G1 X-0.065 Y-12.815
G1 X0.222 Y-12.806
G1 X0.506 Y-12.763
G1 X0.783 Y-12.687
G1 X1.049 Y-12.580
G1 X1.301 Y-12.442
G1 X1.535 Y-12.276
G1 X1.748 Y-12.083
G1 X1.937 Y-11.867
G1 X2.100 Y-11.631
G1 X2.233 Y-11.376
G1 X2.337 Y-11.108
G1 X2.408 Y-10.830
G1 X2.446 Y-10.546
G1 X2.450 Y-10.259
G1 X2.421 Y-9.973
G1 X2.359 Y-9.693
G1 X2.265 Y-9.421
G1 X2.139 Y-9.163
G1 X1.984 Y-8.921
G0 Z10
G0 X2.684 Y-10.363
Z10
Z2
G1 Z-0.525 F80
G1 X2.684 Y-10.363 F200
G1 X2.666 Y-10.049
G1 X2.611 Y-9.740
G1 X2.520 Y-9.439
G1 X2.395 Y-9.151
G1 X2.237 Y-8.879
G1 X2.048 Y-8.628
G1 X1.831 Y-8.400
G1 X1.589 Y-8.200
G1 X1.326 Y-8.029
G1 X1.044 Y-7.890
G1 X0.747 Y-7.785
G1 X0.441 Y-7.715
G1 X0.129 Y-7.682
G1 X-0.186 Y-7.685
G1 X-0.497 Y-7.725
G1 X-0.802 Y-7.801
G1 X-1.096 Y-7.913
G1 X-1.375 Y-8.058
G1 X-1.635 Y-8.234
G1 X-1.873 Y-8.440
G1 X-2.085 Y-8.672
G1 X-2.268 Y-8.927
G1 X-2.420 Y-9.202
G1 X-2.539 Y-9.493
G1 X-2.624 Y-9.796
G1 X-2.672 Y-10.106
G1 X-2.684 Y-10.420
G1 X-2.659 Y-10.733
G1 X-2.597 Y-11.042
G1 X-2.500 Y-11.340
G1 X-2.369 Y-11.626
G1 X-2.205 Y-11.894
G1 X-2.011 Y-12.141
G1 X-1.789 Y-12.364
G1 X-1.543 Y-12.559
G1 X-1.276 Y-12.725
G1 X-0.991 Y-12.858
G1 X-0.692 Y-12.956
G1 X-0.385 Y-13.020
G1 X-0.071 Y-13.046
G1 X0.243 Y-13.036
G1 X0.553 Y-12.990
G1 X0.857 Y-12.907
G1 X1.148 Y-12.789
G1 X1.424 Y-12.638
G1 X1.680 Y-12.456
G1 X1.913 Y-12.246
G1 X2.120 Y-12.009
G1 X2.298 Y-11.750
G1 X2.444 Y-11.472
G1 X2.557 Y-11.179
G1 X2.635 Y-10.874
G1 X2.677 Y-10.563
G1 X2.682 Y-10.249
G1 X2.650 Y-9.936
G1 X2.582 Y-9.629
G1 X2.479 Y-9.332
G1 X2.341 Y-9.050
G1 X2.172 Y-8.785
G0 Z10
G0 X2.916 Y-10.363
Z10
Z2
G1 Z-0.525 F80
G1 X2.916 Y-10.363 F200
G1 X2.896 Y-10.022
G1 X2.836 Y-9.686
G1 X2.738 Y-9.359
G1 X2.602 Y-9.046
G1 X2.430 Y-8.751
G1 X2.225 Y-8.478
G1 X1.989 Y-8.231
G1 X1.726 Y-8.013
G1 X1.440 Y-7.828
G1 X1.134 Y-7.677
G1 X0.812 Y-7.563
G1 X0.479 Y-7.487
G1 X0.140 Y-7.451
G1 X-0.202 Y-7.454
G1 X-0.540 Y-7.498
G1 X-0.871 Y-7.580
G1 X-1.191 Y-7.701
G1 X-1.494 Y-7.859
G1 X-1.776 Y-8.051
G1 X-2.034 Y-8.274
G1 X-2.264 Y-8.526
G1 X-2.464 Y-8.803
G1 X-2.629 Y-9.102
G1 X-2.758 Y-9.418
G1 X-2.850 Y-9.747
G1 X-2.902 Y-10.084
G1 X-2.915 Y-10.425
G1 X-2.888 Y-10.765
G1 X-2.821 Y-11.100
G1 X-2.716 Y-11.425
G1 X-2.573 Y-11.735
G1 X-2.395 Y-12.026
G1 X-2.184 Y-12.295
G1 X-1.943 Y-12.537
G1 X-1.676 Y-12.749
G1 X-1.386 Y-12.929
G1 X-1.076 Y-13.073
G1 X-0.752 Y-13.180
G1 X-0.418 Y-13.249
G1 X-0.078 Y-13.278
G1 X0.264 Y-13.267
G1 X0.601 Y-13.216
G1 X0.931 Y-13.126
G1 X1.247 Y-12.999
G1 X1.547 Y-12.835
G1 X1.825 Y-12.637
G1 X2.078 Y-12.408
G1 X2.303 Y-12.151
G1 X2.496 Y-11.870
G1 X2.655 Y-11.568
G1 X2.778 Y-11.249
G1 X2.862 Y-10.919
G1 X2.908 Y-10.580
G1 X2.913 Y-10.239
G1 X2.879 Y-9.899
G1 X2.805 Y-9.566
G1 X2.692 Y-9.244
G1 X2.543 Y-8.937
G1 X2.359 Y-8.649
G0 Z10
G0 X3.147 Y-10.363
Z10
Z2
G1 Z-0.525 F80
G1 X3.147 Y-10.363 F200
G1 X3.126 Y-9.995
G1 X3.061 Y-9.632
G1 X2.955 Y-9.280
G1 X2.808 Y-8.942
G1 X2.623 Y-8.623
G1 X2.401 Y-8.329
G1 X2.147 Y-8.062
G1 X1.864 Y-7.827
G1 X1.554 Y-7.626
G1 X1.224 Y-7.463
G1 X0.876 Y-7.340
G1 X0.517 Y-7.258
G1 X0.151 Y-7.219
G1 X-0.218 Y-7.223
G1 X-0.583 Y-7.270
G1 X-0.941 Y-7.359
G1 X-1.285 Y-7.490
G1 X-1.612 Y-7.660
G1 X-1.917 Y-7.867
G1 X-2.196 Y-8.108
G1 X-2.444 Y-8.380
G1 X-2.659 Y-8.679
G1 X-2.838 Y-9.002
G1 X-2.977 Y-9.343
G1 X-3.076 Y-9.698
G1 X-3.133 Y-10.062
G1 X-3.147 Y-10.430
G1 X-3.117 Y-10.797
G1 X-3.045 Y-11.159
G1 X-2.931 Y-11.509
G1 X-2.777 Y-11.844
G1 X-2.585 Y-12.158
G1 X-2.358 Y-12.448
G1 X-2.098 Y-12.709
G1 X-1.809 Y-12.939
G1 X-1.496 Y-13.132
G1 X-1.162 Y-13.288
G1 X-0.812 Y-13.404
G1 X-0.451 Y-13.478
G1 X-0.084 Y-13.509
G1 X0.285 Y-13.497
G1 X0.649 Y-13.443
G1 X1.004 Y-13.346
G1 X1.346 Y-13.208
G1 X1.669 Y-13.031
G1 X1.970 Y-12.818
G1 X2.243 Y-12.571
G1 X2.486 Y-12.293
G1 X2.694 Y-11.990
G1 X2.866 Y-11.664
G1 X2.998 Y-11.320
G1 X3.090 Y-10.963
G1 X3.139 Y-10.597
G1 X3.145 Y-10.229
G1 X3.107 Y-9.862
G1 X3.027 Y-9.503
G1 X2.906 Y-9.155
G1 X2.745 Y-8.823
G1 X2.546 Y-8.513
G0 Z10
G0 X3.379 Y-10.363
Z10
Z2
G1 Z-0.525 F80
G1 X3.379 Y-10.363 F200
G1 X3.356 Y-9.968
G1 X3.287 Y-9.579
G1 X3.172 Y-9.200
G1 X3.015 Y-8.837
G1 X2.816 Y-8.495
G1 X2.578 Y-8.179
G1 X2.305 Y-7.892
G1 X2.001 Y-7.640
G1 X1.669 Y-7.425
G1 X1.314 Y-7.250
G1 X0.941 Y-7.118
G1 X0.555 Y-7.030
G1 X0.162 Y-6.988
G1 X-0.234 Y-6.992
G1 X-0.626 Y-7.043
G1 X-1.010 Y-7.138
G1 X-1.380 Y-7.279
G1 X-1.731 Y-7.461
G1 X-2.058 Y-7.683
G1 X-2.357 Y-7.942
G1 X-2.624 Y-8.234
G1 X-2.855 Y-8.556
G1 X-3.047 Y-8.902
G1 X-3.196 Y-9.268
G1 X-3.303 Y-9.649
G1 X-3.363 Y-10.040
G1 X-3.378 Y-10.435
G1 X-3.347 Y-10.829
G1 X-3.269 Y-11.217
G1 X-3.147 Y-11.593
G1 X-2.982 Y-11.953
G1 X-2.775 Y-12.290
G1 X-2.531 Y-12.602
G1 X-2.252 Y-12.882
G1 X-1.942 Y-13.128
G1 X-1.606 Y-13.336
G1 X-1.247 Y-13.503
G1 X-0.872 Y-13.628
G1 X-0.484 Y-13.707
G1 X-0.090 Y-13.741
G1 X0.305 Y-13.728
G1 X0.697 Y-13.669
G1 X1.078 Y-13.565
G1 X1.445 Y-13.417
G1 X1.792 Y-13.227
G1 X2.115 Y-12.998
G1 X2.408 Y-12.733
G1 X2.669 Y-12.435
G1 X2.893 Y-12.109
G1 X3.077 Y-11.759
G1 X3.219 Y-11.390
G1 X3.317 Y-11.007
G1 X3.370 Y-10.615
G1 X3.376 Y-10.219
G1 X3.336 Y-9.826
G1 X3.250 Y-9.439
G1 X3.120 Y-9.066
G1 X2.947 Y-8.710
G1 X2.734 Y-8.377
G0 Z10
G0 X3.611 Y-10.363
Z10
Z2
G1 Z-0.525 F80
G1 X3.611 Y-10.363 F200
G1 X3.586 Y-9.941
G1 X3.512 Y-9.525
G1 X3.390 Y-9.120
G1 X3.221 Y-8.732
G1 X3.009 Y-8.367
G1 X2.755 Y-8.029
G1 X2.463 Y-7.723
G1 X2.138 Y-7.453
G1 X1.783 Y-7.223
G1 X1.404 Y-7.037
G1 X1.005 Y-6.895
G1 X0.593 Y-6.802
G1 X0.173 Y-6.757
G1 X-0.250 Y-6.761
G1 X-0.669 Y-6.815
G1 X-1.079 Y-6.917
G1 X-1.474 Y-7.067
G1 X-1.849 Y-7.262
G1 X-2.199 Y-7.500
G1 X-2.519 Y-7.776
G1 X-2.804 Y-8.088
G1 X-3.051 Y-8.432
G1 X-3.255 Y-8.801
G1 X-3.416 Y-9.193
G1 X-3.529 Y-9.600
G1 X-3.594 Y-10.017
G1 X-3.610 Y-10.440
G1 X-3.576 Y-10.861
G1 X-3.493 Y-11.276
G1 X-3.363 Y-11.678
G1 X-3.186 Y-12.062
G1 X-2.966 Y-12.423
G1 X-2.704 Y-12.755
G1 X-2.406 Y-13.055
G1 X-2.075 Y-13.318
G1 X-1.716 Y-13.540
G1 X-1.333 Y-13.719
G1 X-0.931 Y-13.851
G1 X-0.517 Y-13.936
G1 X-0.096 Y-13.972
G1 X0.326 Y-13.959
G1 X0.744 Y-13.896
G1 X1.152 Y-13.785
G1 X1.544 Y-13.627
G1 X1.915 Y-13.424
G1 X2.260 Y-13.179
G1 X2.573 Y-12.896
G1 X2.852 Y-12.577
G1 X3.091 Y-12.229
G1 X3.288 Y-11.855
G1 X3.440 Y-11.460
G1 X3.544 Y-11.051
G1 X3.600 Y-10.632
G1 X3.607 Y-10.209
G1 X3.565 Y-9.789
G1 X3.473 Y-9.376
G1 X3.334 Y-8.977
G1 X3.149 Y-8.597
G1 X2.921 Y-8.241
G0 Z10
G0 X3.842 Y-10.363
Z10
Z2
G1 Z-0.525 F80
G1 X3.842 Y-10.363 F200
G1 X3.816 Y-9.914
G1 X3.737 Y-9.471
G1 X3.607 Y-9.040
G1 X3.428 Y-8.628
G1 X3.202 Y-8.239
G1 X2.932 Y-7.879
G1 X2.621 Y-7.554
G1 X2.275 Y-7.267
G1 X1.897 Y-7.022
G1 X1.494 Y-6.823
G1 X1.070 Y-6.673
G1 X0.631 Y-6.573
G1 X0.184 Y-6.525
G1 X-0.266 Y-6.530
G1 X-0.712 Y-6.587
G1 X-1.148 Y-6.697
G1 X-1.569 Y-6.856
G1 X-1.968 Y-7.063
G1 X-2.340 Y-7.316
G1 X-2.680 Y-7.610
G1 X-2.984 Y-7.942
G1 X-3.246 Y-8.308
G1 X-3.464 Y-8.701
G1 X-3.635 Y-9.118
G1 X-3.755 Y-9.551
G1 X-3.824 Y-9.995
G1 X-3.841 Y-10.445
G1 X-3.805 Y-10.893
G1 X-3.717 Y-11.334
G1 X-3.578 Y-11.762
G1 X-3.390 Y-12.171
G1 X-3.156 Y-12.555
G1 X-2.878 Y-12.908
G1 X-2.561 Y-13.227
G1 X-2.208 Y-13.507
G1 X-1.826 Y-13.744
G1 X-1.418 Y-13.934
G1 X-0.991 Y-14.075
G1 X-0.550 Y-14.165
G1 X-0.102 Y-14.204
G1 X0.347 Y-14.189
G1 X0.792 Y-14.123
G1 X1.226 Y-14.004
G1 X1.643 Y-13.836
G1 X2.038 Y-13.620
G1 X2.405 Y-13.360
G1 X2.738 Y-13.058
G1 X3.035 Y-12.719
G1 X3.289 Y-12.349
G1 X3.499 Y-11.951
G1 X3.660 Y-11.531
G1 X3.772 Y-11.095
G1 X3.831 Y-10.649
G1 X3.839 Y-10.199
G1 X3.793 Y-9.752
G1 X3.696 Y-9.313
G1 X3.548 Y-8.888
G1 X3.351 Y-8.483
G1 X3.108 Y-8.105
G0 Z10
G0 X4.074 Y-10.363
Z10
Z2
G1 Z-0.525 F80
G1 X4.074 Y-10.363 F200
G1 X4.046 Y-9.887
G1 X3.962 Y-9.417
G1 X3.825 Y-8.961
G1 X3.635 Y-8.523
G1 X3.395 Y-8.111
G1 X3.108 Y-7.730
G1 X2.779 Y-7.385
G1 X2.412 Y-7.080
G1 X2.012 Y-6.821
G1 X1.584 Y-6.610
G1 X1.134 Y-6.450
G1 X0.669 Y-6.345
G1 X0.195 Y-6.294
G1 X-0.282 Y-6.299
G1 X-0.755 Y-6.360
G1 X-1.218 Y-6.476
G1 X-1.664 Y-6.644
G1 X-2.087 Y-6.864
G1 X-2.481 Y-7.132
G1 X-2.842 Y-7.444
G1 X-3.164 Y-7.797
G1 X-3.442 Y-8.184
G1 X-3.673 Y-8.601
G1 X-3.854 Y-9.042
G1 X-3.982 Y-9.502
G1 X-4.055 Y-9.973
G1 X-4.073 Y-10.450
G1 X-4.035 Y-10.925
G1 X-3.941 Y-11.393
G1 X-3.794 Y-11.846
G1 X-3.595 Y-12.280
G1 X-3.346 Y-12.687
G1 X-3.051 Y-13.062
G1 X-2.715 Y-13.400
G1 X-2.342 Y-13.697
G1 X-1.936 Y-13.947
G1 X-1.504 Y-14.149
G1 X-1.051 Y-14.299
G1 X-0.584 Y-14.395
G1 X-0.108 Y-14.435
G1 X0.368 Y-14.420
G1 X0.840 Y-14.349
G1 X1.300 Y-14.224
G1 X1.742 Y-14.045
G1 X2.161 Y-13.816
G1 X2.550 Y-13.540
G1 X2.903 Y-13.220
G1 X3.218 Y-12.862
G1 X3.487 Y-12.468
G1 X3.710 Y-12.046
G1 X3.881 Y-11.601
G1 X3.999 Y-11.139
G1 X4.062 Y-10.666
G1 X4.070 Y-10.190
G1 X4.022 Y-9.715
G1 X3.919 Y-9.249
G1 X3.762 Y-8.799
G1 X3.553 Y-8.370
G1 X3.296 Y-7.969
G0 Z10
G0 X4.305 Y-10.363
Z10
Z2
G1 Z-0.525 F80
G1 X4.305 Y-10.363 F200
G1 X4.276 Y-9.860
G1 X4.188 Y-9.364
G1 X4.042 Y-8.881
G1 X3.841 Y-8.419
G1 X3.588 Y-7.983
G1 X3.285 Y-7.580
G1 X2.937 Y-7.215
G1 X2.549 Y-6.893
G1 X2.126 Y-6.619
G1 X1.674 Y-6.397
G1 X1.199 Y-6.228
G1 X0.707 Y-6.116
G1 X0.206 Y-6.063
G1 X-0.298 Y-6.068
G1 X-0.798 Y-6.132
G1 X-1.287 Y-6.255
G1 X-1.758 Y-6.433
G1 X-2.205 Y-6.665
G1 X-2.622 Y-6.949
G1 X-3.003 Y-7.278
G1 X-3.343 Y-7.651
G1 X-3.638 Y-8.060
G1 X-3.882 Y-8.501
G1 X-4.073 Y-8.967
G1 X-4.208 Y-9.453
G1 X-4.286 Y-9.951
G1 X-4.304 Y-10.455
G1 X-4.264 Y-10.957
G1 X-4.165 Y-11.451
G1 X-4.010 Y-11.931
G1 X-3.799 Y-12.389
G1 X-3.536 Y-12.819
G1 X-3.225 Y-13.215
G1 X-2.869 Y-13.573
G1 X-2.475 Y-13.886
G1 X-2.046 Y-14.151
G1 X-1.589 Y-14.364
G1 X-1.111 Y-14.523
G1 X-0.617 Y-14.624
G1 X-0.115 Y-14.667
G1 X0.389 Y-14.651
G1 X0.888 Y-14.576
G1 X1.374 Y-14.443
G1 X1.841 Y-14.255
G1 X2.284 Y-14.013
G1 X2.695 Y-13.721
G1 X3.068 Y-13.383
G1 X3.400 Y-13.004
G1 X3.686 Y-12.588
G1 X3.921 Y-12.142
G1 X4.102 Y-11.672
G1 X4.226 Y-11.183
G1 X4.293 Y-10.684
G1 X4.301 Y-10.180
G1 X4.250 Y-9.678
G1 X4.141 Y-9.186
G1 X3.975 Y-8.710
G1 X3.755 Y-8.257
G1 X3.483 Y-7.832
G0 Z10
G0 X4.537 Y-10.363
Z10
Z2
G1 Z-0.525 F80
G1 X4.537 Y-10.363 F200
G1 X4.506 Y-9.833
G1 X4.413 Y-9.310
G1 X4.260 Y-8.801
G1 X4.048 Y-8.314
G1 X3.781 Y-7.855
G1 X3.462 Y-7.430
G1 X3.095 Y-7.046
G1 X2.686 Y-6.707
G1 X2.240 Y-6.418
G1 X1.764 Y-6.183
G1 X1.263 Y-6.006
G1 X0.745 Y-5.888
G1 X0.217 Y-5.831
G1 X-0.314 Y-5.837
G1 X-0.841 Y-5.905
G1 X-1.356 Y-6.034
G1 X-1.853 Y-6.222
G1 X-2.324 Y-6.467
G1 X-2.763 Y-6.765
G1 X-3.165 Y-7.113
G1 X-3.523 Y-7.505
G1 X-3.833 Y-7.936
G1 X-4.091 Y-8.401
G1 X-4.292 Y-8.892
G1 X-4.434 Y-9.404
G1 X-4.516 Y-9.929
G1 X-4.536 Y-10.460
G1 X-4.493 Y-10.989
G1 X-4.389 Y-11.510
G1 X-4.225 Y-12.015
G1 X-4.003 Y-12.498
G1 X-3.726 Y-12.951
G1 X-3.398 Y-13.369
G1 X-3.024 Y-13.745
G1 X-2.608 Y-14.076
G1 X-2.156 Y-14.355
G1 X-1.675 Y-14.579
G1 X-1.170 Y-14.746
G1 X-0.650 Y-14.853
G1 X-0.121 Y-14.898
G1 X0.410 Y-14.881
G1 X0.935 Y-14.802
G1 X1.448 Y-14.663
G1 X1.940 Y-14.464
G1 X2.406 Y-14.209
G1 X2.839 Y-13.901
G1 X3.234 Y-13.545
G1 X3.583 Y-13.146
G1 X3.884 Y-12.708
G1 X4.131 Y-12.238
G1 X4.322 Y-11.742
G1 X4.454 Y-11.227
G1 X4.524 Y-10.701
G1 X4.533 Y-10.170
G1 X4.479 Y-9.641
G1 X4.364 Y-9.123
G1 X4.189 Y-8.621
G1 X3.957 Y-8.144
G1 X3.670 Y-7.696
G0 Z10
G0 X4.768 Y-10.363
Z10
Z2
G1 Z-0.525 F80
G1 X4.768 Y-10.363 F200
G1 X4.736 Y-9.806
G1 X4.638 Y-9.256
G1 X4.477 Y-8.722
G1 X4.254 Y-8.210
G1 X3.974 Y-7.727
G1 X3.638 Y-7.281
G1 X3.253 Y-6.877
G1 X2.823 Y-6.520
G1 X2.355 Y-6.217
G1 X1.854 Y-5.970
G1 X1.328 Y-5.783
G1 X0.784 Y-5.659
G1 X0.228 Y-5.600
G1 X-0.330 Y-5.606
G1 X-0.884 Y-5.677
G1 X-1.425 Y-5.813
G1 X-1.947 Y-6.010
G1 X-2.443 Y-6.268
G1 X-2.905 Y-6.581
G1 X-3.327 Y-6.947
G1 X-3.703 Y-7.359
G1 X-4.029 Y-7.812
G1 X-4.299 Y-8.301
G1 X-4.511 Y-8.817
G1 X-4.661 Y-9.355
G1 X-4.747 Y-9.907
G1 X-4.767 Y-10.465
G1 X-4.723 Y-11.021
G1 X-4.614 Y-11.569
G1 X-4.441 Y-12.099
G1 X-4.208 Y-12.607
G1 X-3.917 Y-13.083
G1 X-3.572 Y-13.522
G1 X-3.178 Y-13.918
G1 X-2.741 Y-14.265
G1 X-2.266 Y-14.559
G1 X-1.760 Y-14.795
G1 X-1.230 Y-14.970
G1 X-0.683 Y-15.082
G1 X-0.127 Y-15.130
G1 X0.431 Y-15.112
G1 X0.983 Y-15.029
G1 X1.522 Y-14.882
G1 X2.039 Y-14.673
G1 X2.529 Y-14.405
G1 X2.984 Y-14.082
G1 X3.399 Y-13.708
G1 X3.766 Y-13.288
G1 X4.082 Y-12.827
G1 X4.342 Y-12.333
G1 X4.543 Y-11.812
G1 X4.681 Y-11.271
G1 X4.755 Y-10.718
G1 X4.764 Y-10.160
G1 X4.708 Y-9.605
G1 X4.587 Y-9.059
G1 X4.403 Y-8.532
G1 X4.159 Y-8.030
G1 X3.858 Y-7.560
G0 Z10
G0 X5.000 Y-10.363
Z10
Z2
G1 Z-0.525 F80
G1 X5.000 Y-10.363 F200
G1 X4.966 Y-9.779
G1 X4.863 Y-9.202
G1 X4.694 Y-8.642
G1 X4.461 Y-8.105
G1 X4.167 Y-7.599
G1 X3.815 Y-7.131
G1 X3.411 Y-6.707
G1 X2.960 Y-6.334
G1 X2.469 Y-6.015
G1 X1.944 Y-5.756
G1 X1.392 Y-5.561
G1 X0.822 Y-5.431
G1 X0.240 Y-5.369
G1 X-0.346 Y-5.375
G1 X-0.926 Y-5.450
G1 X-1.494 Y-5.592
G1 X-2.042 Y-5.799
G1 X-2.561 Y-6.069
G1 X-3.046 Y-6.398
G1 X-3.488 Y-6.781
G1 X-3.883 Y-7.213
G1 X-4.224 Y-7.688
G1 X-4.508 Y-8.200
G1 X-4.730 Y-8.742
G1 X-4.887 Y-9.306
G1 X-4.977 Y-9.885
G1 X-4.999 Y-10.469
G1 X-4.952 Y-11.053
G1 X-4.838 Y-11.627
G1 X-4.657 Y-12.184
G1 X-4.412 Y-12.716
G1 X-4.107 Y-13.215
G1 X-3.745 Y-13.676
G1 X-3.332 Y-14.091
G1 X-2.874 Y-14.455
G1 X-2.376 Y-14.762
G1 X-1.846 Y-15.010
G1 X-1.290 Y-15.194
G1 X-0.716 Y-15.311
G1 X-0.133 Y-15.361
G1 X0.452 Y-15.343
G1 X1.031 Y-15.256
G1 X1.596 Y-15.102
G1 X2.139 Y-14.883
G1 X2.652 Y-14.602
G1 X3.129 Y-14.263
G1 X3.564 Y-13.870
G1 X3.949 Y-13.430
G1 X4.280 Y-12.947
G1 X4.553 Y-12.429
G1 X4.763 Y-11.883
G1 X4.908 Y-11.316
G1 X4.986 Y-10.735
G1 X4.995 Y-10.150
G1 X4.936 Y-9.568
G1 X4.810 Y-8.996
G1 X4.617 Y-8.443
G1 X4.361 Y-7.917
G1 X4.045 Y-7.424
G0 Z10
G0 Z10
G17
G28 G91 Z10
G90
G28 G91 X0 Y0
G90
M30
%