%
(guilloche)
(T501  D=0.125 CR=0 - ZMIN=-0.129 - vee)
G90
G17
G21
G28 G91 Z0
G90

(scribe)
T501 M6
S10000 M3
G54
G0 X21.100 Y0.000
Z0.6
Z0.2
Z0.01
G1 Z-0.125 F400
G1 X21.100 Y0.000
G1 X21.074 Y-0.731
G1 X20.998 Y-1.458
G1 X20.870 Y-2.178
G1 X20.693 Y-2.888
G1 X20.466 Y-3.584
G1 X20.192 Y-4.262
G1 X19.870 Y-4.920
G1 X19.503 Y-5.554
G1 X19.093 Y-6.162
G1 X18.640 Y-6.739
G1 X18.149 Y-7.284
G1 X17.620 Y-7.794
G1 X17.057 Y-8.266
G1 X16.461 Y-8.698
G1 X15.837 Y-9.088
G1 X15.186 Y-9.434
G1 X14.513 Y-9.735
G1 X13.820 Y-9.988
G1 X13.110 Y-10.193
G1 X12.387 Y-10.348
G1 X11.654 Y-10.453
G1 X10.915 Y-10.507
G1 X10.173 Y-10.511
G1 X9.432 Y-10.463
G1 X8.696 Y-10.364
G1 X7.967 Y-10.214
G1 X7.250 Y-10.015
G1 X6.547 Y-9.767
G1 X5.862 Y-9.470
G1 X5.199 Y-9.128
G1 X4.560 Y-8.740
G1 X3.949 Y-8.309
G1 X3.368 Y-7.837
G1 X2.821 Y-7.327
G1 X2.309 Y-6.779
G1 X1.835 Y-6.198
G1 X1.402 Y-5.585
G1 X1.011 Y-4.944
G1 X0.665 Y-4.278
G1 X0.365 Y-3.589
G1 X0.112 Y-2.882
G1 X-0.092 Y-2.158
G1 X-0.246 Y-1.422
G1 X-0.350 Y-0.678
G1 X-0.403 Y0.072
G1 X-0.405 Y0.824
G1 X-0.356 Y1.575
G1 X-0.256 Y2.320
G1 X-0.106 Y3.056
G1 X0.094 Y3.780
G1 X0.343 Y4.489
G1 X0.639 Y5.179
G1 X0.982 Y5.847
G1 X1.369 Y6.489
G1 X1.799 Y7.104
G1 X2.269 Y7.687
G1 X2.778 Y8.237
G1 X3.322 Y8.750
G1 X3.900 Y9.224
G1 X4.509 Y9.657
G1 X5.145 Y10.047
G1 X5.806 Y10.393
G1 X6.488 Y10.692
G1 X7.189 Y10.943
G1 X7.905 Y11.146
G1 X8.632 Y11.298
G1 X9.367 Y11.400
G1 X10.107 Y11.451
G1 X10.848 Y11.451
G1 X11.586 Y11.400
G1 X12.318 Y11.298
G1 X13.041 Y11.145
G1 X13.751 Y10.943
G1 X14.445 Y10.693
G1 X15.118 Y10.396
G1 X15.770 Y10.052
G1 X16.395 Y9.665
G1 X16.991 Y9.235
G1 X17.555 Y8.765
G1 X18.085 Y8.258
G1 X18.578 Y7.715
G1 X19.032 Y7.139
G1 X19.444 Y6.534
G1 X19.813 Y5.901
G1 X20.136 Y5.244
G1 X20.413 Y4.567
G1 X20.642 Y3.872
G1 X20.821 Y3.163
G1 X20.951 Y2.443
G1 X21.029 Y1.716
G1 X21.057 Y0.986
G1 X21.034 Y0.255
G1 X20.959 Y-0.473
G1 X20.834 Y-1.194
G1 X20.659 Y-1.904
G1 X20.434 Y-2.601
G1 X20.161 Y-3.281
G1 X19.841 Y-3.940
G1 X19.476 Y-4.576
G1 X19.067 Y-5.185
G1 X18.617 Y-5.764
G1 X18.126 Y-6.312
G1 X17.599 Y-6.824
G1 X17.037 Y-7.298
G1 X16.442 Y-7.733
G1 X15.819 Y-8.125
G1 X15.169 Y-8.474
G1 X14.496 Y-8.777
G1 X13.802 Y-9.034
G1 X13.092 Y-9.241
G1 X12.369 Y-9.400
G1 X11.636 Y-9.508
G1 X10.896 Y-9.565
G1 X10.154 Y-9.572
G1 X9.412 Y-9.527
G1 X8.674 Y-9.431
G1 X7.944 Y-9.285
G1 X7.224 Y-9.089
G1 X6.520 Y-8.843
G1 X5.833 Y-8.550
G1 X5.168 Y-8.210
G1 X4.526 Y-7.825
G1 X3.912 Y-7.397
G1 X3.329 Y-6.928
G1 X2.778 Y-6.420
G1 X2.263 Y-5.874
G1 X1.786 Y-5.295
G1 X1.349 Y-4.684
G1 X0.955 Y-4.045
G1 X0.605 Y-3.380
G1 X0.301 Y-2.693
G1 X0.045 Y-1.986
G1 X-0.163 Y-1.264
G1 X-0.321 Y-0.529
G1 X-0.429 Y0.215
G1 X-0.487 Y0.965
G1 X-0.493 Y1.717
G1 X-0.448 Y2.467
G1 X-0.352 Y3.213
G1 X-0.205 Y3.950
G1 X-0.009 Y4.675
G1 X0.236 Y5.384
G1 X0.528 Y6.075
G1 X0.867 Y6.745
G1 X1.251 Y7.389
G1 X1.677 Y8.005
G1 X2.144 Y8.590
G1 X2.649 Y9.141
G1 X3.191 Y9.657
G1 X3.766 Y10.133
G1 X4.372 Y10.569
G1 X5.006 Y10.962
G1 X5.664 Y11.310
G1 X6.344 Y11.612
G1 X7.043 Y11.866
G1 X7.757 Y12.071
G1 X8.483 Y12.227
G1 X9.217 Y12.331
G1 X9.955 Y12.385
G1 X10.695 Y12.388
G1 X11.433 Y12.340
G1 X12.165 Y12.241
G1 X12.887 Y12.092
G1 X13.597 Y11.893
G1 X14.291 Y11.645
G1 X14.965 Y11.350
G1 X15.617 Y11.010
G1 X16.242 Y10.625
G1 X16.840 Y10.197
G1 X17.405 Y9.730
G1 X17.936 Y9.224
G1 X18.431 Y8.683
G1 X18.886 Y8.109
G1 X19.300 Y7.505
G1 X19.670 Y6.874
G1 X19.995 Y6.219
G1 X20.274 Y5.543
G1 X20.505 Y4.849
G1 X20.686 Y4.140
G1 X20.818 Y3.421
G1 X20.899 Y2.694
G1 X20.929 Y1.963
G1 X20.907 Y1.232
G1 X20.835 Y0.504
G1 X20.712 Y-0.217
G1 X20.539 Y-0.929
G1 X20.316 Y-1.627
G1 X20.045 Y-2.308
G1 X19.727 Y-2.968
G1 X19.364 Y-3.606
G1 X18.957 Y-4.217
G1 X18.508 Y-4.798
G1 X18.019 Y-5.347
G1 X17.493 Y-5.862
G1 X16.931 Y-6.339
G1 X16.338 Y-6.776
G1 X15.715 Y-7.171
G1 X15.066 Y-7.523
G1 X14.393 Y-7.829
G1 X13.700 Y-8.089
G1 X12.990 Y-8.299
G1 X12.266 Y-8.461
G1 X11.533 Y-8.572
G1 X10.793 Y-8.633
G1 X10.049 Y-8.643
G1 X9.306 Y-8.601
G1 X8.567 Y-8.509
G1 X7.835 Y-8.366
G1 X7.114 Y-8.172
G1 X6.408 Y-7.930
G1 X5.719 Y-7.640
G1 X5.051 Y-7.303
G1 X4.407 Y-6.921
G1 X3.791 Y-6.496
G1 X3.204 Y-6.029
G1 X2.651 Y-5.523
G1 X2.132 Y-4.980
G1 X1.652 Y-4.403
G1 X1.212 Y-3.794
G1 X0.814 Y-3.157
G1 X0.461 Y-2.494
G1 X0.153 Y-1.808
G1 X-0.107 Y-1.102
G1 X-0.319 Y-0.381
G1 X-0.481 Y0.353
G1 X-0.593 Y1.097
G1 X-0.655 Y1.846
G1 X-0.665 Y2.598
G1 X-0.624 Y3.348
G1 X-0.532 Y4.094
G1 X-0.389 Y4.831
G1 X-0.197 Y5.557
G1 X0.044 Y6.267
G1 X0.333 Y6.960
G1 X0.668 Y7.630
G1 X1.048 Y8.276
G1 X1.471 Y8.893
G1 X1.934 Y9.480
G1 X2.436 Y10.034
G1 X2.975 Y10.551
G1 X3.547 Y11.030
G1 X4.150 Y11.468
G1 X4.782 Y11.863
G1 X5.438 Y12.214
G1 X6.116 Y12.518
G1 X6.813 Y12.775
G1 X7.525 Y12.983
G1 X8.249 Y13.141
G1 X8.982 Y13.249
G1 X9.719 Y13.306
G1 X10.458 Y13.312
G1 X11.195 Y13.267
G1 X11.926 Y13.170
G1 X12.649 Y13.024
G1 X13.359 Y12.828
G1 X14.052 Y12.583
G1 X14.727 Y12.291
G1 X15.379 Y11.952
G1 X16.006 Y11.570
G1 X16.604 Y11.145
G1 X17.170 Y10.680
G1 X17.703 Y10.176
G1 X18.198 Y9.637
G1 X18.655 Y9.065
G1 X19.071 Y8.462
G1 X19.443 Y7.833
G1 X19.770 Y7.178
G1 X20.051 Y6.503
G1 X20.283 Y5.810
G1 X20.467 Y5.102
G1 X20.601 Y4.383
G1 X20.684 Y3.656
G1 X20.716 Y2.926
G1 X20.697 Y2.194
G1 X20.627 Y1.466
G1 X20.506 Y0.743
G1 X20.335 Y0.031
G1 X20.114 Y-0.668
G1 X19.845 Y-1.350
G1 X19.529 Y-2.013
G1 X19.167 Y-2.652
G1 X18.762 Y-3.264
G1 X18.314 Y-3.848
G1 X17.827 Y-4.400
G1 X17.302 Y-4.916
G1 X16.742 Y-5.396
G1 X16.150 Y-5.836
G1 X15.528 Y-6.234
G1 X14.879 Y-6.589
G1 X14.206 Y-6.898
G1 X13.514 Y-7.160
G1 X12.804 Y-7.374
G1 X12.080 Y-7.539
G1 X11.346 Y-7.654
G1 X10.605 Y-7.718
G1 X9.861 Y-7.731
G1 X9.117 Y-7.693
G1 X8.376 Y-7.603
G1 X7.643 Y-7.464
G1 X6.921 Y-7.274
G1 X6.212 Y-7.035
G1 X5.521 Y-6.748
G1 X4.851 Y-6.414
G1 X4.205 Y-6.035
G1 X3.586 Y-5.612
G1 X2.996 Y-5.148
G1 X2.440 Y-4.645
G1 X1.918 Y-4.104
G1 X1.435 Y-3.529
G1 X0.991 Y-2.923
G1 X0.590 Y-2.287
G1 X0.233 Y-1.626
G1 X-0.079 Y-0.941
G1 X-0.343 Y-0.237
G1 X-0.559 Y0.483
G1 X-0.725 Y1.216
G1 X-0.841 Y1.959
G1 X-0.906 Y2.708
G1 X-0.920 Y3.459
G1 X-0.883 Y4.210
G1 X-0.795 Y4.955
G1 X-0.657 Y5.693
G1 X-0.468 Y6.419
G1 X-0.231 Y7.131
G1 X0.054 Y7.824
G1 X0.386 Y8.495
G1 X0.762 Y9.142
G1 X1.181 Y9.761
G1 X1.641 Y10.350
G1 X2.141 Y10.905
G1 X2.676 Y11.425
G1 X3.245 Y11.906
G1 X3.846 Y12.346
G1 X4.474 Y12.744
G1 X5.128 Y13.097
G1 X5.804 Y13.404
G1 X6.499 Y13.663
G1 X7.210 Y13.874
G1 X7.932 Y14.035
G1 X8.664 Y14.146
G1 X9.400 Y14.206
G1 X10.138 Y14.214
G1 X10.874 Y14.172
G1 X11.605 Y14.078
G1 X12.327 Y13.934
G1 X13.037 Y13.741
G1 X13.731 Y13.499
G1 X14.406 Y13.209
G1 X15.059 Y12.873
G1 X15.686 Y12.493
G1 X16.285 Y12.071
G1 X16.853 Y11.607
G1 X17.386 Y11.106
G1 X17.883 Y10.568
G1 X18.342 Y9.998
G1 X18.759 Y9.397
G1 X19.133 Y8.768
G1 X19.462 Y8.115
G1 X19.744 Y7.441
G1 X19.979 Y6.748
G1 X20.165 Y6.041
G1 X20.301 Y5.322
G1 X20.386 Y4.596
G1 X20.420 Y3.865
G1 X20.404 Y3.133
G1 X20.336 Y2.404
G1 X20.217 Y1.681
G1 X20.048 Y0.967
G1 X19.829 Y0.267
G1 X19.562 Y-0.416
G1 X19.248 Y-1.080
G1 X18.889 Y-1.721
G1 X18.485 Y-2.336
G1 X18.039 Y-2.922
G1 X17.553 Y-3.476
G1 X17.029 Y-3.995
G1 X16.470 Y-4.477
G1 X15.879 Y-4.920
G1 X15.258 Y-5.321
G1 X14.610 Y-5.679
G1 X13.938 Y-5.991
G1 X13.245 Y-6.256
G1 X12.535 Y-6.474
G1 X11.811 Y-6.642
G1 X11.077 Y-6.760
G1 X10.335 Y-6.827
G1 X9.590 Y-6.844
G1 X8.845 Y-6.809
G1 X8.104 Y-6.723
G1 X7.369 Y-6.587
G1 X6.645 Y-6.400
G1 X5.935 Y-6.164
G1 X5.242 Y-5.881
G1 X4.569 Y-5.550
G1 X3.921 Y-5.174
G1 X3.299 Y-4.754
G1 X2.707 Y-4.293
G1 X2.147 Y-3.792
G1 X1.623 Y-3.254
G1 X1.136 Y-2.682
G1 X0.689 Y-2.077
G1 X0.284 Y-1.444
G1 X-0.076 Y-0.784
G1 X-0.392 Y-0.101
G1 X-0.660 Y0.601
G1 X-0.879 Y1.321
G1 X-1.049 Y2.053
G1 X-1.169 Y2.795
G1 X-1.238 Y3.543
G1 X-1.256 Y4.294
G1 X-1.223 Y5.044
G1 X-1.139 Y5.790
G1 X-1.005 Y6.528
G1 X-0.820 Y7.255
G1 X-0.587 Y7.967
G1 X-0.306 Y8.661
G1 X0.022 Y9.333
G1 X0.395 Y9.981
G1 X0.811 Y10.602
G1 X1.268 Y11.192
G1 X1.764 Y11.749
G1 X2.296 Y12.270
G1 X2.863 Y12.753
G1 X3.460 Y13.196
G1 X4.087 Y13.596
G1 X4.738 Y13.951
G1 X5.412 Y14.261
G1 X6.105 Y14.523
G1 X6.814 Y14.736
G1 X7.535 Y14.900
G1 X8.265 Y15.014
G1 X9.000 Y15.076
G1 X9.737 Y15.087
G1 X10.473 Y15.048
G1 X11.203 Y14.957
G1 X11.925 Y14.816
G1 X12.635 Y14.625
G1 X13.329 Y14.385
G1 X14.004 Y14.098
G1 X14.658 Y13.765
G1 X15.286 Y13.387
G1 X15.886 Y12.966
G1 X16.454 Y12.505
G1 X16.989 Y12.006
G1 X17.488 Y11.470
G1 X17.948 Y10.901
G1 X18.367 Y10.301
G1 X18.742 Y9.674
G1 X19.073 Y9.022
G1 X19.358 Y8.348
G1 X19.595 Y7.656
G1 X19.783 Y6.950
G1 X19.921 Y6.231
G1 X20.008 Y5.505
G1 X20.045 Y4.773
G1 X20.030 Y4.041
G1 X19.964 Y3.311
G1 X19.848 Y2.588
G1 X19.681 Y1.873
G1 X19.465 Y1.172
G1 X19.200 Y0.487
G1 X18.888 Y-0.179
G1 X18.530 Y-0.822
G1 X18.128 Y-1.439
G1 X17.683 Y-2.027
G1 X17.199 Y-2.583
G1 X16.677 Y-3.105
G1 X16.119 Y-3.590
G1 X15.529 Y-4.035
G1 X14.908 Y-4.439
G1 X14.261 Y-4.800
G1 X13.589 Y-5.115
G1 X12.897 Y-5.384
G1 X12.187 Y-5.605
G1 X11.463 Y-5.777
G1 X10.729 Y-5.898
G1 X9.986 Y-5.969
G1 X9.241 Y-5.989
G1 X8.495 Y-5.958
G1 X7.752 Y-5.875
G1 X7.016 Y-5.742
G1 X6.290 Y-5.559
G1 X5.578 Y-5.327
G1 X4.883 Y-5.046
G1 X4.209 Y-4.718
G1 X3.558 Y-4.345
G1 X2.933 Y-3.929
G1 X2.338 Y-3.470
G1 X1.776 Y-2.972
G1 X1.248 Y-2.437
G1 X0.758 Y-1.867
G1 X0.308 Y-1.265
G1 X-0.100 Y-0.633
G1 X-0.464 Y0.024
G1 X-0.783 Y0.705
G1 X-1.055 Y1.406
G1 X-1.278 Y2.124
G1 X-1.452 Y2.855
G1 X-1.576 Y3.597
G1 X-1.649 Y4.344
G1 X-1.671 Y5.095
G1 X-1.642 Y5.844
G1 X-1.562 Y6.590
G1 X-1.431 Y7.328
G1 X-1.251 Y8.055
G1 X-1.021 Y8.768
G1 X-0.744 Y9.463
G1 X-0.419 Y10.136
G1 X-0.050 Y10.786
G1 X0.362 Y11.407
G1 X0.816 Y11.999
G1 X1.309 Y12.558
G1 X1.838 Y13.081
G1 X2.402 Y13.566
G1 X2.997 Y14.010
G1 X3.621 Y14.413
G1 X4.270 Y14.771
G1 X4.942 Y15.082
G1 X5.633 Y15.347
G1 X6.340 Y15.563
G1 X7.059 Y15.729
G1 X7.788 Y15.845
G1 X8.522 Y15.910
G1 X9.259 Y15.924
G1 X9.994 Y15.887
G1 X10.724 Y15.799
G1 X11.445 Y15.661
G1 X12.155 Y15.472
G1 X12.850 Y15.235
G1 X13.525 Y14.951
G1 X14.179 Y14.620
G1 X14.808 Y14.244
G1 X15.409 Y13.825
G1 X15.979 Y13.366
G1 X16.515 Y12.868
G1 X17.015 Y12.335
G1 X17.476 Y11.767
G1 X17.897 Y11.169
G1 X18.274 Y10.543
G1 X18.607 Y9.892
G1 X18.894 Y9.219
G1 X19.133 Y8.527
G1 X19.323 Y7.821
G1 X19.463 Y7.102
G1 X19.553 Y6.376
G1 X19.592 Y5.644
G1 X19.579 Y4.912
G1 X19.516 Y4.181
G1 X19.402 Y3.456
G1 X19.237 Y2.741
G1 X19.023 Y2.038
G1 X18.760 Y1.351
G1 X18.450 Y0.684
G1 X18.094 Y0.039
G1 X17.694 Y-0.580
G1 X17.251 Y-1.170
G1 X16.768 Y-1.728
G1 X16.247 Y-2.253
G1 X15.691 Y-2.741
G1 X15.102 Y-3.189
G1 X14.482 Y-3.596
G1 X13.835 Y-3.960
G1 X13.165 Y-4.279
G1 X12.473 Y-4.551
G1 X11.763 Y-4.775
G1 X11.039 Y-4.950
G1 X10.304 Y-5.075
G1 X9.561 Y-5.150
G1 X8.815 Y-5.173
G1 X8.068 Y-5.145
G1 X7.324 Y-5.067
G1 X6.587 Y-4.937
G1 X5.860 Y-4.758
G1 X5.146 Y-4.529
G1 X4.449 Y-4.251
G1 X3.772 Y-3.927
G1 X3.119 Y-3.557
G1 X2.492 Y-3.144
G1 X1.894 Y-2.688
G1 X1.329 Y-2.193
G1 X0.799 Y-1.660
G1 X0.305 Y-1.093
G1 X-0.148 Y-0.493
G1 X-0.560 Y0.136
G1 X-0.928 Y0.792
G1 X-1.250 Y1.471
G1 X-1.525 Y2.171
G1 X-1.753 Y2.887
G1 X-1.930 Y3.617
G1 X-2.058 Y4.357
G1 X-2.135 Y5.104
G1 X-2.161 Y5.854
G1 X-2.136 Y6.603
G1 X-2.060 Y7.349
G1 X-1.933 Y8.087
G1 X-1.756 Y8.815
G1 X-1.530 Y9.528
G1 X-1.256 Y10.223
G1 X-0.936 Y10.898
G1 X-0.570 Y11.548
G1 X-0.161 Y12.171
G1 X0.290 Y12.764
G1 X0.779 Y13.324
G1 X1.306 Y13.849
G1 X1.867 Y14.336
G1 X2.459 Y14.783
G1 X3.081 Y15.187
G1 X3.728 Y15.547
G1 X4.397 Y15.861
G1 X5.086 Y16.128
G1 X5.792 Y16.347
G1 X6.510 Y16.516
G1 X7.237 Y16.634
G1 X7.971 Y16.702
G1 X8.706 Y16.719
G1 X9.441 Y16.684
G1 X10.170 Y16.599
G1 X10.892 Y16.463
G1 X11.601 Y16.277
G1 X12.296 Y16.042
G1 X12.972 Y15.760
G1 X13.627 Y15.431
G1 X14.256 Y15.057
G1 X14.858 Y14.641
G1 X15.429 Y14.184
G1 X15.967 Y13.688
G1 X16.468 Y13.155
G1 X16.931 Y12.589
G1 X17.354 Y11.992
G1 X17.733 Y11.367
G1 X18.068 Y10.717
G1 X18.357 Y10.045
G1 X18.598 Y9.354
G1 X18.790 Y8.648
G1 X18.932 Y7.929
G1 X19.024 Y7.203
G1 X19.066 Y6.471
G1 X19.056 Y5.738
G1 X18.994 Y5.006
G1 X18.882 Y4.281
G1 X18.720 Y3.564
G1 X18.508 Y2.860
G1 X18.247 Y2.172
G1 X17.939 Y1.502
G1 X17.585 Y0.856
G1 X17.187 Y0.235
G1 X16.746 Y-0.358
G1 X16.265 Y-0.919
G1 X15.745 Y-1.446
G1 X15.190 Y-1.937
G1 X14.602 Y-2.388
G1 X13.983 Y-2.799
G1 X13.338 Y-3.166
G1 X12.667 Y-3.488
G1 X11.976 Y-3.763
G1 X11.266 Y-3.991
G1 X10.542 Y-4.169
G1 X9.807 Y-4.298
G1 X9.064 Y-4.376
G1 X8.317 Y-4.403
G1 X7.569 Y-4.379
G1 X6.824 Y-4.304
G1 X6.086 Y-4.178
G1 X5.357 Y-4.002
G1 X4.642 Y-3.777
G1 X3.943 Y-3.503
G1 X3.264 Y-3.182
G1 X2.609 Y-2.815
G1 X1.979 Y-2.405
G1 X1.379 Y-1.953
G1 X0.811 Y-1.460
G1 X0.277 Y-0.930
G1 X-0.219 Y-0.365
G1 X-0.676 Y0.232
G1 X-1.091 Y0.859
G1 X-1.462 Y1.513
G1 X-1.788 Y2.190
G1 X-2.067 Y2.888
G1 X-2.298 Y3.603
G1 X-2.479 Y4.331
G1 X-2.611 Y5.070
G1 X-2.692 Y5.816
G1 X-2.722 Y6.566
G1 X-2.700 Y7.315
G1 X-2.628 Y8.060
G1 X-2.505 Y8.798
G1 X-2.332 Y9.526
G1 X-2.110 Y10.239
G1 X-1.839 Y10.935
G1 X-1.522 Y11.610
G1 X-1.160 Y12.262
G1 X-0.754 Y12.886
G1 X-0.307 Y13.481
G1 X0.180 Y14.042
G1 X0.703 Y14.569
G1 X1.261 Y15.057
G1 X1.851 Y15.506
G1 X2.470 Y15.912
G1 X3.115 Y16.275
G1 X3.783 Y16.591
G1 X4.470 Y16.860
G1 X5.174 Y17.081
G1 X5.890 Y17.253
G1 X6.617 Y17.374
G1 X7.349 Y17.444
G1 X8.084 Y17.463
G1 X8.817 Y17.431
G1 X9.547 Y17.348
G1 X10.268 Y17.215
G1 X10.978 Y17.031
G1 X11.673 Y16.799
G1 X12.349 Y16.519
G1 X13.004 Y16.192
G1 X13.635 Y15.821
G1 X14.238 Y15.406
G1 X14.810 Y14.951
G1 X15.349 Y14.456
G1 X15.852 Y13.926
G1 X16.317 Y13.361
G1 X16.741 Y12.765
G1 X17.122 Y12.141
G1 X17.459 Y11.492
G1 X17.750 Y10.820
G1 X17.993 Y10.130
G1 X18.188 Y9.424
G1 X18.332 Y8.706
G1 X18.427 Y7.979
G1 X18.470 Y7.247
G1 X18.463 Y6.513
G1 X18.404 Y5.781
G1 X18.294 Y5.054
G1 X18.134 Y4.336
G1 X17.924 Y3.630
G1 X17.666 Y2.940
G1 X17.360 Y2.269
G1 X17.008 Y1.621
G1 X16.611 Y0.997
G1 X16.172 Y0.402
G1 X15.693 Y-0.162
G1 X15.175 Y-0.692
G1 X14.621 Y-1.185
G1 X14.034 Y-1.639
G1 X13.417 Y-2.053
G1 X12.772 Y-2.423
G1 X12.102 Y-2.749
G1 X11.411 Y-3.028
G1 X10.702 Y-3.259
G1 X9.978 Y-3.441
G1 X9.243 Y-3.573
G1 X8.499 Y-3.655
G1 X7.752 Y-3.686
G1 X7.003 Y-3.666
G1 X6.257 Y-3.594
G1 X5.517 Y-3.472
G1 X4.787 Y-3.299
G1 X4.070 Y-3.078
G1 X3.370 Y-2.807
G1 X2.689 Y-2.490
G1 X2.031 Y-2.127
G1 X1.399 Y-1.719
G1 X0.796 Y-1.270
G1 X0.226 Y-0.781
G1 X-0.311 Y-0.254
G1 X-0.810 Y0.309
G1 X-1.270 Y0.903
G1 X-1.688 Y1.528
G1 X-2.063 Y2.180
G1 X-2.392 Y2.855
G1 X-2.675 Y3.551
G1 X-2.910 Y4.264
G1 X-3.095 Y4.992
G1 X-3.230 Y5.730
G1 X-3.315 Y6.475
G1 X-3.348 Y7.223
G1 X-3.331 Y7.972
G1 X-3.262 Y8.717
G1 X-3.143 Y9.455
G1 X-2.974 Y10.183
G1 X-2.755 Y10.896
G1 X-2.489 Y11.593
G1 X-2.175 Y12.269
G1 X-1.816 Y12.921
G1 X-1.414 Y13.546
G1 X-0.969 Y14.142
G1 X-0.486 Y14.705
G1 X0.035 Y15.233
G1 X0.590 Y15.724
G1 X1.178 Y16.174
G1 X1.794 Y16.582
G1 X2.437 Y16.947
G1 X3.102 Y17.266
G1 X3.788 Y17.537
G1 X4.490 Y17.760
G1 X5.205 Y17.934
G1 X5.930 Y18.057
G1 X6.662 Y18.130
G1 X7.396 Y18.152
G1 X8.129 Y18.122
G1 X8.858 Y18.042
G1 X9.579 Y17.911
G1 X10.289 Y17.729
G1 X10.984 Y17.499
G1 X11.661 Y17.222
G1 X12.317 Y16.897
G1 X12.949 Y16.528
G1 X13.553 Y16.115
G1 X14.126 Y15.661
G1 X14.667 Y15.169
G1 X15.171 Y14.639
G1 X15.637 Y14.076
G1 X16.063 Y13.481
G1 X16.447 Y12.858
G1 X16.786 Y12.210
G1 X17.079 Y11.539
G1 X17.324 Y10.849
G1 X17.521 Y10.143
G1 X17.668 Y9.425
G1 X17.765 Y8.698
G1 X17.811 Y7.965
G1 X17.806 Y7.231
G1 X17.749 Y6.498
G1 X17.642 Y5.770
G1 X17.484 Y5.051
G1 X17.277 Y4.343
G1 X17.021 Y3.652
G1 X16.717 Y2.979
G1 X16.367 Y2.328
G1 X15.973 Y1.702
G1 X15.535 Y1.105
G1 X15.057 Y0.538
G1 X14.541 Y0.006
G1 X13.989 Y-0.491
G1 X13.403 Y-0.948
G1 X12.787 Y-1.365
G1 X12.143 Y-1.738
G1 X11.474 Y-2.067
G1 X10.783 Y-2.350
G1 X10.074 Y-2.585
G1 X9.351 Y-2.771
G1 X8.615 Y-2.907
G1 X7.872 Y-2.992
G1 X7.124 Y-3.027
G1 X6.374 Y-3.010
G1 X5.627 Y-2.942
G1 X4.887 Y-2.824
G1 X4.155 Y-2.655
G1 X3.436 Y-2.437
G1 X2.734 Y-2.170
G1 X2.051 Y-1.856
G1 X1.391 Y-1.497
G1 X0.757 Y-1.093
G1 X0.152 Y-0.646
G1 X-0.422 Y-0.160
G1 X-0.961 Y0.364
G1 X-1.463 Y0.924
G1 X-1.926 Y1.516
G1 X-2.347 Y2.138
G1 X-2.725 Y2.787
G1 X-3.058 Y3.461
G1 X-3.345 Y4.155
G1 X-3.583 Y4.867
G1 X-3.772 Y5.592
G1 X-3.911 Y6.329
G1 X-3.999 Y7.073
G1 X-4.036 Y7.821
G1 X-4.023 Y8.569
G1 X-3.958 Y9.314
G1 X-3.842 Y10.051
G1 X-3.677 Y10.779
G1 X-3.462 Y11.493
G1 X-3.198 Y12.190
G1 X-2.888 Y12.867
G1 X-2.533 Y13.520
G1 X-2.133 Y14.146
G1 X-1.692 Y14.743
G1 X-1.212 Y15.308
G1 X-0.694 Y15.837
G1 X-0.141 Y16.329
G1 X0.444 Y16.781
G1 X1.058 Y17.192
G1 X1.698 Y17.558
G1 X2.362 Y17.879
G1 X3.046 Y18.153
G1 X3.746 Y18.378
G1 X4.460 Y18.554
G1 X5.184 Y18.680
G1 X5.915 Y18.755
G1 X6.648 Y18.779
G1 X7.381 Y18.752
G1 X8.110 Y18.674
G1 X8.831 Y18.545
G1 X9.541 Y18.366
G1 X10.236 Y18.138
G1 X10.914 Y17.863
G1 X11.571 Y17.540
G1 X12.203 Y17.173
G1 X12.808 Y16.762
G1 X13.383 Y16.310
G1 X13.925 Y15.819
G1 X14.431 Y15.291
G1 X14.899 Y14.729
G1 X15.327 Y14.136
G1 X15.712 Y13.513
G1 X16.053 Y12.866
G1 X16.349 Y12.195
G1 X16.596 Y11.506
G1 X16.796 Y10.800
G1 X16.945 Y10.082
G1 X17.044 Y9.354
G1 X17.093 Y8.621
G1 X17.090 Y7.886
G1 X17.036 Y7.152
G1 X16.931 Y6.423
G1 X16.776 Y5.703
G1 X16.571 Y4.994
G1 X16.317 Y4.300
G1 X16.016 Y3.626
G1 X15.668 Y2.973
G1 X15.275 Y2.345
G1 X14.840 Y1.745
G1 X14.364 Y1.175
G1 X13.849 Y0.640
G1 X13.299 Y0.141
G1 X12.714 Y-0.320
G1 X12.099 Y-0.740
G1 X11.456 Y-1.117
G1 X10.788 Y-1.450
G1 X10.098 Y-1.736
G1 X9.390 Y-1.974
G1 X8.666 Y-2.164
G1 X7.931 Y-2.303
G1 X7.187 Y-2.393
G1 X6.438 Y-2.431
G1 X5.688 Y-2.418
G1 X4.941 Y-2.355
G1 X4.199 Y-2.240
G1 X3.466 Y-2.075
G1 X2.746 Y-1.860
G1 X2.042 Y-1.597
G1 X1.357 Y-1.287
G1 X0.695 Y-0.931
G1 X0.059 Y-0.530
G1 X-0.549 Y-0.087
G1 X-1.125 Y0.396
G1 X-1.667 Y0.917
G1 X-2.172 Y1.474
G1 X-2.638 Y2.064
G1 X-3.062 Y2.683
G1 X-3.444 Y3.330
G1 X-3.780 Y4.002
G1 X-4.070 Y4.694
G1 X-4.311 Y5.404
G1 X-4.504 Y6.128
G1 X-4.647 Y6.864
G1 X-4.739 Y7.606
G1 X-4.780 Y8.353
G1 X-4.770 Y9.101
G1 X-4.708 Y9.845
G1 X-4.597 Y10.583
G1 X-4.434 Y11.310
G1 X-4.223 Y12.024
G1 X-3.963 Y12.722
G1 X-3.657 Y13.399
G1 X-3.304 Y14.053
G1 X-2.908 Y14.680
G1 X-2.470 Y15.278
G1 X-1.992 Y15.844
G1 X-1.477 Y16.375
G1 X-0.927 Y16.869
G1 X-0.345 Y17.323
G1 X0.267 Y17.735
G1 X0.906 Y18.103
G1 X1.567 Y18.426
G1 X2.249 Y18.702
G1 X2.949 Y18.929
G1 X3.661 Y19.108
G1 X4.384 Y19.236
G1 X5.114 Y19.313
G1 X5.846 Y19.340
G1 X6.579 Y19.315
G1 X7.307 Y19.239
G1 X8.028 Y19.112
G1 X8.739 Y18.936
G1 X9.435 Y18.710
G1 X10.113 Y18.437
G1 X10.770 Y18.116
G1 X11.404 Y17.751
G1 X12.010 Y17.342
G1 X12.586 Y16.892
G1 X13.130 Y16.402
G1 X13.637 Y15.876
G1 X14.107 Y15.315
G1 X14.537 Y14.722
G1 X14.925 Y14.101
G1 X15.268 Y13.454
G1 X15.565 Y12.784
G1 X15.816 Y12.095
G1 X16.017 Y11.389
G1 X16.169 Y10.671
G1 X16.271 Y9.943
G1 X16.322 Y9.210
G1 X16.322 Y8.474
G1 X16.271 Y7.739
G1 X16.168 Y7.009
G1 X16.016 Y6.287
G1 X15.813 Y5.576
G1 X15.561 Y4.881
G1 X15.262 Y4.204
G1 X14.917 Y3.549
G1 X14.526 Y2.919
G1 X14.093 Y2.316
G1 X13.619 Y1.744
G1 X13.106 Y1.206
G1 X12.557 Y0.704
G1 X11.974 Y0.240
G1 X11.360 Y-0.184
G1 X10.718 Y-0.564
G1 X10.051 Y-0.900
G1 X9.361 Y-1.190
G1 X8.654 Y-1.432
G1 X7.930 Y-1.625
G1 X7.195 Y-1.769
G1 X6.451 Y-1.862
G1 X5.702 Y-1.904
G1 X4.952 Y-1.895
G1 X4.203 Y-1.836
G1 X3.460 Y-1.725
G1 X2.726 Y-1.564
G1 X2.005 Y-1.353
G1 X1.299 Y-1.093
G1 X0.613 Y-0.787
G1 X-0.051 Y-0.434
G1 X-0.690 Y-0.037
G1 X-1.300 Y0.403
G1 X-1.878 Y0.883
G1 X-2.423 Y1.401
G1 X-2.931 Y1.955
G1 X-3.400 Y2.542
G1 X-3.827 Y3.159
G1 X-4.212 Y3.804
G1 X-4.552 Y4.473
G1 X-4.845 Y5.163
G1 X-5.090 Y5.871
G1 X-5.286 Y6.594
G1 X-5.432 Y7.328
G1 X-5.528 Y8.070
G1 X-5.572 Y8.816
G1 X-5.566 Y9.562
G1 X-5.508 Y10.306
G1 X-5.400 Y11.044
G1 X-5.241 Y11.771
G1 X-5.033 Y12.485
G1 X-4.777 Y13.183
G1 X-4.474 Y13.861
G1 X-4.124 Y14.515
G1 X-3.731 Y15.144
G1 X-3.297 Y15.743
G1 X-2.822 Y16.310
G1 X-2.309 Y16.842
G1 X-1.762 Y17.337
G1 X-1.182 Y17.793
G1 X-0.572 Y18.207
G1 X0.065 Y18.577
G1 X0.725 Y18.902
G1 X1.405 Y19.180
G1 X2.103 Y19.410
G1 X2.814 Y19.590
G1 X3.536 Y19.721
G1 X4.265 Y19.800
G1 X4.997 Y19.829
G1 X5.729 Y19.806
G1 X6.457 Y19.733
G1 X7.178 Y19.609
G1 X7.889 Y19.434
G1 X8.585 Y19.211
G1 X9.264 Y18.939
G1 X9.923 Y18.621
G1 X10.557 Y18.257
G1 X11.165 Y17.850
G1 X11.742 Y17.402
G1 X12.287 Y16.913
G1 X12.797 Y16.388
G1 X13.269 Y15.829
G1 X13.701 Y15.237
G1 X14.090 Y14.617
G1 X14.436 Y13.970
G1 X14.736 Y13.301
G1 X14.988 Y12.612
G1 X15.192 Y11.907
G1 X15.347 Y11.188
G1 X15.451 Y10.460
G1 X15.505 Y9.726
G1 X15.507 Y8.989
G1 X15.459 Y8.253
G1 X15.359 Y7.522
G1 X15.209 Y6.799
G1 X15.009 Y6.087
G1 X14.760 Y5.390
G1 X14.463 Y4.711
G1 X14.120 Y4.053
G1 X13.731 Y3.421
G1 X13.300 Y2.815
G1 X12.828 Y2.241
G1 X12.317 Y1.699
G1 X11.769 Y1.194
G1 X11.188 Y0.727
G1 X10.575 Y0.300
G1 X9.934 Y-0.084
G1 X9.268 Y-0.423
G1 X8.580 Y-0.717
G1 X7.873 Y-0.962
G1 X7.150 Y-1.160
G1 X6.415 Y-1.307
G1 X5.671 Y-1.404
G1 X4.921 Y-1.450
G1 X4.171 Y-1.445
G1 X3.421 Y-1.389
G1 X2.678 Y-1.283
G1 X1.943 Y-1.125
G1 X1.220 Y-0.918
G1 X0.513 Y-0.663
G1 X-0.175 Y-0.360
G1 X-0.841 Y-0.010
G1 X-1.482 Y0.383
G1 X-2.094 Y0.820
G1 X-2.675 Y1.296
G1 X-3.222 Y1.811
G1 X-3.733 Y2.362
G1 X-4.205 Y2.947
G1 X-4.636 Y3.561
G1 X-5.023 Y4.204
G1 X-5.366 Y4.870
G1 X-5.662 Y5.559
G1 X-5.911 Y6.265
G1 X-6.110 Y6.986
G1 X-6.260 Y7.719
G1 X-6.359 Y8.459
G1 X-6.407 Y9.204
G1 X-6.404 Y9.950
G1 X-6.350 Y10.693
G1 X-6.246 Y11.430
G1 X-6.090 Y12.158
G1 X-5.886 Y12.872
G1 X-5.633 Y13.570
G1 X-5.333 Y14.248
G1 X-4.987 Y14.903
G1 X-4.597 Y15.533
G1 X-4.165 Y16.133
G1 X-3.693 Y16.701
G1 X-3.183 Y17.235
G1 X-2.638 Y17.731
G1 X-2.060 Y18.188
G1 X-1.452 Y18.604
G1 X-0.818 Y18.976
G1 X-0.160 Y19.303
G1 X0.519 Y19.583
G1 X1.215 Y19.815
G1 X1.926 Y19.998
G1 X2.647 Y20.130
G1 X3.375 Y20.212
G1 X4.106 Y20.243
G1 X4.838 Y20.223
G1 X5.566 Y20.151
G1 X6.288 Y20.029
G1 X6.998 Y19.857
G1 X7.695 Y19.636
G1 X8.375 Y19.366
G1 X9.034 Y19.050
G1 X9.670 Y18.688
G1 X10.279 Y18.283
G1 X10.858 Y17.836
G1 X11.405 Y17.349
G1 X11.916 Y16.825
G1 X12.390 Y16.267
G1 X12.824 Y15.676
G1 X13.215 Y15.057
G1 X13.563 Y14.411
G1 X13.866 Y13.742
G1 X14.121 Y13.053
G1 X14.327 Y12.348
G1 X14.485 Y11.629
G1 X14.592 Y10.901
G1 X14.648 Y10.166
G1 X14.653 Y9.429
G1 X14.607 Y8.692
G1 X14.510 Y7.959
G1 X14.363 Y7.234
G1 X14.165 Y6.521
G1 X13.919 Y5.822
G1 X13.624 Y5.141
G1 X13.283 Y4.481
G1 X12.898 Y3.846
G1 X12.469 Y3.238
G1 X11.998 Y2.661
G1 X11.489 Y2.117
G1 X10.943 Y1.608
G1 X10.364 Y1.138
G1 X9.752 Y0.708
G1 X9.113 Y0.320
G1 X8.448 Y-0.023
G1 X7.760 Y-0.320
G1 X7.054 Y-0.570
G1 X6.331 Y-0.771
G1 X5.596 Y-0.922
G1 X4.852 Y-1.023
G1 X4.103 Y-1.073
G1 X3.352 Y-1.072
G1 X2.602 Y-1.020
G1 X1.857 Y-0.917
G1 X1.121 Y-0.764
G1 X0.398 Y-0.561
G1 X-0.311 Y-0.309
G1 X-1.001 Y-0.009
G1 X-1.668 Y0.336
G1 X-2.311 Y0.726
G1 X-2.926 Y1.159
G1 X-3.509 Y1.633
G1 X-4.059 Y2.145
G1 X-4.572 Y2.693
G1 X-5.046 Y3.274
G1 X-5.480 Y3.886
G1 X-5.871 Y4.526
G1 X-6.217 Y5.190
G1 X-6.516 Y5.877
G1 X-6.768 Y6.581
G1 X-6.971 Y7.301
G1 X-7.124 Y8.032
G1 X-7.227 Y8.771
G1 X-7.278 Y9.515
G1 X-7.279 Y10.260
G1 X-7.228 Y11.002
G1 X-7.127 Y11.739
G1 X-6.975 Y12.466
G1 X-6.774 Y13.181
G1 X-6.524 Y13.879
G1 X-6.227 Y14.557
G1 X-5.884 Y15.213
G1 X-5.497 Y15.843
G1 X-5.068 Y16.444
G1 X-4.599 Y17.014
G1 X-4.091 Y17.549
G1 X-3.549 Y18.047
G1 X-2.973 Y18.505
G1 X-2.368 Y18.923
G1 X-1.735 Y19.297
G1 X-1.079 Y19.625
G1 X-0.401 Y19.907
G1 X0.294 Y20.141
G1 X1.003 Y20.326
G1 X1.723 Y20.461
G1 X2.450 Y20.545
G1 X3.182 Y20.578
G1 X3.913 Y20.560
G1 X4.641 Y20.491
G1 X5.363 Y20.371
G1 X6.074 Y20.201
G1 X6.772 Y19.982
G1 X7.452 Y19.715
G1 X8.112 Y19.400
G1 X8.749 Y19.040
G1 X9.359 Y18.636
G1 X9.940 Y18.191
G1 X10.488 Y17.706
G1 X11.002 Y17.183
G1 X11.478 Y16.626
G1 X11.914 Y16.037
G1 X12.308 Y15.418
G1 X12.658 Y14.773
G1 X12.963 Y14.104
G1 X13.220 Y13.415
G1 X13.430 Y12.710
G1 X13.590 Y11.991
G1 X13.699 Y11.262
G1 X13.758 Y10.527
G1 X13.766 Y9.789
G1 X13.723 Y9.051
G1 X13.629 Y8.317
G1 X13.484 Y7.591
G1 X13.290 Y6.876
G1 X13.046 Y6.175
G1 X12.754 Y5.492
G1 X12.415 Y4.830
G1 X12.032 Y4.192
G1 X11.605 Y3.582
G1 X11.137 Y3.002
G1 X10.630 Y2.454
G1 X10.086 Y1.943
G1 X9.508 Y1.469
G1 X8.898 Y1.036
G1 X8.260 Y0.645
G1 X7.596 Y0.298
G1 X6.909 Y-0.003
G1 X6.204 Y-0.257
G1 X5.482 Y-0.461
G1 X4.747 Y-0.617
G1 X4.003 Y-0.722
G1 X3.254 Y-0.776
G1 X2.503 Y-0.779
G1 X1.752 Y-0.731
G1 X1.007 Y-0.632
G1 X0.270 Y-0.482
G1 X-0.455 Y-0.283
G1 X-1.165 Y-0.035
G1 X-1.856 Y0.261
G1 X-2.526 Y0.602
G1 X-3.170 Y0.989
G1 X-3.787 Y1.419
G1 X-4.372 Y1.889
G1 X-4.924 Y2.398
G1 X-5.440 Y2.942
G1 X-5.917 Y3.521
G1 X-6.354 Y4.130
G1 X-6.748 Y4.768
G1 X-7.096 Y5.430
G1 X-7.399 Y6.114
G1 X-7.654 Y6.817
G1 X-7.860 Y7.534
G1 X-8.017 Y8.264
G1 X-8.123 Y9.002
G1 X-8.178 Y9.745
G1 X-8.182 Y10.489
G1 X-8.134 Y11.231
G1 X-8.036 Y11.967
G1 X-7.888 Y12.694
G1 X-7.690 Y13.408
G1 X-7.443 Y14.107
G1 X-7.149 Y14.786
G1 X-6.810 Y15.442
G1 X-6.425 Y16.073
G1 X-5.999 Y16.675
G1 X-5.532 Y17.245
G1 X-5.027 Y17.781
G1 X-4.487 Y18.281
G1 X-3.914 Y18.741
G1 X-3.310 Y19.160
G1 X-2.680 Y19.536
G1 X-2.025 Y19.867
G1 X-1.349 Y20.151
G1 X-0.655 Y20.387
G1 X0.053 Y20.573
G1 X0.772 Y20.710
G1 X1.499 Y20.797
G1 X2.230 Y20.832
G1 X2.961 Y20.816
G1 X3.690 Y20.749
G1 X4.411 Y20.632
G1 X5.123 Y20.464
G1 X5.821 Y20.247
G1 X6.503 Y19.981
G1 X7.164 Y19.668
G1 X7.802 Y19.310
G1 X8.414 Y18.908
G1 X8.996 Y18.464
G1 X9.546 Y17.981
G1 X10.061 Y17.459
G1 X10.539 Y16.903
G1 X10.978 Y16.315
G1 X11.374 Y15.697
G1 X11.727 Y15.052
G1 X12.034 Y14.384
G1 X12.294 Y13.696
G1 X12.507 Y12.990
G1 X12.669 Y12.271
G1 X12.782 Y11.542
G1 X12.844 Y10.806
G1 X12.855 Y10.067
G1 X12.814 Y9.328
G1 X12.723 Y8.593
G1 X12.581 Y7.865
G1 X12.389 Y7.148
G1 X12.148 Y6.446
G1 X11.859 Y5.761
G1 X11.523 Y5.096
G1 X11.142 Y4.456
G1 X10.717 Y3.843
G1 X10.252 Y3.260
G1 X9.746 Y2.710
G1 X9.204 Y2.195
G1 X8.628 Y1.718
G1 X8.020 Y1.281
G1 X7.383 Y0.887
G1 X6.720 Y0.536
G1 X6.035 Y0.232
G1 X5.330 Y-0.026
G1 X4.609 Y-0.234
G1 X3.875 Y-0.394
G1 X3.131 Y-0.503
G1 X2.382 Y-0.561
G1 X1.630 Y-0.568
G1 X0.880 Y-0.524
G1 X0.134 Y-0.429
G1 X-0.604 Y-0.283
G1 X-1.330 Y-0.088
G1 X-2.041 Y0.156
G1 X-2.734 Y0.448
G1 X-3.405 Y0.786
G1 X-4.051 Y1.169
G1 X-4.670 Y1.595
G1 X-5.258 Y2.062
G1 X-5.812 Y2.568
G1 X-6.330 Y3.110
G1 X-6.810 Y3.685
G1 X-7.249 Y4.292
G1 X-7.646 Y4.927
G1 X-7.998 Y5.587
G1 X-8.304 Y6.269
G1 X-8.562 Y6.969
G1 X-8.771 Y7.685
G1 X-8.931 Y8.413
G1 X-9.040 Y9.150
G1 X-9.098 Y9.892
G1 X-9.105 Y10.635
G1 X-9.061 Y11.376
G1 X-8.967 Y12.112
G1 X-8.821 Y12.839
G1 X-8.627 Y13.553
G1 X-8.383 Y14.251
G1 X-8.092 Y14.931
G1 X-7.755 Y15.588
G1 X-7.374 Y16.219
G1 X-6.950 Y16.822
G1 X-6.486 Y17.393
G1 X-5.984 Y17.931
G1 X-5.446 Y18.432
G1 X-4.874 Y18.894
G1 X-4.273 Y19.314
G1 X-3.644 Y19.692
G1 X-2.991 Y20.024
G1 X-2.316 Y20.310
G1 X-1.623 Y20.548
G1 X-0.916 Y20.737
G1 X-0.198 Y20.876
G1 X0.529 Y20.965
G1 X1.259 Y21.002
G1 X1.990 Y20.989
G1 X2.719 Y20.924
G1 X3.441 Y20.808
G1 X4.153 Y20.642
G1 X4.852 Y20.427
G1 X5.534 Y20.164
G1 X6.197 Y19.853
G1 X6.836 Y19.497
G1 X7.449 Y19.096
G1 X8.033 Y18.654
G1 X8.585 Y18.172
G1 X9.103 Y17.652
G1 X9.583 Y17.097
G1 X10.023 Y16.509
G1 X10.422 Y15.892
G1 X10.778 Y15.248
G1 X11.088 Y14.580
G1 X11.351 Y13.892
G1 X11.565 Y13.187
G1 X11.731 Y12.467
G1 X11.847 Y11.738
G1 X11.911 Y11.001
G1 X11.925 Y10.261
G1 X11.888 Y9.521
G1 X11.799 Y8.785
G1 X11.660 Y8.056
G1 X11.471 Y7.337
G1 X11.233 Y6.633
G1 X10.947 Y5.945
G1 X10.613 Y5.279
G1 X10.235 Y4.636
G1 X9.813 Y4.021
G1 X9.349 Y3.435
G1 X8.846 Y2.881
G1 X8.306 Y2.363
G1 X7.732 Y1.883
G1 X7.126 Y1.443
G1 X6.490 Y1.045
G1 X5.829 Y0.691
G1 X5.145 Y0.382
G1 X4.440 Y0.121
G1 X3.720 Y-0.091
G1 X2.987 Y-0.255
G1 X2.243 Y-0.368
G1 X1.494 Y-0.430
G1 X0.742 Y-0.441
G1 X-0.008 Y-0.401
G1 X-0.755 Y-0.310
G1 X-1.493 Y-0.168
G1 X-2.220 Y0.023
G1 X-2.933 Y0.263
G1 X-3.627 Y0.551
G1 X-4.299 Y0.886
G1 X-4.947 Y1.265
G1 X-5.568 Y1.688
G1 X-6.158 Y2.152
G1 X-6.714 Y2.654
G1 X-7.235 Y3.193
G1 X-7.717 Y3.765
G1 X-8.159 Y4.369
G1 X-8.558 Y5.002
G1 X-8.913 Y5.659
G1 X-9.222 Y6.339
G1 X-9.483 Y7.038
G1 X-9.695 Y7.752
G1 X-9.858 Y8.478
G1 X-9.971 Y9.214
G1 X-10.032 Y9.954
G1 X-10.042 Y10.696
G1 X-10.002 Y11.437
G1 X-9.910 Y12.172
G1 X-9.768 Y12.899
G1 X-9.576 Y13.613
G1 X-9.336 Y14.311
G1 X-9.048 Y14.991
G1 X-8.714 Y15.648
G1 X-8.335 Y16.281
G1 X-7.914 Y16.884
G1 X-7.452 Y17.457
G1 X-6.952 Y17.996
G1 X-6.417 Y18.498
G1 X-5.847 Y18.961
G1 X-5.248 Y19.383
G1 X-4.620 Y19.763
G1 X-3.968 Y20.097
G1 X-3.295 Y20.385
G1 X-2.604 Y20.625
G1 X-1.897 Y20.816
G1 X-1.179 Y20.957
G1 X-0.454 Y21.048
G1 X0.277 Y21.087
G1 X1.008 Y21.076
G1 X1.736 Y21.013
G1 X2.459 Y20.900
G1 X3.172 Y20.736
G1 X3.871 Y20.523
G1 X4.555 Y20.261
G1 X5.219 Y19.952
G1 X5.859 Y19.598
G1 X6.474 Y19.199
G1 X7.060 Y18.758
G1 X7.614 Y18.278
G1 X8.133 Y17.759
G1 X8.616 Y17.205
G1 X9.059 Y16.618
G1 X9.460 Y16.002
G1 X9.818 Y15.359
G1 X10.131 Y14.691
G1 X10.396 Y14.003
G1 X10.614 Y13.298
G1 X10.783 Y12.579
G1 X10.901 Y11.849
G1 X10.969 Y11.111
G1 X10.986 Y10.370
G1 X10.952 Y9.629
G1 X10.866 Y8.892
G1 X10.730 Y8.161
G1 X10.544 Y7.441
G1 X10.309 Y6.735
G1 X10.025 Y6.045
G1 X9.694 Y5.376
G1 X9.319 Y4.731
G1 X8.899 Y4.113
G1 X8.438 Y3.524
G1 X7.937 Y2.968
G1 X7.400 Y2.447
G1 X6.827 Y1.963
G1 X6.222 Y1.520
G1 X5.589 Y1.118
G1 X4.929 Y0.760
G1 X4.246 Y0.448
G1 X3.543 Y0.183
G1 X2.823 Y-0.033
G1 X2.090 Y-0.201
G1 X1.348 Y-0.318
G1 X0.599 Y-0.384
G1 X-0.153 Y-0.399
G1 X-0.904 Y-0.363
G1 X-1.651 Y-0.276
G1 X-2.390 Y-0.138
G1 X-3.118 Y0.049
G1 X-3.831 Y0.285
G1 X-4.527 Y0.570
G1 X-5.201 Y0.901
G1 X-5.850 Y1.276
G1 X-6.472 Y1.695
G1 X-7.064 Y2.156
G1 X-7.623 Y2.655
G1 X-8.146 Y3.190
G1 X-8.631 Y3.760
G1 X-9.075 Y4.361
G1 X-9.477 Y4.991
G1 X-9.835 Y5.646
G1 X-10.146 Y6.324
G1 X-10.410 Y7.020
G1 X-10.626 Y7.733
G1 X-10.792 Y8.458
G1 X-10.907 Y9.192
G1 X-10.972 Y9.931
G1 X-10.985 Y10.672
G1 X-10.948 Y11.412
G1 X-10.859 Y12.147
G1 X-10.720 Y12.873
G1 X-10.531 Y13.587
G1 X-10.294 Y14.286
G1 X-10.009 Y14.966
G1 X-9.677 Y15.624
G1 X-9.302 Y16.256
G1 X-8.883 Y16.861
G1 X-8.424 Y17.435
G1 X-7.926 Y17.975
G1 X-7.392 Y18.478
G1 X-6.825 Y18.943
G1 X-6.227 Y19.367
G1 X-5.601 Y19.748
G1 X-4.951 Y20.084
G1 X-4.279 Y20.374
G1 X-3.588 Y20.616
G1 X-2.883 Y20.809
G1 X-2.165 Y20.952
G1 X-1.440 Y21.045
G1 X-0.710 Y21.087
G1 X0.021 Y21.077
G1 X0.750 Y21.017
G1 X1.473 Y20.906
G1 X2.187 Y20.744
G1 X2.887 Y20.533
G1 X3.572 Y20.273
G1 X4.237 Y19.966
G1 X4.879 Y19.613
G1 X5.496 Y19.216
G1 X6.083 Y18.777
G1 X6.639 Y18.298
G1 X7.161 Y17.780
G1 X7.645 Y17.228
G1 X8.091 Y16.642
G1 X8.495 Y16.026
G1 X8.855 Y15.384
G1 X9.171 Y14.717
G1 X9.440 Y14.029
G1 X9.660 Y13.324
G1 X9.832 Y12.604
G1 X9.954 Y11.874
G1 X10.024 Y11.136
G1 X10.044 Y10.394
G1 X10.013 Y9.652
G1 X9.931 Y8.913
G1 X9.798 Y8.181
G1 X9.615 Y7.459
G1 X9.382 Y6.751
G1 X9.102 Y6.060
G1 X8.774 Y5.388
G1 X8.401 Y4.741
G1 X7.984 Y4.120
G1 X7.525 Y3.528
G1 X7.027 Y2.969
G1 X6.492 Y2.445
G1 X5.921 Y1.958
G1 X5.318 Y1.511
G1 X4.686 Y1.106
G1 X4.028 Y0.744
G1 X3.346 Y0.428
G1 X2.645 Y0.160
G1 X1.926 Y-0.061
G1 X1.194 Y-0.232
G1 X0.452 Y-0.353
G1 X-0.297 Y-0.423
G1 X-1.049 Y-0.442
G1 X-1.800 Y-0.411
G1 X-2.547 Y-0.328
G1 X-3.287 Y-0.194
G1 X-4.015 Y-0.011
G1 X-4.729 Y0.222
G1 X-5.426 Y0.502
G1 X-6.101 Y0.830
G1 X-6.752 Y1.202
G1 X-7.376 Y1.617
G1 X-7.970 Y2.074
G1 X-8.531 Y2.570
G1 X-9.056 Y3.103
G1 X-9.543 Y3.670
G1 X-9.990 Y4.268
G1 X-10.394 Y4.895
G1 X-10.755 Y5.548
G1 X-11.069 Y6.223
G1 X-11.336 Y6.918
G1 X-11.554 Y7.628
G1 X-11.723 Y8.352
G1 X-11.842 Y9.084
G1 X-11.909 Y9.822
G1 X-11.926 Y10.563
G1 X-11.891 Y11.302
G1 X-11.806 Y12.036
G1 X-11.670 Y12.762
G1 X-11.484 Y13.476
G1 X-11.249 Y14.175
G1 X-10.967 Y14.855
G1 X-10.638 Y15.513
G1 X-10.265 Y16.147
G1 X-9.849 Y16.752
G1 X-9.392 Y17.327
G1 X-8.896 Y17.868
G1 X-8.365 Y18.373
G1 X-7.799 Y18.839
G1 X-7.203 Y19.265
G1 X-6.579 Y19.647
G1 X-5.930 Y19.985
G1 X-5.259 Y20.277
G1 X-4.569 Y20.521
G1 X-3.864 Y20.716
G1 X-3.148 Y20.861
G1 X-2.423 Y20.956
G1 X-1.693 Y21.000
G1 X-0.961 Y20.993
G1 X-0.232 Y20.935
G1 X0.491 Y20.826
G1 X1.206 Y20.666
G1 X1.907 Y20.457
G1 X2.593 Y20.199
G1 X3.259 Y19.894
G1 X3.903 Y19.543
G1 X4.521 Y19.148
G1 X5.111 Y18.710
G1 X5.669 Y18.232
G1 X6.193 Y17.716
G1 X6.680 Y17.165
G1 X7.128 Y16.580
G1 X7.535 Y15.965
G1 X7.898 Y15.323
G1 X8.216 Y14.657
G1 X8.488 Y13.969
G1 X8.712 Y13.264
G1 X8.887 Y12.544
G1 X9.011 Y11.813
G1 X9.085 Y11.075
G1 X9.109 Y10.332
G1 X9.081 Y9.589
G1 X9.002 Y8.849
G1 X8.872 Y8.116
G1 X8.692 Y7.392
G1 X8.462 Y6.682
G1 X8.185 Y5.988
G1 X7.860 Y5.315
G1 X7.490 Y4.665
G1 X7.076 Y4.041
G1 X6.620 Y3.447
G1 X6.124 Y2.885
G1 X5.590 Y2.357
G1 X5.022 Y1.867
G1 X4.421 Y1.417
G1 X3.791 Y1.008
G1 X3.134 Y0.643
G1 X2.454 Y0.323
G1 X1.754 Y0.051
G1 X1.036 Y-0.174
G1 X0.305 Y-0.349
G1 X-0.437 Y-0.474
G1 X-1.185 Y-0.548
G1 X-1.936 Y-0.571
G1 X-2.688 Y-0.543
G1 X-3.435 Y-0.464
G1 X-4.175 Y-0.335
G1 X-4.904 Y-0.155
G1 X-5.619 Y0.073
G1 X-6.317 Y0.350
G1 X-6.993 Y0.674
G1 X-7.646 Y1.042
G1 X-8.271 Y1.454
G1 X-8.867 Y1.908
G1 X-9.430 Y2.400
G1 X-9.957 Y2.930
G1 X-10.446 Y3.494
G1 X-10.895 Y4.089
G1 X-11.302 Y4.714
G1 X-11.665 Y5.364
G1 X-11.982 Y6.037
G1 X-12.252 Y6.730
G1 X-12.473 Y7.439
G1 X-12.645 Y8.161
G1 X-12.766 Y8.892
G1 X-12.837 Y9.629
G1 X-12.856 Y10.368
G1 X-12.825 Y11.106
G1 X-12.742 Y11.840
G1 X-12.609 Y12.566
G1 X-12.426 Y13.279
G1 X-12.194 Y13.978
G1 X-11.915 Y14.659
G1 X-11.589 Y15.318
G1 X-11.218 Y15.952
G1 X-10.804 Y16.558
G1 X-10.349 Y17.134
G1 X-9.856 Y17.676
G1 X-9.326 Y18.182
G1 X-8.763 Y18.650
G1 X-8.168 Y19.077
G1 X-7.545 Y19.461
G1 X-6.897 Y19.801
G1 X-6.227 Y20.095
G1 X-5.539 Y20.341
G1 X-4.835 Y20.538
G1 X-4.118 Y20.686
G1 X-3.394 Y20.783
G1 X-2.664 Y20.829
G1 X-1.932 Y20.824
G1 X-1.203 Y20.768
G1 X-0.478 Y20.661
G1 X0.237 Y20.503
G1 X0.939 Y20.296
G1 X1.626 Y20.041
G1 X2.294 Y19.737
G1 X2.940 Y19.388
G1 X3.560 Y18.995
G1 X4.151 Y18.559
G1 X4.711 Y18.082
G1 X5.238 Y17.567
G1 X5.727 Y17.017
G1 X6.178 Y16.433
G1 X6.587 Y15.819
G1 X6.953 Y15.178
G1 X7.275 Y14.512
G1 X7.550 Y13.824
G1 X7.776 Y13.119
G1 X7.954 Y12.399
G1 X8.082 Y11.668
G1 X8.160 Y10.929
G1 X8.186 Y10.186
G1 X8.161 Y9.442
G1 X8.086 Y8.701
G1 X7.959 Y7.966
G1 X7.782 Y7.240
G1 X7.556 Y6.528
G1 X7.282 Y5.833
G1 X6.960 Y5.157
G1 X6.592 Y4.505
G1 X6.181 Y3.879
G1 X5.728 Y3.281
G1 X5.235 Y2.716
G1 X4.704 Y2.186
G1 X4.138 Y1.692
G1 X3.539 Y1.239
G1 X2.911 Y0.826
G1 X2.256 Y0.458
G1 X1.577 Y0.134
G1 X0.878 Y-0.142
G1 X0.161 Y-0.370
G1 X-0.569 Y-0.549
G1 X-1.310 Y-0.678
G1 X-2.058 Y-0.757
G1 X-2.809 Y-0.784
G1 X-3.560 Y-0.760
G1 X-4.307 Y-0.685
G1 X-5.048 Y-0.559
G1 X-5.777 Y-0.384
G1 X-6.493 Y-0.159
G1 X-7.192 Y0.114
G1 X-7.869 Y0.434
G1 X-8.523 Y0.799
G1 X-9.150 Y1.207
G1 X-9.747 Y1.657
G1 X-10.312 Y2.147
G1 X-10.841 Y2.673
G1 X-11.333 Y3.234
G1 X-11.784 Y3.827
G1 X-12.194 Y4.449
G1 X-12.559 Y5.097
G1 X-12.878 Y5.768
G1 X-13.151 Y6.458
G1 X-13.375 Y7.165
G1 X-13.549 Y7.885
G1 X-13.674 Y8.615
G1 X-13.747 Y9.351
G1 X-13.769 Y10.090
G1 X-13.741 Y10.827
G1 X-13.661 Y11.560
G1 X-13.531 Y12.285
G1 X-13.350 Y12.999
G1 X-13.121 Y13.698
G1 X-12.844 Y14.379
G1 X-12.521 Y15.038
G1 X-12.152 Y15.673
G1 X-11.741 Y16.280
G1 X-11.288 Y16.857
G1 X-10.797 Y17.400
G1 X-10.269 Y17.908
G1 X-9.707 Y18.377
G1 X-9.114 Y18.806
G1 X-8.493 Y19.192
G1 X-7.846 Y19.534
G1 X-7.177 Y19.829
G1 X-6.489 Y20.077
G1 X-5.786 Y20.277
G1 X-5.070 Y20.426
G1 X-4.345 Y20.525
G1 X-3.615 Y20.574
G1 X-2.884 Y20.571
G1 X-2.153 Y20.517
G1 X-1.429 Y20.412
G1 X-0.713 Y20.257
G1 X-0.009 Y20.052
G1 X0.679 Y19.798
G1 X1.349 Y19.497
G1 X1.996 Y19.150
G1 X2.618 Y18.758
G1 X3.211 Y18.323
G1 X3.774 Y17.848
G1 X4.302 Y17.335
G1 X4.795 Y16.786
G1 X5.248 Y16.203
G1 X5.660 Y15.590
G1 X6.029 Y14.949
G1 X6.354 Y14.284
G1 X6.632 Y13.597
G1 X6.862 Y12.891
G1 X7.043 Y12.171
G1 X7.174 Y11.440
G1 X7.255 Y10.700
G1 X7.285 Y9.956
G1 X7.263 Y9.211
G1 X7.191 Y8.469
G1 X7.068 Y7.733
G1 X6.894 Y7.006
G1 X6.671 Y6.292
G1 X6.400 Y5.595
G1 X6.081 Y4.917
G1 X5.717 Y4.262
G1 X5.309 Y3.633
G1 X4.858 Y3.033
G1 X4.367 Y2.465
G1 X3.839 Y1.932
G1 X3.275 Y1.435
G1 X2.679 Y0.978
G1 X2.053 Y0.562
G1 X1.399 Y0.190
G1 X0.722 Y-0.137
G1 X0.024 Y-0.417
G1 X-0.691 Y-0.649
G1 X-1.420 Y-0.832
G1 X-2.160 Y-0.965
G1 X-2.907 Y-1.048
G1 X-3.658 Y-1.079
G1 X-4.409 Y-1.059
G1 X-5.156 Y-0.988
G1 X-5.897 Y-0.866
G1 X-6.627 Y-0.695
G1 X-7.343 Y-0.474
G1 X-8.043 Y-0.205
G1 X-8.721 Y0.111
G1 X-9.377 Y0.473
G1 X-10.005 Y0.878
G1 X-10.604 Y1.325
G1 X-11.170 Y1.811
G1 X-11.701 Y2.334
G1 X-12.195 Y2.892
G1 X-12.648 Y3.482
G1 X-13.060 Y4.102
G1 X-13.428 Y4.747
G1 X-13.750 Y5.416
G1 X-14.025 Y6.105
G1 X-14.252 Y6.810
G1 X-14.429 Y7.528
G1 X-14.556 Y8.257
G1 X-14.632 Y8.992
G1 X-14.657 Y9.729
G1 X-14.631 Y10.466
G1 X-14.554 Y11.199
G1 X-14.427 Y11.923
G1 X-14.249 Y12.637
G1 X-14.023 Y13.336
G1 X-13.748 Y14.017
G1 X-13.427 Y14.677
G1 X-13.061 Y15.313
G1 X-12.652 Y15.921
G1 X-12.201 Y16.498
G1 X-11.712 Y17.043
G1 X-11.186 Y17.552
G1 X-10.626 Y18.023
G1 X-10.034 Y18.453
G1 X-9.414 Y18.841
G1 X-8.769 Y19.184
G1 X-8.101 Y19.482
G1 X-7.413 Y19.732
G1 X-6.710 Y19.933
G1 X-5.995 Y20.085
G1 X-5.270 Y20.187
G1 X-4.540 Y20.237
G1 X-3.808 Y20.237
G1 X-3.078 Y20.185
G1 X-2.352 Y20.082
G1 X-1.635 Y19.929
G1 X-0.930 Y19.726
G1 X-0.240 Y19.475
G1 X0.431 Y19.175
G1 X1.080 Y18.830
G1 X1.703 Y18.440
G1 X2.299 Y18.007
G1 X2.864 Y17.534
G1 X3.395 Y17.021
G1 X3.890 Y16.473
G1 X4.346 Y15.892
G1 X4.761 Y15.280
G1 X5.133 Y14.639
G1 X5.461 Y13.975
G1 X5.742 Y13.288
G1 X5.975 Y12.583
G1 X6.160 Y11.863
G1 X6.294 Y11.131
G1 X6.379 Y10.391
G1 X6.412 Y9.646
G1 X6.394 Y8.900
G1 X6.325 Y8.157
G1 X6.205 Y7.419
G1 X6.035 Y6.691
G1 X5.815 Y5.975
G1 X5.547 Y5.276
G1 X5.232 Y4.596
G1 X4.871 Y3.939
G1 X4.465 Y3.307
G1 X4.017 Y2.705
G1 X3.530 Y2.134
G1 X3.004 Y1.597
G1 X2.442 Y1.097
G1 X1.848 Y0.637
G1 X1.224 Y0.218
G1 X0.573 Y-0.158
G1 X-0.102 Y-0.489
G1 X-0.799 Y-0.773
G1 X-1.513 Y-1.009
G1 X-2.241 Y-1.195
G1 X-2.980 Y-1.332
G1 X-3.726 Y-1.418
G1 X-4.476 Y-1.454
G1 X-5.227 Y-1.438
G1 X-5.974 Y-1.371
G1 X-6.715 Y-1.253
G1 X-7.446 Y-1.085
G1 X-8.163 Y-0.868
G1 X-8.863 Y-0.603
G1 X-9.542 Y-0.290
G1 X-10.199 Y0.067
G1 X-10.828 Y0.469
G1 X-11.429 Y0.912
G1 X-11.997 Y1.395
G1 X-12.530 Y1.916
G1 X-13.025 Y2.471
G1 X-13.481 Y3.058
G1 X-13.895 Y3.675
G1 X-14.265 Y4.318
G1 X-14.589 Y4.985
G1 X-14.867 Y5.672
G1 X-15.096 Y6.375
G1 X-15.276 Y7.092
G1 X-15.406 Y7.819
G1 X-15.485 Y8.553
G1 X-15.512 Y9.289
G1 X-15.489 Y10.025
G1 X-15.415 Y10.758
G1 X-15.290 Y11.482
G1 X-15.115 Y12.196
G1 X-14.891 Y12.895
G1 X-14.619 Y13.576
G1 X-14.300 Y14.237
G1 X-13.937 Y14.873
G1 X-13.530 Y15.482
G1 X-13.081 Y16.061
G1 X-12.594 Y16.607
G1 X-12.069 Y17.117
G1 X-11.511 Y17.589
G1 X-10.921 Y18.021
G1 X-10.302 Y18.411
G1 X-9.657 Y18.756
G1 X-8.990 Y19.056
G1 X-8.304 Y19.308
G1 X-7.601 Y19.511
G1 X-6.886 Y19.665
G1 X-6.161 Y19.769
G1 X-5.431 Y19.822
G1 X-4.699 Y19.823
G1 X-3.967 Y19.774
G1 X-3.241 Y19.674
G1 X-2.523 Y19.523
G1 X-1.817 Y19.322
G1 X-1.126 Y19.072
G1 X-0.453 Y18.775
G1 X0.198 Y18.432
G1 X0.824 Y18.043
G1 X1.422 Y17.612
G1 X1.989 Y17.140
G1 X2.522 Y16.630
G1 X3.020 Y16.083
G1 X3.479 Y15.502
G1 X3.897 Y14.891
G1 X4.272 Y14.252
G1 X4.603 Y13.587
G1 X4.887 Y12.901
G1 X5.124 Y12.196
G1 X5.312 Y11.476
G1 X5.450 Y10.744
G1 X5.538 Y10.004
G1 X5.575 Y9.258
G1 X5.560 Y8.512
G1 X5.495 Y7.767
G1 X5.378 Y7.028
G1 X5.212 Y6.298
G1 X4.996 Y5.581
G1 X4.731 Y4.880
G1 X4.419 Y4.198
G1 X4.061 Y3.538
G1 X3.658 Y2.904
G1 X3.213 Y2.299
G1 X2.728 Y1.725
G1 X2.205 Y1.186
G1 X1.646 Y0.683
G1 X1.055 Y0.219
G1 X0.433 Y-0.204
G1 X-0.217 Y-0.583
G1 X-0.890 Y-0.917
G1 X-1.585 Y-1.205
G1 X-2.297 Y-1.445
G1 X-3.024 Y-1.635
G1 X-3.762 Y-1.776
G1 X-4.508 Y-1.866
G1 X-5.257 Y-1.905
G1 X-6.008 Y-1.893
G1 X-6.755 Y-1.830
G1 X-7.496 Y-1.716
G1 X-8.227 Y-1.552
G1 X-8.944 Y-1.339
G1 X-9.645 Y-1.077
G1 X-10.325 Y-0.769
G1 X-10.982 Y-0.414
G1 X-11.613 Y-0.016
G1 X-12.215 Y0.424
G1 X-12.785 Y0.904
G1 X-13.319 Y1.421
G1 X-13.817 Y1.973
G1 X-14.275 Y2.558
G1 X-14.691 Y3.172
G1 X-15.063 Y3.813
G1 X-15.390 Y4.478
G1 X-15.670 Y5.162
G1 X-15.901 Y5.864
G1 X-16.084 Y6.580
G1 X-16.216 Y7.305
G1 X-16.298 Y8.038
G1 X-16.328 Y8.773
G1 X-16.307 Y9.509
G1 X-16.236 Y10.241
G1 X-16.113 Y10.965
G1 X-15.941 Y11.678
G1 X-15.719 Y12.378
G1 X-15.450 Y13.060
G1 X-15.134 Y13.720
G1 X-14.772 Y14.357
G1 X-14.367 Y14.967
G1 X-13.921 Y15.547
G1 X-13.435 Y16.094
G1 X-12.912 Y16.606
G1 X-12.355 Y17.080
G1 X-11.767 Y17.514
G1 X-11.149 Y17.905
G1 X-10.505 Y18.252
G1 X-9.839 Y18.554
G1 X-9.153 Y18.808
G1 X-8.451 Y19.014
G1 X-7.736 Y19.170
G1 X-7.011 Y19.276
G1 X-6.281 Y19.331
G1 X-5.548 Y19.335
G1 X-4.816 Y19.288
G1 X-4.089 Y19.190
G1 X-3.370 Y19.041
G1 X-2.662 Y18.843
G1 X-1.969 Y18.595
G1 X-1.295 Y18.300
G1 X-0.642 Y17.958
G1 X-0.014 Y17.572
G1 X0.586 Y17.143
G1 X1.155 Y16.672
G1 X1.692 Y16.163
G1 X2.192 Y15.618
G1 X2.654 Y15.038
G1 X3.075 Y14.428
G1 X3.453 Y13.789
G1 X3.787 Y13.126
G1 X4.075 Y12.440
G1 X4.315 Y11.735
G1 X4.506 Y11.015
G1 X4.648 Y10.283
G1 X4.739 Y9.542
G1 X4.780 Y8.796
G1 X4.769 Y8.049
G1 X4.707 Y7.303
G1 X4.595 Y6.563
G1 X4.432 Y5.832
G1 X4.219 Y5.113
G1 X3.958 Y4.410
G1 X3.649 Y3.725
G1 X3.294 Y3.064
G1 X2.895 Y2.427
G1 X2.453 Y1.820
G1 X1.971 Y1.243
G1 X1.450 Y0.700
G1 X0.894 Y0.194
G1 X0.305 Y-0.273
G1 X-0.315 Y-0.698
G1 X-0.962 Y-1.081
G1 X-1.634 Y-1.419
G1 X-2.327 Y-1.710
G1 X-3.038 Y-1.954
G1 X-3.763 Y-2.148
G1 X-4.500 Y-2.293
G1 X-5.245 Y-2.387
G1 X-5.994 Y-2.430
G1 X-6.744 Y-2.422
G1 X-7.491 Y-2.362
G1 X-8.231 Y-2.253
G1 X-8.962 Y-2.092
G1 X-9.680 Y-1.883
G1 X-10.381 Y-1.625
G1 X-11.063 Y-1.320
G1 X-11.721 Y-0.969
G1 X-12.353 Y-0.574
G1 X-12.956 Y-0.137
G1 X-13.527 Y0.339
G1 X-14.064 Y0.854
G1 X-14.563 Y1.403
G1 X-15.023 Y1.985
G1 X-15.441 Y2.597
G1 X-15.815 Y3.236
G1 X-16.144 Y3.898
G1 X-16.427 Y4.581
G1 X-16.661 Y5.281
G1 X-16.845 Y5.995
G1 X-16.980 Y6.719
G1 X-17.064 Y7.451
G1 X-17.097 Y8.185
G1 X-17.079 Y8.920
G1 X-17.010 Y9.651
G1 X-16.890 Y10.376
G1 X-16.720 Y11.089
G1 X-16.501 Y11.789
G1 X-16.234 Y12.471
G1 X-15.920 Y13.132
G1 X-15.561 Y13.770
G1 X-15.158 Y14.381
G1 X-14.713 Y14.962
G1 X-14.229 Y15.510
G1 X-13.708 Y16.024
G1 X-13.153 Y16.499
G1 X-12.565 Y16.934
G1 X-11.949 Y17.328
G1 X-11.306 Y17.677
G1 X-10.640 Y17.981
G1 X-9.955 Y18.237
G1 X-9.253 Y18.445
G1 X-8.538 Y18.603
G1 X-7.814 Y18.712
G1 X-7.083 Y18.769
G1 X-6.349 Y18.775
G1 X-5.617 Y18.731
G1 X-4.888 Y18.635
G1 X-4.168 Y18.488
G1 X-3.459 Y18.292
G1 X-2.765 Y18.047
G1 X-2.089 Y17.754
G1 X-1.434 Y17.414
G1 X-0.804 Y17.030
G1 X-0.202 Y16.602
G1 X0.370 Y16.133
G1 X0.909 Y15.626
G1 X1.412 Y15.082
G1 X1.877 Y14.504
G1 X2.301 Y13.894
G1 X2.683 Y13.257
G1 X3.020 Y12.594
G1 X3.311 Y11.908
G1 X3.555 Y11.204
G1 X3.750 Y10.484
G1 X3.895 Y9.752
G1 X3.990 Y9.011
G1 X4.034 Y8.264
G1 X4.027 Y7.516
G1 X3.969 Y6.769
G1 X3.860 Y6.028
G1 X3.701 Y5.295
G1 X3.492 Y4.575
G1 X3.234 Y3.870
G1 X2.928 Y3.184
G1 X2.577 Y2.520
G1 X2.181 Y1.881
G1 X1.742 Y1.271
G1 X1.263 Y0.691
G1 X0.745 Y0.146
G1 X0.192 Y-0.363
G1 X-0.395 Y-0.833
G1 X-1.012 Y-1.262
G1 X-1.657 Y-1.648
G1 X-2.327 Y-1.990
G1 X-3.018 Y-2.285
G1 X-3.727 Y-2.532
G1 X-4.452 Y-2.730
G1 X-5.187 Y-2.878
G1 X-5.931 Y-2.976
G1 X-6.679 Y-3.023
G1 X-7.429 Y-3.019
G1 X-8.175 Y-2.963
G1 X-8.916 Y-2.857
G1 X-9.647 Y-2.701
G1 X-10.365 Y-2.495
G1 X-11.067 Y-2.241
G1 X-11.749 Y-1.939
G1 X-12.408 Y-1.592
G1 X-13.041 Y-1.200
G1 X-13.646 Y-0.767
G1 X-14.218 Y-0.293
G1 X-14.756 Y0.219
G1 X-15.257 Y0.765
G1 X-15.718 Y1.345
G1 X-16.138 Y1.954
G1 X-16.515 Y2.590
G1 X-16.846 Y3.251
G1 X-17.131 Y3.931
G1 X-17.367 Y4.630
G1 X-17.555 Y5.342
G1 X-17.692 Y6.065
G1 X-17.778 Y6.796
G1 X-17.814 Y7.530
G1 X-17.798 Y8.264
G1 X-17.732 Y8.995
G1 X-17.614 Y9.719
G1 X-17.447 Y10.432
G1 X-17.230 Y11.132
G1 X-16.965 Y11.815
G1 X-16.653 Y12.477
G1 X-16.296 Y13.115
G1 X-15.895 Y13.727
G1 X-15.452 Y14.309
G1 X-14.970 Y14.859
G1 X-14.451 Y15.374
G1 X-13.896 Y15.851
G1 X-13.310 Y16.288
G1 X-12.695 Y16.683
G1 X-12.053 Y17.035
G1 X-11.388 Y17.340
G1 X-10.703 Y17.599
G1 X-10.002 Y17.809
G1 X-9.287 Y17.970
G1 X-8.562 Y18.081
G1 X-7.831 Y18.140
G1 X-7.097 Y18.149
G1 X-6.363 Y18.107
G1 X-5.634 Y18.013
G1 X-4.913 Y17.869
G1 X-4.202 Y17.675
G1 X-3.506 Y17.432
G1 X-2.829 Y17.141
G1 X-2.172 Y16.804
G1 X-1.540 Y16.421
G1 X-0.935 Y15.996
G1 X-0.360 Y15.529
G1 X0.182 Y15.023
G1 X0.687 Y14.480
G1 X1.155 Y13.903
G1 X1.583 Y13.295
G1 X1.968 Y12.658
G1 X2.308 Y11.996
G1 X2.603 Y11.311
G1 X2.850 Y10.607
G1 X3.049 Y9.888
G1 X3.198 Y9.155
G1 X3.296 Y8.414
G1 X3.344 Y7.667
G1 X3.341 Y6.918
G1 X3.287 Y6.170
G1 X3.181 Y5.428
G1 X3.025 Y4.694
G1 X2.820 Y3.972
G1 X2.566 Y3.265
G1 X2.264 Y2.577
G1 X1.916 Y1.911
G1 X1.523 Y1.270
G1 X1.087 Y0.657
G1 X0.611 Y0.075
G1 X0.097 Y-0.473
G1 X-0.454 Y-0.985
G1 X-1.038 Y-1.458
G1 X-1.653 Y-1.890
G1 X-2.296 Y-2.280
G1 X-2.964 Y-2.625
G1 X-3.653 Y-2.923
G1 X-4.361 Y-3.174
G1 X-5.083 Y-3.376
G1 X-5.818 Y-3.528
G1 X-6.560 Y-3.629
G1 X-7.308 Y-3.680
G1 X-8.057 Y-3.679
G1 X-8.803 Y-3.628
G1 X-9.543 Y-3.525
G1 X-10.274 Y-3.373
G1 X-10.993 Y-3.170
G1 X-11.695 Y-2.920
G1 X-12.378 Y-2.622
G1 X-13.038 Y-2.278
G1 X-13.672 Y-1.890
G1 X-14.277 Y-1.459
G1 X-14.851 Y-0.988
G1 X-15.390 Y-0.480
G1 X-15.893 Y0.064
G1 X-16.356 Y0.641
G1 X-16.778 Y1.248
G1 X-17.157 Y1.882
G1 X-17.490 Y2.540
G1 X-17.777 Y3.219
G1 X-18.016 Y3.916
G1 X-18.205 Y4.627
G1 X-18.345 Y5.349
G1 X-18.434 Y6.078
G1 X-18.472 Y6.812
G1 X-18.459 Y7.545
G1 X-18.394 Y8.276
G1 X-18.279 Y8.999
G1 X-18.114 Y9.713
G1 X-17.900 Y10.413
G1 X-17.637 Y11.096
G1 X-17.327 Y11.759
G1 X-16.972 Y12.398
G1 X-16.573 Y13.011
G1 X-16.132 Y13.595
G1 X-15.652 Y14.146
G1 X-15.134 Y14.662
G1 X-14.581 Y15.141
G1 X-13.996 Y15.580
G1 X-13.381 Y15.977
G1 X-12.740 Y16.331
G1 X-12.076 Y16.638
G1 X-11.392 Y16.899
G1 X-10.690 Y17.112
G1 X-9.975 Y17.275
G1 X-9.250 Y17.388
G1 X-8.519 Y17.450
G1 X-7.784 Y17.461
G1 X-7.050 Y17.421
G1 X-6.320 Y17.330
G1 X-5.597 Y17.189
G1 X-4.885 Y16.997
G1 X-4.188 Y16.757
G1 X-3.508 Y16.468
G1 X-2.849 Y16.132
G1 X-2.215 Y15.752
G1 X-1.607 Y15.328
G1 X-1.030 Y14.863
G1 X-0.486 Y14.359
G1 X0.023 Y13.818
G1 X0.494 Y13.242
G1 X0.925 Y12.635
G1 X1.313 Y12.000
G1 X1.657 Y11.338
G1 X1.955 Y10.654
G1 X2.206 Y9.951
G1 X2.408 Y9.231
G1 X2.561 Y8.499
G1 X2.664 Y7.757
G1 X2.715 Y7.010
G1 X2.716 Y6.260
G1 X2.665 Y5.512
G1 X2.563 Y4.768
G1 X2.411 Y4.033
G1 X2.210 Y3.310
G1 X1.959 Y2.601
G1 X1.661 Y1.911
G1 X1.316 Y1.243
G1 X0.927 Y0.600
G1 X0.494 Y-0.015
G1 X0.021 Y-0.600
G1 X-0.490 Y-1.151
G1 X-1.038 Y-1.665
G1 X-1.620 Y-2.142
G1 X-2.232 Y-2.577
G1 X-2.873 Y-2.970
G1 X-3.538 Y-3.318
G1 X-4.225 Y-3.620
G1 X-4.931 Y-3.874
G1 X-5.653 Y-4.080
G1 X-6.386 Y-4.236
G1 X-7.127 Y-4.341
G1 X-7.874 Y-4.395
G1 X-8.622 Y-4.398
G1 X-9.368 Y-4.351
G1 X-10.108 Y-4.252
G1 X-10.839 Y-4.103
G1 X-11.557 Y-3.904
G1 X-12.260 Y-3.657
G1 X-12.943 Y-3.362
G1 X-13.604 Y-3.022
G1 X-14.239 Y-2.637
G1 X-14.845 Y-2.209
G1 X-15.420 Y-1.742
G1 X-15.961 Y-1.236
G1 X-16.466 Y-0.695
G1 X-16.931 Y-0.120
G1 X-17.354 Y0.484
G1 X-17.735 Y1.116
G1 X-18.070 Y1.772
G1 X-18.359 Y2.450
G1 X-18.600 Y3.145
G1 X-18.792 Y3.855
G1 X-18.934 Y4.575
G1 X-19.025 Y5.304
G1 X-19.066 Y6.036
G1 X-19.055 Y6.769
G1 X-18.993 Y7.500
G1 X-18.880 Y8.223
G1 X-18.718 Y8.937
G1 X-18.505 Y9.637
G1 X-18.245 Y10.321
G1 X-17.937 Y10.985
G1 X-17.584 Y11.625
G1 X-17.187 Y12.239
G1 X-16.747 Y12.824
G1 X-16.268 Y13.376
G1 X-15.752 Y13.894
G1 X-15.200 Y14.375
G1 X-14.617 Y14.816
G1 X-14.003 Y15.215
G1 X-13.363 Y15.570
G1 X-12.699 Y15.880
G1 X-12.015 Y16.143
G1 X-11.314 Y16.358
G1 X-10.599 Y16.524
G1 X-9.874 Y16.639
G1 X-9.142 Y16.704
G1 X-8.407 Y16.718
G1 X-7.671 Y16.681
G1 X-6.940 Y16.592
G1 X-6.216 Y16.453
G1 X-5.503 Y16.264
G1 X-4.804 Y16.025
G1 X-4.122 Y15.739
G1 X-3.461 Y15.406
G1 X-2.824 Y15.028
G1 X-2.214 Y14.606
G1 X-1.634 Y14.142
G1 X-1.087 Y13.640
G1 X-0.575 Y13.100
G1 X-0.101 Y12.526
G1 X0.332 Y11.921
G1 X0.724 Y11.286
G1 X1.072 Y10.626
G1 X1.373 Y9.942
G1 X1.628 Y9.239
G1 X1.834 Y8.520
G1 X1.991 Y7.788
G1 X2.097 Y7.046
G1 X2.152 Y6.298
G1 X2.157 Y5.548
G1 X2.110 Y4.799
G1 X2.012 Y4.055
G1 X1.864 Y3.318
G1 X1.666 Y2.594
G1 X1.419 Y1.884
G1 X1.124 Y1.192
G1 X0.783 Y0.522
G1 X0.397 Y-0.123
G1 X-0.032 Y-0.741
G1 X-0.502 Y-1.328
G1 X-1.010 Y-1.882
G1 X-1.555 Y-2.399
G1 X-2.134 Y-2.879
G1 X-2.744 Y-3.317
G1 X-3.382 Y-3.713
G1 X-4.045 Y-4.065
G1 X-4.731 Y-4.370
G1 X-5.435 Y-4.628
G1 X-6.154 Y-4.837
G1 X-6.886 Y-4.996
G1 X-7.627 Y-5.105
G1 X-8.372 Y-5.163
G1 X-9.119 Y-5.170
G1 X-9.865 Y-5.125
G1 X-10.604 Y-5.030
G1 X-11.335 Y-4.885
G1 X-12.054 Y-4.690
G1 X-12.757 Y-4.446
G1 X-13.441 Y-4.155
G1 X-14.102 Y-3.817
G1 X-14.738 Y-3.436
G1 X-15.345 Y-3.011
G1 X-15.922 Y-2.547
G1 X-16.464 Y-2.044
G1 X-16.970 Y-1.505
G1 X-17.436 Y-0.933
G1 X-17.862 Y-0.331
G1 X-18.244 Y0.299
G1 X-18.582 Y0.953
G1 X-18.873 Y1.629
G1 X-19.116 Y2.323
G1 X-19.310 Y3.031
G1 X-19.454 Y3.751
G1 X-19.548 Y4.478
G1 X-19.591 Y5.210
G1 X-19.582 Y5.943
G1 X-19.523 Y6.673
G1 X-19.412 Y7.396
G1 X-19.252 Y8.110
G1 X-19.041 Y8.811
G1 X-18.783 Y9.495
G1 X-18.477 Y10.160
G1 X-18.126 Y10.801
G1 X-17.731 Y11.416
G1 X-17.293 Y12.002
G1 X-16.816 Y12.556
G1 X-16.301 Y13.076
G1 X-15.750 Y13.558
G1 X-15.168 Y14.001
G1 X-14.555 Y14.402
G1 X-13.916 Y14.760
G1 X-13.252 Y15.072
G1 X-12.569 Y15.338
G1 X-11.868 Y15.555
G1 X-11.153 Y15.723
G1 X-10.427 Y15.841
G1 X-9.695 Y15.909
G1 X-8.959 Y15.925
G1 X-8.223 Y15.890
G1 X-7.490 Y15.804
G1 X-6.765 Y15.668
G1 X-6.050 Y15.481
G1 X-5.349 Y15.245
G1 X-4.666 Y14.961
G1 X-4.003 Y14.630
G1 X-3.363 Y14.254
G1 X-2.751 Y13.834
G1 X-2.168 Y13.373
G1 X-1.618 Y12.872
G1 X-1.104 Y12.334
G1 X-0.626 Y11.762
G1 X-0.189 Y11.158
G1 X0.206 Y10.524
G1 X0.557 Y9.865
G1 X0.862 Y9.182
G1 X1.121 Y8.480
G1 X1.330 Y7.761
G1 X1.491 Y7.029
G1 X1.601 Y6.287
G1 X1.660 Y5.539
G1 X1.668 Y4.789
G1 X1.626 Y4.039
G1 X1.532 Y3.294
G1 X1.387 Y2.556
G1 X1.193 Y1.830
G1 X0.950 Y1.119
G1 X0.659 Y0.425
G1 X0.321 Y-0.247
G1 X-0.061 Y-0.894
G1 X-0.487 Y-1.514
G1 X-0.953 Y-2.103
G1 X-1.459 Y-2.659
G1 X-2.001 Y-3.180
G1 X-2.577 Y-3.662
G1 X-3.184 Y-4.104
G1 X-3.820 Y-4.503
G1 X-4.481 Y-4.857
G1 X-5.164 Y-5.166
G1 X-5.866 Y-5.427
G1 X-6.584 Y-5.640
G1 X-7.315 Y-5.803
G1 X-8.054 Y-5.915
G1 X-8.798 Y-5.976
G1 X-9.545 Y-5.987
G1 X-10.289 Y-5.946
G1 X-11.029 Y-5.855
G1 X-11.760 Y-5.713
G1 X-12.478 Y-5.521
G1 X-13.181 Y-5.280
G1 X-13.865 Y-4.993
G1 X-14.527 Y-4.658
G1 X-15.164 Y-4.280
G1 X-15.773 Y-3.859
G1 X-16.350 Y-3.397
G1 X-16.894 Y-2.896
G1 X-17.401 Y-2.360
G1 X-17.869 Y-1.791
G1 X-18.297 Y-1.191
G1 X-18.681 Y-0.563
G1 X-19.020 Y0.090
G1 X-19.313 Y0.763
G1 X-19.559 Y1.456
G1 X-19.755 Y2.163
G1 X-19.901 Y2.881
G1 X-19.997 Y3.608
G1 X-20.042 Y4.339
G1 X-20.036 Y5.072
G1 X-19.979 Y5.801
G1 X-19.870 Y6.525
G1 X-19.712 Y7.239
G1 X-19.504 Y7.940
G1 X-19.248 Y8.625
G1 X-18.944 Y9.290
G1 X-18.595 Y9.933
G1 X-18.201 Y10.549
G1 X-17.765 Y11.137
G1 X-17.289 Y11.692
G1 X-16.776 Y12.214
G1 X-16.227 Y12.698
G1 X-15.645 Y13.143
G1 X-15.033 Y13.546
G1 X-14.394 Y13.906
G1 X-13.732 Y14.221
G1 X-13.048 Y14.489
G1 X-12.348 Y14.709
G1 X-11.632 Y14.879
G1 X-10.907 Y15.000
G1 X-10.174 Y15.070
G1 X-9.437 Y15.089
G1 X-8.700 Y15.057
G1 X-7.967 Y14.973
G1 X-7.240 Y14.840
G1 X-6.523 Y14.655
G1 X-5.821 Y14.422
G1 X-5.135 Y14.141
G1 X-4.470 Y13.812
G1 X-3.828 Y13.438
G1 X-3.213 Y13.021
G1 X-2.628 Y12.561
G1 X-2.075 Y12.063
G1 X-1.557 Y11.526
G1 X-1.077 Y10.956
G1 X-0.636 Y10.353
G1 X-0.238 Y9.720
G1 X0.117 Y9.062
G1 X0.426 Y8.380
G1 X0.688 Y7.679
G1 X0.901 Y6.960
G1 X1.066 Y6.229
G1 X1.180 Y5.487
G1 X1.243 Y4.739
G1 X1.255 Y3.988
G1 X1.216 Y3.238
G1 X1.126 Y2.492
G1 X0.986 Y1.753
G1 X0.796 Y1.026
G1 X0.556 Y0.313
G1 X0.269 Y-0.382
G1 X-0.065 Y-1.056
G1 X-0.444 Y-1.705
G1 X-0.866 Y-2.327
G1 X-1.329 Y-2.919
G1 X-1.832 Y-3.478
G1 X-2.371 Y-4.001
G1 X-2.944 Y-4.485
G1 X-3.549 Y-4.930
G1 X-4.182 Y-5.332
G1 X-4.841 Y-5.690
G1 X-5.522 Y-6.002
G1 X-6.222 Y-6.266
G1 X-6.938 Y-6.482
G1 X-7.667 Y-6.648
G1 X-8.405 Y-6.764
G1 X-9.149 Y-6.829
G1 X-9.894 Y-6.843
G1 X-10.638 Y-6.806
G1 X-11.377 Y-6.718
G1 X-12.108 Y-6.579
G1 X-12.826 Y-6.391
G1 X-13.529 Y-6.154
G1 X-14.214 Y-5.869
G1 X-14.877 Y-5.538
G1 X-15.514 Y-5.163
G1 X-16.124 Y-4.744
G1 X-16.702 Y-4.285
G1 X-17.247 Y-3.788
G1 X-17.756 Y-3.254
G1 X-18.225 Y-2.687
G1 X-18.654 Y-2.089
G1 X-19.041 Y-1.463
G1 X-19.382 Y-0.812
G1 X-19.677 Y-0.140
G1 X-19.924 Y0.551
G1 X-20.123 Y1.257
G1 X-20.271 Y1.974
G1 X-20.369 Y2.700
G1 X-20.417 Y3.431
G1 X-20.413 Y4.163
G1 X-20.357 Y4.892
G1 X-20.252 Y5.616
G1 X-20.095 Y6.331
G1 X-19.889 Y7.032
G1 X-19.635 Y7.718
G1 X-19.333 Y8.384
G1 X-18.986 Y9.028
G1 X-18.594 Y9.645
G1 X-18.160 Y10.234
G1 X-17.685 Y10.791
G1 X-17.173 Y11.315
G1 X-16.625 Y11.801
G1 X-16.045 Y12.248
G1 X-15.434 Y12.653
G1 X-14.796 Y13.016
G1 X-14.134 Y13.333
G1 X-13.450 Y13.603
G1 X-12.750 Y13.826
G1 X-12.034 Y13.999
G1 X-11.308 Y14.122
G1 X-10.575 Y14.195
G1 X-9.837 Y14.217
G1 X-9.100 Y14.187
G1 X-8.365 Y14.107
G1 X-7.637 Y13.976
G1 X-6.919 Y13.794
G1 X-6.214 Y13.563
G1 X-5.527 Y13.284
G1 X-4.859 Y12.958
G1 X-4.215 Y12.587
G1 X-3.598 Y12.172
G1 X-3.010 Y11.714
G1 X-2.454 Y11.218
G1 X-1.933 Y10.683
G1 X-1.449 Y10.114
G1 X-1.005 Y9.513
G1 X-0.603 Y8.882
G1 X-0.245 Y8.225
G1 X0.068 Y7.544
G1 X0.333 Y6.843
G1 X0.551 Y6.125
G1 X0.719 Y5.394
G1 X0.837 Y4.652
G1 X0.904 Y3.904
G1 X0.920 Y3.153
G1 X0.886 Y2.402
G1 X0.800 Y1.656
G1 X0.663 Y0.916
G1 X0.477 Y0.188
G1 X0.241 Y-0.526
G1 X-0.043 Y-1.223
G1 X-0.373 Y-1.898
G1 X-0.748 Y-2.549
G1 X-1.167 Y-3.173
G1 X-1.627 Y-3.768
G1 X-2.126 Y-4.329
G1 X-2.662 Y-4.854
G1 X-3.233 Y-5.342
G1 X-3.834 Y-5.789
G1 X-4.465 Y-6.194
G1 X-5.121 Y-6.555
G1 X-5.800 Y-6.870
G1 X-6.499 Y-7.138
G1 X-7.213 Y-7.357
G1 X-7.941 Y-7.527
G1 X-8.677 Y-7.646
G1 X-9.419 Y-7.714
G1 X-10.164 Y-7.732
G1 X-10.907 Y-7.698
G1 X-11.646 Y-7.613
G1 X-12.376 Y-7.478
G1 X-13.095 Y-7.293
G1 X-13.798 Y-7.059
G1 X-14.483 Y-6.778
G1 X-15.146 Y-6.450
G1 X-15.784 Y-6.077
G1 X-16.395 Y-5.662
G1 X-16.974 Y-5.205
G1 X-17.520 Y-4.710
G1 X-18.030 Y-4.179
G1 X-18.502 Y-3.614
G1 X-18.932 Y-3.018
G1 X-19.320 Y-2.394
G1 X-19.663 Y-1.745
G1 X-19.960 Y-1.075
G1 X-20.210 Y-0.385
G1 X-20.410 Y0.320
G1 X-20.561 Y1.037
G1 X-20.661 Y1.762
G1 X-20.711 Y2.492
G1 X-20.709 Y3.224
G1 X-20.656 Y3.953
G1 X-20.552 Y4.677
G1 X-20.398 Y5.392
G1 X-20.194 Y6.094
G1 X-19.942 Y6.781
G1 X-19.642 Y7.448
G1 X-19.297 Y8.092
G1 X-18.906 Y8.711
G1 X-18.474 Y9.302
G1 X-18.001 Y9.861
G1 X-17.490 Y10.386
G1 X-16.943 Y10.874
G1 X-16.364 Y11.323
G1 X-15.754 Y11.731
G1 X-15.116 Y12.096
G1 X-14.455 Y12.415
G1 X-13.772 Y12.688
G1 X-13.071 Y12.914
G1 X-12.356 Y13.090
G1 X-11.629 Y13.216
G1 X-10.895 Y13.291
G1 X-10.157 Y13.316
G1 X-9.418 Y13.289
G1 X-8.682 Y13.211
G1 X-7.953 Y13.083
G1 X-7.233 Y12.904
G1 X-6.527 Y12.676
G1 X-5.837 Y12.400
G1 X-5.168 Y12.076
G1 X-4.521 Y11.707
G1 X-3.901 Y11.294
G1 X-3.310 Y10.839
G1 X-2.751 Y10.345
G1 X-2.227 Y9.812
G1 X-1.741 Y9.245
G1 X-1.293 Y8.645
G1 X-0.888 Y8.016
G1 X-0.526 Y7.360
G1 X-0.210 Y6.680
G1 X0.060 Y5.980
G1 X0.281 Y5.263
G1 X0.453 Y4.532
G1 X0.575 Y3.791
G1 X0.647 Y3.043
G1 X0.667 Y2.292
G1 X0.636 Y1.540
G1 X0.554 Y0.793
G1 X0.421 Y0.053
G1 X0.239 Y-0.677
G1 X0.007 Y-1.392
G1 X-0.273 Y-2.090
G1 X-0.599 Y-2.767
G1 X-0.971 Y-3.420
G1 X-1.386 Y-4.046
G1 X-1.843 Y-4.642
G1 X-2.339 Y-5.206
G1 X-2.872 Y-5.734
G1 X-3.439 Y-6.224
G1 X-4.038 Y-6.674
G1 X-4.667 Y-7.082
G1 X-5.320 Y-7.446
G1 X-5.997 Y-7.764
G1 X-6.694 Y-8.035
G1 X-7.406 Y-8.257
G1 X-8.132 Y-8.430
G1 X-8.867 Y-8.553
G1 X-9.608 Y-8.624
G1 X-10.352 Y-8.645
G1 X-11.095 Y-8.615
G1 X-11.833 Y-8.533
G1 X-12.563 Y-8.401
G1 X-13.281 Y-8.219
G1 X-13.984 Y-7.989
G1 X-14.670 Y-7.710
G1 X-15.333 Y-7.385
G1 X-15.972 Y-7.016
G1 X-16.583 Y-6.603
G1 X-17.164 Y-6.149
G1 X-17.711 Y-5.657
G1 X-18.223 Y-5.128
G1 X-18.696 Y-4.565
G1 X-19.128 Y-3.971
G1 X-19.517 Y-3.349
G1 X-19.862 Y-2.702
G1 X-20.161 Y-2.032
G1 X-20.413 Y-1.344
G1 X-20.615 Y-0.640
G1 X-20.768 Y0.075
G1 X-20.871 Y0.800
G1 X-20.922 Y1.530
G1 X-20.923 Y2.261
G1 X-20.872 Y2.991
G1 X-20.770 Y3.715
G1 X-20.618 Y4.430
G1 X-20.417 Y5.133
G1 X-20.166 Y5.820
G1 X-19.868 Y6.489
G1 X-19.524 Y7.134
G1 X-19.136 Y7.755
G1 X-18.705 Y8.347
G1 X-18.234 Y8.908
G1 X-17.724 Y9.435
G1 X-17.179 Y9.925
G1 X-16.600 Y10.376
G1 X-15.991 Y10.787
G1 X-15.354 Y11.154
G1 X-14.693 Y11.476
G1 X-14.010 Y11.752
G1 X-13.310 Y11.980
G1 X-12.594 Y12.158
G1 X-11.868 Y12.287
G1 X-11.133 Y12.366
G1 X-10.394 Y12.393
G1 X-9.654 Y12.370
G1 X-8.917 Y12.295
G1 X-8.186 Y12.169
G1 X-7.465 Y11.993
G1 X-6.757 Y11.768
G1 X-6.065 Y11.495
G1 X-5.393 Y11.174
G1 X-4.744 Y10.807
G1 X-4.121 Y10.397
G1 X-3.528 Y9.944
G1 X-2.966 Y9.451
G1 X-2.439 Y8.921
G1 X-1.949 Y8.356
G1 X-1.498 Y7.757
G1 X-1.089 Y7.130
G1 X-0.724 Y6.475
G1 X-0.404 Y5.796
G1 X-0.130 Y5.097
G1 X0.095 Y4.381
G1 X0.271 Y3.651
G1 X0.397 Y2.910
G1 X0.472 Y2.162
G1 X0.496 Y1.411
G1 X0.470 Y0.659
G1 X0.392 Y-0.089
G1 X0.263 Y-0.830
G1 X0.084 Y-1.560
G1 X-0.144 Y-2.276
G1 X-0.420 Y-2.976
G1 X-0.742 Y-3.654
G1 X-1.111 Y-4.309
G1 X-1.522 Y-4.937
G1 X-1.975 Y-5.535
G1 X-2.468 Y-6.101
G1 X-2.998 Y-6.631
G1 X-3.563 Y-7.124
G1 X-4.159 Y-7.577
G1 X-4.784 Y-7.988
G1 X-5.436 Y-8.354
G1 X-6.111 Y-8.675
G1 X-6.805 Y-8.949
G1 X-7.516 Y-9.175
G1 X-8.240 Y-9.351
G1 X-8.974 Y-9.476
G1 X-9.714 Y-9.552
G1 X-10.456 Y-9.575
G1 X-11.198 Y-9.548
G1 X-11.936 Y-9.470
G1 X-12.665 Y-9.341
G1 X-13.383 Y-9.163
G1 X-14.087 Y-8.935
G1 X-14.772 Y-8.660
G1 X-15.436 Y-8.338
G1 X-16.076 Y-7.971
G1 X-16.688 Y-7.561
G1 X-17.270 Y-7.109
G1 X-17.818 Y-6.619
G1 X-18.331 Y-6.093
G1 X-18.805 Y-5.532
G1 X-19.239 Y-4.940
G1 X-19.630 Y-4.320
G1 X-19.977 Y-3.674
G1 X-20.278 Y-3.006
G1 X-20.531 Y-2.319
G1 X-20.736 Y-1.616
G1 X-20.891 Y-0.901
G1 X-20.996 Y-0.177
G1 X-21.049 Y0.552
G1 X-21.052 Y1.283
G1 X-21.003 Y2.013
G1 X-20.904 Y2.738
G1 X-20.754 Y3.453
G1 X-20.554 Y4.157
G1 X-20.306 Y4.845
G1 X-20.010 Y5.514
G1 X-19.668 Y6.162
G1 X-19.281 Y6.784
G1 X-18.852 Y7.377
G1 X-18.382 Y7.940
G1 X-17.874 Y8.469
G1 X-17.329 Y8.961
G1 X-16.752 Y9.415
G1 X-16.143 Y9.828
G1 X-15.507 Y10.198
G1 X-14.847 Y10.522
G1 X-14.164 Y10.801
G1 X-13.464 Y11.032
G1 X-12.748 Y11.213
G1 X-12.021 Y11.345
G1 X-11.286 Y11.427
G1 X-10.546 Y11.457
G1 X-9.805 Y11.436
G1 X-9.067 Y11.365
G1 X-8.335 Y11.242
G1 X-7.612 Y11.069
G1 X-6.902 Y10.847
G1 X-6.208 Y10.576
G1 X-5.534 Y10.258
G1 X-4.883 Y9.894
G1 X-4.257 Y9.486
G1 X-3.661 Y9.036
G1 X-3.096 Y8.545
G1 X-2.566 Y8.017
G1 X-2.073 Y7.453
G1 X-1.619 Y6.857
G1 X-1.206 Y6.231
G1 X-0.837 Y5.578
G1 X-0.513 Y4.900
G1 X-0.236 Y4.202
G1 X-0.007 Y3.487
G1 X0.173 Y2.757
G1 X0.303 Y2.017
G1 X0.382 Y1.269
G1 X0.411 Y0.518
G1 X0.388 Y-0.234
G1 X0.314 Y-0.982
G1 X0.189 Y-1.723
G1 X0.015 Y-2.455
G1 X-0.209 Y-3.172
G1 X-0.482 Y-3.872
G1 X-0.801 Y-4.552
G1 X-1.165 Y-5.209
G1 X-1.573 Y-5.839
G1 X-2.023 Y-6.439
G1 X-2.513 Y-7.007
G1 X-3.039 Y-7.539
G1 X-3.601 Y-8.034
G1 X-4.194 Y-8.490
G1 X-4.817 Y-8.903
G1 X-5.466 Y-9.273
G1 X-6.139 Y-9.597
G1 X-6.831 Y-9.874
G1 X-7.540 Y-10.102
G1 X-8.263 Y-10.281
G1 X-8.995 Y-10.410
G1 X-9.734 Y-10.488
G1 X-10.475 Y-10.515
G1 X-11.216 Y-10.491
G1 X-11.953 Y-10.416
G1 X-12.682 Y-10.291
G1 X-13.401 Y-10.115
G1 X-14.104 Y-9.890
G1 X-14.790 Y-9.618
G1 X-15.454 Y-9.299
G1 X-16.095 Y-8.935
G1 X-16.708 Y-8.527
G1 X-17.290 Y-8.079
G1 X-17.840 Y-7.591
G1 X-18.354 Y-7.066
G1 X-18.829 Y-6.508
G1 X-19.265 Y-5.918
G1 X-19.658 Y-5.299
G1 X-20.007 Y-4.655
G1 X-20.309 Y-3.988
G1 X-20.565 Y-3.302
G1 X-20.771 Y-2.600
G1 X-20.928 Y-1.886
G1 X-21.035 Y-1.162
G1 X-21.091 Y-0.433
G1 X-21.096 Y0.298
G1 X-21.049 Y1.028
G1 X-20.952 Y1.753
G1 X-20.804 Y2.469
G1 X-20.607 Y3.173
G1 X-20.360 Y3.863
G1 X-20.066 Y4.533
G1 X-19.726 Y5.182
G1 X-19.341 Y5.805
G1 X-18.913 Y6.401
G1 X-18.445 Y6.965
G1 X-17.938 Y7.496
G1 X-17.395 Y7.991
G1 X-16.818 Y8.447
G1 X-16.210 Y8.862
G1 X-15.575 Y9.235
G1 X-14.915 Y9.562
G1 X-14.233 Y9.844
G1 X-13.532 Y10.077
G1 X-12.816 Y10.262
G1 X-12.089 Y10.397
G1 X-11.353 Y10.481
G1 X-10.613 Y10.515
G1 X-9.871 Y10.497
G1 X-9.131 Y10.428
G1 X-8.398 Y10.309
G1 X-7.673 Y10.139
G1 X-6.961 Y9.920
G1 X-6.266 Y9.652
G1 X-5.589 Y9.336
G1 X-4.936 Y8.975
G1 X-4.308 Y8.570
G1 X-3.709 Y8.122
G1 X-3.141 Y7.634
G1 X-2.608 Y7.108
G1 X-2.111 Y6.546
G1 X-1.654 Y5.952
G1 X-1.238 Y5.328
G1 X-0.865 Y4.676
G1 X-0.537 Y4.000
G1 X-0.256 Y3.303
G1 X-0.023 Y2.589
G1 X0.161 Y1.860
G1 X0.295 Y1.120
G1 X0.378 Y0.373
G1 X0.410 Y-0.379
G1 X0.391 Y-1.130
G1 X0.322 Y-1.879
G1 X0.201 Y-2.621
G1 X0.030 Y-3.353
G1 X-0.190 Y-4.071
G1 X-0.458 Y-4.773
G1 X-0.774 Y-5.454
G1 X-1.134 Y-6.112
G1 X-1.539 Y-6.743
G1 X-1.985 Y-7.345
G1 X-2.472 Y-7.915
G1 X-2.995 Y-8.450
G1 X-3.554 Y-8.948
G1 X-4.145 Y-9.405
G1 X-4.765 Y-9.821
G1 X-5.411 Y-10.194
G1 X-6.081 Y-10.520
G1 X-6.772 Y-10.800
G1 X-7.479 Y-11.032
G1 X-8.200 Y-11.214
G1 X-8.931 Y-11.346
G1 X-9.668 Y-11.427
G1 X-10.409 Y-11.457
G1 X-11.149 Y-11.436
G1 X-11.885 Y-11.364
G1 X-12.614 Y-11.242
G1 X-13.332 Y-11.069
G1 X-14.036 Y-10.847
G1 X-14.722 Y-10.578
G1 X-15.387 Y-10.261
G1 X-16.027 Y-9.900
G1 X-16.641 Y-9.495
G1 X-17.225 Y-9.049
G1 X-17.775 Y-8.563
G1 X-18.291 Y-8.041
G1 X-18.768 Y-7.484
G1 X-19.205 Y-6.896
G1 X-19.600 Y-6.279
G1 X-19.950 Y-5.636
G1 X-20.255 Y-4.971
G1 X-20.512 Y-4.286
G1 X-20.721 Y-3.585
G1 X-20.880 Y-2.871
G1 X-20.989 Y-2.148
G1 X-21.047 Y-1.419
G1 X-21.054 Y-0.688
G1 X-21.009 Y0.042
G1 X-20.914 Y0.768
G1 X-20.769 Y1.485
G1 X-20.573 Y2.190
G1 X-20.329 Y2.880
G1 X-20.037 Y3.552
G1 X-19.698 Y4.202
G1 X-19.315 Y4.827
G1 X-18.889 Y5.425
G1 X-18.422 Y5.991
G1 X-17.916 Y6.524
G1 X-17.374 Y7.022
G1 X-16.798 Y7.480
G1 X-16.192 Y7.898
G1 X-15.557 Y8.273
G1 X-14.897 Y8.603
G1 X-14.215 Y8.888
G1 X-13.515 Y9.124
G1 X-12.799 Y9.312
G1 X-12.071 Y9.450
G1 X-11.335 Y9.538
G1 X-10.594 Y9.574
G1 X-9.851 Y9.560
G1 X-9.110 Y9.494
G1 X-8.375 Y9.378
G1 X-7.649 Y9.211
G1 X-6.936 Y8.995
G1 X-6.238 Y8.730
G1 X-5.559 Y8.417
G1 X-4.903 Y8.059
G1 X-4.273 Y7.656
G1 X-3.671 Y7.211
G1 X-3.100 Y6.725
G1 X-2.564 Y6.202
G1 X-2.064 Y5.642
G1 X-1.603 Y5.050
G1 X-1.184 Y4.427
G1 X-0.807 Y3.777
G1 X-0.476 Y3.103
G1 X-0.191 Y2.407
G1 X0.046 Y1.694
G1 X0.234 Y0.966
G1 X0.372 Y0.227
G1 X0.459 Y-0.520
G1 X0.495 Y-1.271
G1 X0.481 Y-2.023
G1 X0.415 Y-2.772
G1 X0.298 Y-3.514
G1 X0.131 Y-4.247
G1 X-0.085 Y-4.966
G1 X-0.349 Y-5.668
G1 X-0.661 Y-6.351
G1 X-1.018 Y-7.010
G1 X-1.419 Y-7.643
G1 X-1.862 Y-8.247
G1 X-2.345 Y-8.819
G1 X-2.866 Y-9.356
G1 X-3.421 Y-9.856
G1 X-4.009 Y-10.316
G1 X-4.627 Y-10.734
G1 X-5.271 Y-11.109
G1 X-5.939 Y-11.439
G1 X-6.627 Y-11.721
G1 X-7.332 Y-11.955
G1 X-8.051 Y-12.140
G1 X-8.781 Y-12.275
G1 X-9.517 Y-12.360
G1 X-10.257 Y-12.393
G1 X-10.996 Y-12.375
G1 X-11.732 Y-12.306
G1 X-12.460 Y-12.186
G1 X-13.178 Y-12.016
G1 X-13.882 Y-11.798
G1 X-14.568 Y-11.531
G1 X-15.233 Y-11.217
G1 X-15.875 Y-10.858
G1 X-16.489 Y-10.456
G1 X-17.074 Y-10.012
G1 X-17.626 Y-9.528
G1 X-18.142 Y-9.008
G1 X-18.621 Y-8.453
G1 X-19.059 Y-7.867
G1 X-19.456 Y-7.251
G1 X-19.808 Y-6.610
G1 X-20.115 Y-5.946
G1 X-20.374 Y-5.262
G1 X-20.585 Y-4.562
G1 X-20.746 Y-3.848
G1 X-20.857 Y-3.125
G1 X-20.917 Y-2.397
G1 X-20.926 Y-1.665
G1 X-20.884 Y-0.935
G1 X-20.791 Y-0.209
G1 X-20.647 Y0.509
G1 X-20.454 Y1.215
G1 X-20.212 Y1.906
G1 X-19.921 Y2.579
G1 X-19.585 Y3.231
G1 X-19.203 Y3.858
G1 X-18.779 Y4.457
G1 X-18.313 Y5.026
G1 X-17.809 Y5.561
G1 X-17.268 Y6.061
G1 X-16.693 Y6.522
G1 X-16.088 Y6.942
G1 X-15.454 Y7.320
G1 X-14.794 Y7.653
G1 X-14.113 Y7.941
G1 X-13.413 Y8.180
G1 X-12.697 Y8.371
G1 X-11.969 Y8.512
G1 X-11.232 Y8.603
G1 X-10.490 Y8.643
G1 X-9.746 Y8.632
G1 X-9.004 Y8.570
G1 X-8.268 Y8.456
G1 X-7.540 Y8.293
G1 X-6.825 Y8.080
G1 X-6.125 Y7.818
G1 X-5.444 Y7.508
G1 X-4.786 Y7.153
G1 X-4.153 Y6.753
G1 X-3.548 Y6.310
G1 X-2.975 Y5.827
G1 X-2.435 Y5.306
G1 X-1.932 Y4.749
G1 X-1.468 Y4.159
G1 X-1.045 Y3.538
G1 X-0.665 Y2.890
G1 X-0.330 Y2.217
G1 X-0.041 Y1.523
G1 X0.200 Y0.810
G1 X0.391 Y0.083
G1 X0.533 Y-0.655
G1 X0.625 Y-1.402
G1 X0.665 Y-2.152
G1 X0.654 Y-2.904
G1 X0.592 Y-3.653
G1 X0.480 Y-4.395
G1 X0.317 Y-5.128
G1 X0.105 Y-5.848
G1 X-0.156 Y-6.552
G1 X-0.464 Y-7.235
G1 X-0.817 Y-7.896
G1 X-1.215 Y-8.531
G1 X-1.655 Y-9.136
G1 X-2.134 Y-9.710
G1 X-2.652 Y-10.249
G1 X-3.204 Y-10.751
G1 X-3.789 Y-11.213
G1 X-4.404 Y-11.634
G1 X-5.046 Y-12.011
G1 X-5.712 Y-12.344
G1 X-6.398 Y-12.629
G1 X-7.101 Y-12.866
G1 X-7.819 Y-13.054
G1 X-8.547 Y-13.191
G1 X-9.282 Y-13.279
G1 X-10.020 Y-13.315
G1 X-10.759 Y-13.300
G1 X-11.494 Y-13.234
G1 X-12.222 Y-13.117
G1 X-12.940 Y-12.950
G1 X-13.643 Y-12.734
G1 X-14.330 Y-12.469
G1 X-14.995 Y-12.158
G1 X-15.638 Y-11.802
G1 X-16.253 Y-11.402
G1 X-16.838 Y-10.960
G1 X-17.391 Y-10.479
G1 X-17.909 Y-9.961
G1 X-18.389 Y-9.408
G1 X-18.829 Y-8.823
G1 X-19.228 Y-8.209
G1 X-19.582 Y-7.569
G1 X-19.890 Y-6.906
G1 X-20.151 Y-6.223
G1 X-20.364 Y-5.523
G1 X-20.527 Y-4.810
G1 X-20.641 Y-4.088
G1 X-20.703 Y-3.359
G1 X-20.714 Y-2.627
G1 X-20.674 Y-1.897
G1 X-20.583 Y-1.170
G1 X-20.442 Y-0.452
G1 X-20.251 Y0.255
G1 X-20.010 Y0.948
G1 X-19.722 Y1.623
G1 X-19.387 Y2.276
G1 X-19.008 Y2.905
G1 X-18.585 Y3.506
G1 X-18.121 Y4.077
G1 X-17.618 Y4.614
G1 X-17.078 Y5.116
G1 X-16.504 Y5.580
G1 X-15.900 Y6.003
G1 X-15.266 Y6.384
G1 X-14.608 Y6.720
G1 X-13.926 Y7.011
G1 X-13.226 Y7.253
G1 X-12.510 Y7.447
G1 X-11.782 Y7.592
G1 X-11.045 Y7.686
G1 X-10.302 Y7.729
G1 X-9.557 Y7.721
G1 X-8.814 Y7.662
G1 X-8.076 Y7.553
G1 X-7.347 Y7.392
G1 X-6.630 Y7.182
G1 X-5.928 Y6.923
G1 X-5.246 Y6.617
G1 X-4.585 Y6.265
G1 X-3.949 Y5.868
G1 X-3.342 Y5.428
G1 X-2.765 Y4.948
G1 X-2.223 Y4.429
G1 X-1.717 Y3.874
G1 X-1.249 Y3.286
G1 X-0.823 Y2.667
G1 X-0.439 Y2.021
G1 X-0.100 Y1.349
G1 X0.192 Y0.657
G1 X0.437 Y-0.054
G1 X0.632 Y-0.780
G1 X0.778 Y-1.518
G1 X0.873 Y-2.264
G1 X0.918 Y-3.014
G1 X0.911 Y-3.765
G1 X0.853 Y-4.514
G1 X0.745 Y-5.257
G1 X0.586 Y-5.991
G1 X0.377 Y-6.711
G1 X0.120 Y-7.415
G1 X-0.184 Y-8.100
G1 X-0.534 Y-8.762
G1 X-0.928 Y-9.398
G1 X-1.364 Y-10.005
G1 X-1.840 Y-10.580
G1 X-2.354 Y-11.121
G1 X-2.904 Y-11.625
G1 X-3.486 Y-12.090
G1 X-4.099 Y-12.513
G1 X-4.738 Y-12.893
G1 X-5.401 Y-13.228
G1 X-6.085 Y-13.515
G1 X-6.787 Y-13.755
G1 X-7.503 Y-13.946
G1 X-8.229 Y-14.086
G1 X-8.963 Y-14.176
G1 X-9.701 Y-14.215
G1 X-10.438 Y-14.203
G1 X-11.173 Y-14.140
G1 X-11.901 Y-14.026
G1 X-12.618 Y-13.862
G1 X-13.322 Y-13.648
G1 X-14.008 Y-13.386
G1 X-14.675 Y-13.078
G1 X-15.317 Y-12.724
G1 X-15.934 Y-12.326
G1 X-16.520 Y-11.887
G1 X-17.074 Y-11.407
G1 X-17.593 Y-10.891
G1 X-18.075 Y-10.340
G1 X-18.517 Y-9.757
G1 X-18.916 Y-9.144
G1 X-19.272 Y-8.505
G1 X-19.583 Y-7.843
G1 X-19.846 Y-7.161
G1 X-20.061 Y-6.462
G1 X-20.226 Y-5.749
G1 X-20.342 Y-5.027
G1 X-20.406 Y-4.298
G1 X-20.420 Y-3.567
G1 X-20.382 Y-2.835
G1 X-20.293 Y-2.108
G1 X-20.154 Y-1.389
G1 X-19.965 Y-0.681
G1 X-19.726 Y0.013
G1 X-19.440 Y0.689
G1 X-19.107 Y1.344
G1 X-18.729 Y1.975
G1 X-18.308 Y2.578
G1 X-17.846 Y3.151
G1 X-17.344 Y3.691
G1 X-16.806 Y4.196
G1 X-16.233 Y4.662
G1 X-15.629 Y5.088
G1 X-14.997 Y5.472
G1 X-14.338 Y5.811
G1 X-13.658 Y6.105
G1 X-12.958 Y6.351
G1 X-12.242 Y6.548
G1 X-11.513 Y6.696
G1 X-10.775 Y6.794
G1 X-10.032 Y6.840
G1 X-9.287 Y6.836
G1 X-8.543 Y6.780
G1 X-7.803 Y6.674
G1 X-7.073 Y6.517
G1 X-6.354 Y6.310
G1 X-5.650 Y6.055
G1 X-4.965 Y5.751
G1 X-4.302 Y5.402
G1 X-3.664 Y5.008
G1 X-3.054 Y4.571
G1 X-2.475 Y4.093
G1 X-1.929 Y3.577
G1 X-1.420 Y3.025
G1 X-0.949 Y2.439
G1 X-0.519 Y1.822
G1 X-0.132 Y1.178
G1 X0.210 Y0.508
G1 X0.507 Y-0.183
G1 X0.755 Y-0.893
G1 X0.954 Y-1.617
G1 X1.104 Y-2.354
G1 X1.204 Y-3.099
G1 X1.252 Y-3.849
G1 X1.249 Y-4.600
G1 X1.195 Y-5.349
G1 X1.091 Y-6.092
G1 X0.936 Y-6.826
G1 X0.731 Y-7.547
G1 X0.478 Y-8.252
G1 X0.178 Y-8.937
G1 X-0.169 Y-9.600
G1 X-0.559 Y-10.238
G1 X-0.992 Y-10.846
G1 X-1.465 Y-11.423
G1 X-1.976 Y-11.966
G1 X-2.523 Y-12.472
G1 X-3.103 Y-12.939
G1 X-3.712 Y-13.364
G1 X-4.349 Y-13.746
G1 X-5.010 Y-14.083
G1 X-5.692 Y-14.374
G1 X-6.392 Y-14.616
G1 X-7.106 Y-14.809
G1 X-7.831 Y-14.952
G1 X-8.564 Y-15.045
G1 X-9.300 Y-15.087
G1 X-10.037 Y-15.077
G1 X-10.771 Y-15.017
G1 X-11.499 Y-14.905
G1 X-12.216 Y-14.744
G1 X-12.920 Y-14.533
G1 X-13.607 Y-14.274
G1 X-14.273 Y-13.968
G1 X-14.917 Y-13.616
G1 X-15.534 Y-13.221
G1 X-16.121 Y-12.783
G1 X-16.677 Y-12.306
G1 X-17.197 Y-11.792
G1 X-17.680 Y-11.242
G1 X-18.123 Y-10.660
G1 X-18.525 Y-10.049
G1 X-18.883 Y-9.411
G1 X-19.195 Y-8.750
G1 X-19.460 Y-8.069
G1 X-19.677 Y-7.370
G1 X-19.845 Y-6.658
G1 X-19.962 Y-5.936
G1 X-20.029 Y-5.207
G1 X-20.045 Y-4.475
G1 X-20.009 Y-3.743
G1 X-19.923 Y-3.016
G1 X-19.786 Y-2.295
G1 X-19.599 Y-1.586
G1 X-19.362 Y-0.890
G1 X-19.078 Y-0.213
G1 X-18.747 Y0.444
G1 X-18.371 Y1.076
G1 X-17.952 Y1.682
G1 X-17.491 Y2.257
G1 X-16.991 Y2.800
G1 X-16.454 Y3.307
G1 X-15.882 Y3.776
G1 X-15.279 Y4.205
G1 X-14.647 Y4.592
G1 X-13.990 Y4.934
G1 X-13.310 Y5.231
G1 X-12.610 Y5.480
G1 X-11.894 Y5.681
G1 X-11.165 Y5.832
G1 X-10.427 Y5.933
G1 X-9.683 Y5.983
G1 X-8.937 Y5.982
G1 X-8.192 Y5.930
G1 X-7.451 Y5.827
G1 X-6.719 Y5.674
G1 X-5.998 Y5.470
G1 X-5.293 Y5.218
G1 X-4.606 Y4.918
G1 X-3.940 Y4.572
G1 X-3.300 Y4.181
G1 X-2.687 Y3.747
G1 X-2.105 Y3.272
G1 X-1.557 Y2.759
G1 X-1.044 Y2.209
G1 X-0.570 Y1.625
G1 X-0.137 Y1.011
G1 X0.254 Y0.368
G1 X0.600 Y-0.299
G1 X0.900 Y-0.989
G1 X1.152 Y-1.697
G1 X1.355 Y-2.421
G1 X1.509 Y-3.156
G1 X1.612 Y-3.900
G1 X1.664 Y-4.650
G1 X1.666 Y-5.400
G1 X1.616 Y-6.149
G1 X1.515 Y-6.892
G1 X1.364 Y-7.626
G1 X1.163 Y-8.348
G1 X0.914 Y-9.053
G1 X0.617 Y-9.740
G1 X0.274 Y-10.404
G1 X-0.113 Y-11.042
G1 X-0.542 Y-11.652
G1 X-1.012 Y-12.231
G1 X-1.520 Y-12.775
G1 X-2.064 Y-13.283
G1 X-2.641 Y-13.752
G1 X-3.248 Y-14.180
G1 X-3.882 Y-14.564
G1 X-4.541 Y-14.903
G1 X-5.221 Y-15.196
G1 X-5.919 Y-15.441
G1 X-6.632 Y-15.637
G1 X-7.355 Y-15.783
G1 X-8.087 Y-15.878
G1 X-8.822 Y-15.922
G1 X-9.559 Y-15.916
G1 X-10.292 Y-15.858
G1 X-11.019 Y-15.749
G1 X-11.736 Y-15.590
G1 X-12.440 Y-15.382
G1 X-13.127 Y-15.125
G1 X-13.794 Y-14.821
G1 X-14.438 Y-14.472
G1 X-15.056 Y-14.079
G1 X-15.645 Y-13.643
G1 X-16.201 Y-13.168
G1 X-16.723 Y-12.655
G1 X-17.208 Y-12.107
G1 X-17.653 Y-11.527
G1 X-18.056 Y-10.917
G1 X-18.416 Y-10.280
G1 X-18.730 Y-9.620
G1 X-18.997 Y-8.939
G1 X-19.216 Y-8.241
G1 X-19.386 Y-7.529
G1 X-19.506 Y-6.807
G1 X-19.575 Y-6.078
G1 X-19.593 Y-5.346
G1 X-19.560 Y-4.614
G1 X-19.476 Y-3.885
G1 X-19.341 Y-3.164
G1 X-19.156 Y-2.453
G1 X-18.922 Y-1.756
G1 X-18.639 Y-1.077
G1 X-18.310 Y-0.419
G1 X-17.936 Y0.216
G1 X-17.518 Y0.824
G1 X-17.059 Y1.401
G1 X-16.561 Y1.946
G1 X-16.025 Y2.456
G1 X-15.455 Y2.928
G1 X-14.853 Y3.360
G1 X-14.222 Y3.750
G1 X-13.565 Y4.095
G1 X-12.885 Y4.395
G1 X-12.186 Y4.648
G1 X-11.470 Y4.852
G1 X-10.741 Y5.007
G1 X-10.002 Y5.112
G1 X-9.258 Y5.165
G1 X-8.511 Y5.168
G1 X-7.764 Y5.119
G1 X-7.023 Y5.020
G1 X-6.289 Y4.870
G1 X-5.567 Y4.670
G1 X-4.860 Y4.421
G1 X-4.171 Y4.125
G1 X-3.503 Y3.782
G1 X-2.860 Y3.394
G1 X-2.245 Y2.963
G1 X-1.660 Y2.491
G1 X-1.109 Y1.980
G1 X-0.593 Y1.433
G1 X-0.116 Y0.852
G1 X0.321 Y0.240
G1 X0.715 Y-0.400
G1 X1.064 Y-1.066
G1 X1.368 Y-1.754
G1 X1.624 Y-2.461
G1 X1.831 Y-3.183
G1 X1.988 Y-3.918
G1 X2.096 Y-4.661
G1 X2.152 Y-5.409
G1 X2.157 Y-6.160
G1 X2.111 Y-6.908
G1 X2.014 Y-7.651
G1 X1.867 Y-8.385
G1 X1.670 Y-9.107
G1 X1.424 Y-9.813
G1 X1.131 Y-10.501
G1 X0.792 Y-11.166
G1 X0.408 Y-11.805
G1 X-0.018 Y-12.416
G1 X-0.485 Y-12.997
G1 X-0.990 Y-13.543
G1 X-1.530 Y-14.052
G1 X-2.105 Y-14.523
G1 X-2.709 Y-14.953
G1 X-3.341 Y-15.339
G1 X-3.998 Y-15.681
G1 X-4.676 Y-15.976
G1 X-5.372 Y-16.223
G1 X-6.083 Y-16.422
G1 X-6.805 Y-16.570
G1 X-7.536 Y-16.668
G1 X-8.270 Y-16.715
G1 X-9.006 Y-16.711
G1 X-9.739 Y-16.655
G1 X-10.465 Y-16.549
G1 X-11.182 Y-16.393
G1 X-11.886 Y-16.187
G1 X-12.574 Y-15.933
G1 X-13.242 Y-15.631
G1 X-13.886 Y-15.284
G1 X-14.505 Y-14.893
G1 X-15.095 Y-14.459
G1 X-15.652 Y-13.986
G1 X-16.176 Y-13.475
G1 X-16.662 Y-12.929
G1 X-17.108 Y-12.350
G1 X-17.513 Y-11.741
G1 X-17.875 Y-11.105
G1 X-18.191 Y-10.446
G1 X-18.461 Y-9.765
G1 X-18.682 Y-9.068
G1 X-18.854 Y-8.356
G1 X-18.976 Y-7.634
G1 X-19.047 Y-6.905
G1 X-19.068 Y-6.172
G1 X-19.037 Y-5.439
G1 X-18.955 Y-4.710
G1 X-18.822 Y-3.987
G1 X-18.640 Y-3.275
G1 X-18.408 Y-2.577
G1 X-18.128 Y-1.896
G1 X-17.801 Y-1.236
G1 X-17.428 Y-0.599
G1 X-17.012 Y0.010
G1 X-16.555 Y0.591
G1 X-16.058 Y1.138
G1 X-15.523 Y1.651
G1 X-14.954 Y2.126
G1 X-14.354 Y2.561
G1 X-13.724 Y2.953
G1 X-13.067 Y3.302
G1 X-12.388 Y3.606
G1 X-11.689 Y3.862
G1 X-10.973 Y4.070
G1 X-10.244 Y4.228
G1 X-9.505 Y4.336
G1 X-8.760 Y4.393
G1 X-8.012 Y4.400
G1 X-7.265 Y4.355
G1 X-6.523 Y4.259
G1 X-5.788 Y4.113
G1 X-5.064 Y3.916
G1 X-4.355 Y3.671
G1 X-3.664 Y3.378
G1 X-2.994 Y3.038
G1 X-2.349 Y2.653
G1 X-1.731 Y2.226
G1 X-1.143 Y1.757
G1 X-0.589 Y1.249
G1 X-0.071 Y0.704
G1 X0.410 Y0.126
G1 X0.850 Y-0.484
G1 X1.247 Y-1.122
G1 X1.600 Y-1.786
G1 X1.907 Y-2.472
G1 X2.167 Y-3.177
G1 X2.378 Y-3.898
G1 X2.539 Y-4.631
G1 X2.650 Y-5.374
G1 X2.710 Y-6.121
G1 X2.719 Y-6.871
G1 X2.677 Y-7.619
G1 X2.584 Y-8.362
G1 X2.440 Y-9.096
G1 X2.247 Y-9.818
G1 X2.005 Y-10.525
G1 X1.716 Y-11.213
G1 X1.380 Y-11.879
G1 X1.000 Y-12.520
G1 X0.577 Y-13.132
G1 X0.113 Y-13.714
G1 X-0.389 Y-14.261
G1 X-0.927 Y-14.773
G1 X-1.498 Y-15.245
G1 X-2.100 Y-15.677
G1 X-2.730 Y-16.065
G1 X-3.384 Y-16.409
G1 X-4.060 Y-16.707
G1 X-4.755 Y-16.956
G1 X-5.464 Y-17.157
G1 X-6.185 Y-17.308
G1 X-6.914 Y-17.408
G1 X-7.648 Y-17.458
G1 X-8.383 Y-17.456
G1 X-9.115 Y-17.403
G1 X-9.842 Y-17.300
G1 X-10.559 Y-17.146
G1 X-11.263 Y-16.942
G1 X-11.951 Y-16.690
G1 X-12.619 Y-16.391
G1 X-13.264 Y-16.046
G1 X-13.884 Y-15.657
G1 X-14.475 Y-15.225
G1 X-15.034 Y-14.754
G1 X-15.558 Y-14.244
G1 X-16.046 Y-13.699
G1 X-16.494 Y-13.122
G1 X-16.901 Y-12.514
G1 X-17.265 Y-11.879
G1 X-17.583 Y-11.221
G1 X-17.855 Y-10.541
G1 X-18.078 Y-9.844
G1 X-18.253 Y-9.133
G1 X-18.377 Y-8.410
G1 X-18.451 Y-7.681
G1 X-18.473 Y-6.948
G1 X-18.445 Y-6.214
G1 X-18.365 Y-5.484
G1 X-18.235 Y-4.760
G1 X-18.055 Y-4.047
G1 X-17.825 Y-3.347
G1 X-17.547 Y-2.665
G1 X-17.222 Y-2.002
G1 X-16.852 Y-1.363
G1 X-16.438 Y-0.751
G1 X-15.982 Y-0.169
G1 X-15.486 Y0.382
G1 X-14.954 Y0.897
G1 X-14.386 Y1.375
G1 X-13.786 Y1.813
G1 X-13.157 Y2.209
G1 X-12.502 Y2.561
G1 X-11.823 Y2.868
G1 X-11.124 Y3.128
G1 X-10.409 Y3.339
G1 X-9.680 Y3.501
G1 X-8.941 Y3.613
G1 X-8.195 Y3.674
G1 X-7.447 Y3.684
G1 X-6.699 Y3.643
G1 X-5.955 Y3.550
G1 X-5.219 Y3.408
G1 X-4.493 Y3.215
G1 X-3.783 Y2.973
G1 X-3.090 Y2.684
G1 X-2.418 Y2.347
G1 X-1.770 Y1.966
G1 X-1.150 Y1.541
G1 X-0.560 Y1.075
G1 X-0.003 Y0.570
G1 X0.519 Y0.029
G1 X1.002 Y-0.547
G1 X1.445 Y-1.155
G1 X1.846 Y-1.791
G1 X2.203 Y-2.452
G1 X2.513 Y-3.136
G1 X2.776 Y-3.840
G1 X2.991 Y-4.559
G1 X3.156 Y-5.291
G1 X3.271 Y-6.032
G1 X3.335 Y-6.779
G1 X3.348 Y-7.528
G1 X3.309 Y-8.276
G1 X3.220 Y-9.019
G1 X3.080 Y-9.753
G1 X2.891 Y-10.475
G1 X2.652 Y-11.182
G1 X2.366 Y-11.871
G1 X2.034 Y-12.537
G1 X1.657 Y-13.179
G1 X1.238 Y-13.793
G1 X0.777 Y-14.376
G1 X0.278 Y-14.925
G1 X-0.257 Y-15.438
G1 X-0.826 Y-15.912
G1 X-1.425 Y-16.346
G1 X-2.053 Y-16.736
G1 X-2.705 Y-17.082
G1 X-3.379 Y-17.382
G1 X-4.072 Y-17.634
G1 X-4.780 Y-17.837
G1 X-5.500 Y-17.990
G1 X-6.228 Y-18.093
G1 X-6.961 Y-18.145
G1 X-7.695 Y-18.146
G1 X-8.427 Y-18.096
G1 X-9.153 Y-17.994
G1 X-9.870 Y-17.843
G1 X-10.574 Y-17.642
G1 X-11.262 Y-17.392
G1 X-11.931 Y-17.095
G1 X-12.578 Y-16.752
G1 X-13.198 Y-16.365
G1 X-13.790 Y-15.935
G1 X-14.350 Y-15.465
G1 X-14.877 Y-14.957
G1 X-15.366 Y-14.414
G1 X-15.816 Y-13.837
G1 X-16.225 Y-13.231
G1 X-16.590 Y-12.597
G1 X-16.911 Y-11.939
G1 X-17.185 Y-11.260
G1 X-17.410 Y-10.563
G1 X-17.587 Y-9.852
G1 X-17.714 Y-9.130
G1 X-17.790 Y-8.400
G1 X-17.815 Y-7.666
G1 X-17.789 Y-6.932
G1 X-17.712 Y-6.200
G1 X-17.584 Y-5.476
G1 X-17.406 Y-4.761
G1 X-17.178 Y-4.060
G1 X-16.903 Y-3.375
G1 X-16.580 Y-2.711
G1 X-16.212 Y-2.070
G1 X-15.799 Y-1.455
G1 X-15.345 Y-0.870
G1 X-14.852 Y-0.317
G1 X-14.320 Y0.201
G1 X-13.754 Y0.682
G1 X-13.156 Y1.123
G1 X-12.528 Y1.522
G1 X-11.873 Y1.878
G1 X-11.195 Y2.188
G1 X-10.497 Y2.451
G1 X-9.781 Y2.666
G1 X-9.052 Y2.832
G1 X-8.313 Y2.948
G1 X-7.567 Y3.012
G1 X-6.818 Y3.026
G1 X-6.070 Y2.989
G1 X-5.325 Y2.900
G1 X-4.587 Y2.761
G1 X-3.861 Y2.572
G1 X-3.148 Y2.334
G1 X-2.453 Y2.048
G1 X-1.780 Y1.715
G1 X-1.130 Y1.337
G1 X-0.507 Y0.916
G1 X0.086 Y0.453
G1 X0.645 Y-0.049
G1 X1.170 Y-0.588
G1 X1.656 Y-1.161
G1 X2.103 Y-1.766
G1 X2.507 Y-2.400
G1 X2.867 Y-3.059
G1 X3.181 Y-3.741
G1 X3.447 Y-4.443
G1 X3.666 Y-5.161
G1 X3.834 Y-5.891
G1 X3.953 Y-6.631
G1 X4.020 Y-7.377
G1 X4.037 Y-8.126
G1 X4.002 Y-8.873
G1 X3.917 Y-9.615
G1 X3.781 Y-10.349
G1 X3.595 Y-11.072
G1 X3.360 Y-11.779
G1 X3.078 Y-12.468
G1 X2.749 Y-13.136
G1 X2.375 Y-13.778
G1 X1.959 Y-14.393
G1 X1.501 Y-14.977
G1 X1.005 Y-15.528
G1 X0.473 Y-16.042
G1 X-0.093 Y-16.518
G1 X-0.690 Y-16.954
G1 X-1.316 Y-17.346
G1 X-1.966 Y-17.694
G1 X-2.638 Y-17.996
G1 X-3.329 Y-18.250
G1 X-4.036 Y-18.456
G1 X-4.754 Y-18.611
G1 X-5.481 Y-18.717
G1 X-6.213 Y-18.771
G1 X-6.947 Y-18.774
G1 X-7.678 Y-18.726
G1 X-8.404 Y-18.627
G1 X-9.122 Y-18.478
G1 X-9.826 Y-18.279
G1 X-10.515 Y-18.032
G1 X-11.184 Y-17.737
G1 X-11.831 Y-17.396
G1 X-12.453 Y-17.011
G1 X-13.046 Y-16.583
G1 X-13.608 Y-16.115
G1 X-14.135 Y-15.608
G1 X-14.626 Y-15.066
G1 X-15.078 Y-14.491
G1 X-15.489 Y-13.885
G1 X-15.857 Y-13.252
G1 X-16.179 Y-12.595
G1 X-16.455 Y-11.916
G1 X-16.683 Y-11.220
G1 X-16.863 Y-10.509
G1 X-16.992 Y-9.786
G1 X-17.070 Y-9.056
G1 X-17.098 Y-8.322
G1 X-17.074 Y-7.587
G1 X-17.000 Y-6.854
G1 X-16.874 Y-6.128
G1 X-16.699 Y-5.412
G1 X-16.474 Y-4.709
G1 X-16.200 Y-4.023
G1 X-15.880 Y-3.357
G1 X-15.513 Y-2.714
G1 X-15.103 Y-2.097
G1 X-14.651 Y-1.509
G1 X-14.159 Y-0.953
G1 X-13.629 Y-0.432
G1 X-13.065 Y0.052
G1 X-12.467 Y0.496
G1 X-11.840 Y0.899
G1 X-11.187 Y1.258
G1 X-10.509 Y1.572
G1 X-9.812 Y1.839
G1 X-9.097 Y2.057
G1 X-8.368 Y2.227
G1 X-7.629 Y2.346
G1 X-6.882 Y2.415
G1 X-6.133 Y2.432
G1 X-5.383 Y2.399
G1 X-4.638 Y2.314
G1 X-3.899 Y2.179
G1 X-3.171 Y1.994
G1 X-2.457 Y1.759
G1 X-1.761 Y1.477
G1 X-1.085 Y1.147
G1 X-0.433 Y0.773
G1 X0.192 Y0.355
G1 X0.787 Y-0.105
G1 X1.350 Y-0.604
G1 X1.877 Y-1.140
G1 X2.367 Y-1.710
G1 X2.816 Y-2.313
G1 X3.223 Y-2.944
G1 X3.586 Y-3.601
G1 X3.904 Y-4.281
G1 X4.174 Y-4.981
G1 X4.396 Y-5.697
G1 X4.568 Y-6.427
G1 X4.690 Y-7.165
G1 X4.762 Y-7.910
G1 X4.782 Y-8.658
G1 X4.751 Y-9.404
G1 X4.669 Y-10.146
G1 X4.536 Y-10.880
G1 X4.354 Y-11.603
G1 X4.123 Y-12.311
G1 X3.844 Y-13.000
G1 X3.518 Y-13.668
G1 X3.148 Y-14.312
G1 X2.735 Y-14.928
G1 X2.280 Y-15.513
G1 X1.787 Y-16.065
G1 X1.257 Y-16.581
G1 X0.694 Y-17.058
G1 X0.099 Y-17.496
G1 X-0.524 Y-17.890
G1 X-1.172 Y-18.240
G1 X-1.843 Y-18.544
G1 X-2.532 Y-18.800
G1 X-3.237 Y-19.008
G1 X-3.955 Y-19.166
G1 X-4.681 Y-19.274
G1 X-5.412 Y-19.330
G1 X-6.145 Y-19.336
G1 X-6.876 Y-19.290
G1 X-7.602 Y-19.194
G1 X-8.319 Y-19.047
G1 X-9.024 Y-18.850
G1 X-9.713 Y-18.605
G1 X-10.384 Y-18.312
G1 X-11.032 Y-17.973
G1 X-11.654 Y-17.589
G1 X-12.249 Y-17.163
G1 X-12.812 Y-16.697
G1 X-13.341 Y-16.192
G1 X-13.834 Y-15.651
G1 X-14.287 Y-15.077
G1 X-14.700 Y-14.473
G1 X-15.070 Y-13.840
G1 X-15.395 Y-13.184
G1 X-15.673 Y-12.506
G1 X-15.904 Y-11.809
G1 X-16.085 Y-11.098
G1 X-16.217 Y-10.375
G1 X-16.298 Y-9.645
G1 X-16.328 Y-8.910
G1 X-16.307 Y-8.174
G1 X-16.235 Y-7.441
G1 X-16.112 Y-6.713
G1 X-15.939 Y-5.996
G1 X-15.716 Y-5.291
G1 X-15.445 Y-4.603
G1 X-15.127 Y-3.935
G1 X-14.763 Y-3.289
G1 X-14.355 Y-2.670
G1 X-13.905 Y-2.079
G1 X-13.414 Y-1.521
G1 X-12.886 Y-0.997
G1 X-12.323 Y-0.510
G1 X-11.727 Y-0.062
G1 X-11.101 Y0.344
G1 X-10.449 Y0.706
G1 X-9.772 Y1.024
G1 X-9.075 Y1.294
G1 X-8.361 Y1.517
G1 X-7.632 Y1.690
G1 X-6.893 Y1.813
G1 X-6.146 Y1.885
G1 X-5.396 Y1.907
G1 X-4.646 Y1.877
G1 X-3.900 Y1.796
G1 X-3.160 Y1.665
G1 X-2.431 Y1.484
G1 X-1.716 Y1.253
G1 X-1.017 Y0.974
G1 X-0.340 Y0.648
G1 X0.314 Y0.277
G1 X0.942 Y-0.137
G1 X1.539 Y-0.594
G1 X2.104 Y-1.090
G1 X2.634 Y-1.623
G1 X3.127 Y-2.190
G1 X3.579 Y-2.790
G1 X3.989 Y-3.419
G1 X4.356 Y-4.074
G1 X4.677 Y-4.752
G1 X4.950 Y-5.450
G1 X5.176 Y-6.164
G1 X5.351 Y-6.892
G1 X5.477 Y-7.630
G1 X5.552 Y-8.373
G1 X5.576 Y-9.120
G1 X5.548 Y-9.866
G1 X5.470 Y-10.608
G1 X5.341 Y-11.341
G1 X5.162 Y-12.064
G1 X4.935 Y-12.772
G1 X4.659 Y-13.462
G1 X4.337 Y-14.130
G1 X3.970 Y-14.775
G1 X3.559 Y-15.391
G1 X3.108 Y-15.978
G1 X2.617 Y-16.531
G1 X2.090 Y-17.049
G1 X1.529 Y-17.528
G1 X0.937 Y-17.967
G1 X0.316 Y-18.363
G1 X-0.331 Y-18.715
G1 X-0.999 Y-19.021
G1 X-1.687 Y-19.279
G1 X-2.391 Y-19.489
G1 X-3.107 Y-19.649
G1 X-3.832 Y-19.759
G1 X-4.563 Y-19.818
G1 X-5.295 Y-19.826
G1 X-6.026 Y-19.783
G1 X-6.752 Y-19.688
G1 X-7.469 Y-19.544
G1 X-8.175 Y-19.349
G1 X-8.864 Y-19.106
G1 X-9.535 Y-18.815
G1 X-10.184 Y-18.478
G1 X-10.808 Y-18.097
G1 X-11.404 Y-17.672
G1 X-11.968 Y-17.207
G1 X-12.499 Y-16.704
G1 X-12.994 Y-16.164
G1 X-13.450 Y-15.592
G1 X-13.864 Y-14.988
G1 X-14.236 Y-14.357
G1 X-14.563 Y-13.700
G1 X-14.844 Y-13.023
G1 X-15.077 Y-12.326
G1 X-15.261 Y-11.615
G1 X-15.395 Y-10.892
G1 X-15.479 Y-10.161
G1 X-15.512 Y-9.426
G1 X-15.494 Y-8.689
G1 X-15.424 Y-7.955
G1 X-15.304 Y-7.226
G1 X-15.133 Y-6.507
G1 X-14.913 Y-5.801
G1 X-14.644 Y-5.111
G1 X-14.329 Y-4.440
G1 X-13.967 Y-3.793
G1 X-13.561 Y-3.171
G1 X-13.113 Y-2.578
G1 X-12.624 Y-2.016
G1 X-12.098 Y-1.489
G1 X-11.536 Y-0.999
G1 X-10.942 Y-0.548
G1 X-10.317 Y-0.139
G1 X-9.666 Y0.227
G1 X-8.990 Y0.548
G1 X-8.294 Y0.823
G1 X-7.580 Y1.049
G1 X-6.851 Y1.226
G1 X-6.112 Y1.353
G1 X-5.366 Y1.429
G1 X-4.616 Y1.455
G1 X-3.865 Y1.429
G1 X-3.118 Y1.352
G1 X-2.377 Y1.225
G1 X-1.647 Y1.047
G1 X-0.930 Y0.820
G1 X-0.230 Y0.545
G1 X0.449 Y0.223
G1 X1.105 Y-0.145
G1 X1.735 Y-0.556
G1 X2.335 Y-1.009
G1 X2.902 Y-1.502
G1 X3.435 Y-2.032
G1 X3.930 Y-2.597
G1 X4.385 Y-3.193
G1 X4.799 Y-3.820
G1 X5.168 Y-4.472
G1 X5.492 Y-5.148
G1 X5.769 Y-5.844
G1 X5.998 Y-6.557
G1 X6.177 Y-7.283
G1 X6.307 Y-8.020
G1 X6.385 Y-8.762
G1 X6.412 Y-9.508
G1 X6.389 Y-10.253
G1 X6.314 Y-10.994
G1 X6.188 Y-11.728
G1 X6.013 Y-12.450
G1 X5.789 Y-13.159
G1 X5.516 Y-13.849
G1 X5.197 Y-14.518
G1 X4.833 Y-15.163
G1 X4.426 Y-15.781
G1 X3.977 Y-16.368
G1 X3.489 Y-16.923
G1 X2.965 Y-17.441
G1 X2.406 Y-17.922
G1 X1.816 Y-18.363
G1 X1.197 Y-18.761
G1 X0.553 Y-19.115
G1 X-0.114 Y-19.423
G1 X-0.801 Y-19.683
G1 X-1.503 Y-19.895
G1 X-2.218 Y-20.058
G1 X-2.943 Y-20.170
G1 X-3.672 Y-20.231
G1 X-4.405 Y-20.241
G1 X-5.135 Y-20.200
G1 X-5.861 Y-20.108
G1 X-6.579 Y-19.965
G1 X-7.284 Y-19.773
G1 X-7.975 Y-19.532
G1 X-8.646 Y-19.243
G1 X-9.296 Y-18.908
G1 X-9.921 Y-18.528
G1 X-10.518 Y-18.106
G1 X-11.085 Y-17.642
G1 X-11.617 Y-17.140
G1 X-12.114 Y-16.602
G1 X-12.571 Y-16.030
G1 X-12.988 Y-15.427
G1 X-13.363 Y-14.797
G1 X-13.692 Y-14.141
G1 X-13.975 Y-13.464
G1 X-14.211 Y-12.768
G1 X-14.397 Y-12.057
G1 X-14.534 Y-11.334
G1 X-14.621 Y-10.602
G1 X-14.656 Y-9.866
G1 X-14.641 Y-9.128
G1 X-14.574 Y-8.393
G1 X-14.456 Y-7.663
G1 X-14.288 Y-6.942
G1 X-14.071 Y-6.234
G1 X-13.805 Y-5.542
G1 X-13.491 Y-4.870
G1 X-13.132 Y-4.219
G1 X-12.728 Y-3.595
G1 X-12.282 Y-2.999
G1 X-11.796 Y-2.435
G1 X-11.271 Y-1.905
G1 X-10.711 Y-1.412
G1 X-10.118 Y-0.958
G1 X-9.495 Y-0.545
G1 X-8.845 Y-0.175
G1 X-8.170 Y0.150
G1 X-7.474 Y0.427
G1 X-6.761 Y0.657
G1 X-6.033 Y0.838
G1 X-5.294 Y0.969
G1 X-4.548 Y1.050
G1 X-3.797 Y1.079
G1 X-3.046 Y1.057
G1 X-2.298 Y0.984
G1 X-1.556 Y0.861
G1 X-0.825 Y0.687
G1 X-0.107 Y0.464
G1 X0.594 Y0.193
G1 X1.276 Y-0.126
G1 X1.933 Y-0.490
G1 X2.565 Y-0.898
G1 X3.167 Y-1.347
G1 X3.737 Y-1.837
G1 X4.272 Y-2.364
G1 X4.770 Y-2.926
G1 X5.228 Y-3.520
G1 X5.645 Y-4.143
G1 X6.017 Y-4.794
G1 X6.344 Y-5.467
G1 X6.625 Y-6.161
G1 X6.857 Y-6.872
G1 X7.039 Y-7.597
G1 X7.172 Y-8.332
G1 X7.254 Y-9.074
G1 X7.285 Y-9.818
G1 X7.264 Y-10.563
G1 X7.193 Y-11.303
G1 X7.071 Y-12.037
G1 X6.899 Y-12.759
G1 X6.678 Y-13.467
G1 X6.409 Y-14.158
G1 X6.093 Y-14.827
G1 X5.732 Y-15.473
G1 X5.327 Y-16.092
G1 X4.882 Y-16.680
G1 X4.396 Y-17.236
G1 X3.874 Y-17.756
G1 X3.318 Y-18.238
G1 X2.730 Y-18.681
G1 X2.113 Y-19.080
G1 X1.470 Y-19.436
G1 X0.805 Y-19.746
G1 X0.120 Y-20.009
G1 X-0.581 Y-20.223
G1 X-1.295 Y-20.387
G1 X-2.019 Y-20.501
G1 X-2.748 Y-20.565
G1 X-3.480 Y-20.577
G1 X-4.210 Y-20.538
G1 X-4.936 Y-20.448
G1 X-5.654 Y-20.308
G1 X-6.360 Y-20.118
G1 X-7.051 Y-19.879
G1 X-7.724 Y-19.592
G1 X-8.375 Y-19.259
G1 X-9.001 Y-18.881
G1 X-9.600 Y-18.460
G1 X-10.167 Y-17.998
G1 X-10.702 Y-17.497
G1 X-11.200 Y-16.960
G1 X-11.660 Y-16.390
G1 X-12.079 Y-15.788
G1 X-12.456 Y-15.158
G1 X-12.788 Y-14.503
G1 X-13.073 Y-13.826
G1 X-13.312 Y-13.130
G1 X-13.501 Y-12.419
G1 X-13.640 Y-11.695
G1 X-13.730 Y-10.963
G1 X-13.768 Y-10.226
G1 X-13.755 Y-9.488
G1 X-13.691 Y-8.751
G1 X-13.576 Y-8.020
G1 X-13.411 Y-7.298
G1 X-13.196 Y-6.588
G1 X-12.933 Y-5.894
G1 X-12.622 Y-5.219
G1 X-12.265 Y-4.567
G1 X-11.863 Y-3.940
G1 X-11.419 Y-3.342
G1 X-10.935 Y-2.774
G1 X-10.413 Y-2.241
G1 X-9.854 Y-1.745
G1 X-9.263 Y-1.287
G1 X-8.641 Y-0.871
G1 X-7.992 Y-0.498
G1 X-7.319 Y-0.170
G1 X-6.624 Y0.112
G1 X-5.911 Y0.346
G1 X-5.184 Y0.531
G1 X-4.445 Y0.666
G1 X-3.699 Y0.750
G1 X-2.948 Y0.783
G1 X-2.197 Y0.766
G1 X-1.448 Y0.697
G1 X-0.706 Y0.577
G1 X0.027 Y0.407
G1 X0.746 Y0.188
G1 X1.449 Y-0.080
G1 X2.132 Y-0.394
G1 X2.791 Y-0.755
G1 X3.425 Y-1.159
G1 X4.029 Y-1.605
G1 X4.601 Y-2.091
G1 X5.139 Y-2.615
G1 X5.639 Y-3.174
G1 X6.100 Y-3.766
G1 X6.520 Y-4.387
G1 X6.895 Y-5.035
G1 X7.225 Y-5.706
G1 X7.509 Y-6.398
G1 X7.744 Y-7.107
G1 X7.930 Y-7.830
G1 X8.066 Y-8.564
G1 X8.151 Y-9.304
G1 X8.185 Y-10.048
G1 X8.168 Y-10.792
G1 X8.100 Y-11.532
G1 X7.982 Y-12.264
G1 X7.813 Y-12.987
G1 X7.595 Y-13.695
G1 X7.329 Y-14.386
G1 X7.016 Y-15.056
G1 X6.658 Y-15.702
G1 X6.257 Y-16.322
G1 X5.814 Y-16.911
G1 X5.331 Y-17.468
G1 X4.812 Y-17.989
G1 X4.257 Y-18.473
G1 X3.671 Y-18.917
G1 X3.057 Y-19.319
G1 X2.416 Y-19.676
G1 X1.752 Y-19.988
G1 X1.068 Y-20.253
G1 X0.368 Y-20.469
G1 X-0.345 Y-20.635
G1 X-1.068 Y-20.752
G1 X-1.797 Y-20.817
G1 X-2.528 Y-20.832
G1 X-3.259 Y-20.795
G1 X-3.985 Y-20.707
G1 X-4.703 Y-20.569
G1 X-5.409 Y-20.381
G1 X-6.101 Y-20.144
G1 X-6.775 Y-19.859
G1 X-7.427 Y-19.528
G1 X-8.055 Y-19.152
G1 X-8.655 Y-18.732
G1 X-9.224 Y-18.272
G1 X-9.760 Y-17.773
G1 X-10.261 Y-17.237
G1 X-10.723 Y-16.667
G1 X-11.144 Y-16.066
G1 X-11.523 Y-15.437
G1 X-11.858 Y-14.783
G1 X-12.146 Y-14.106
G1 X-12.387 Y-13.410
G1 X-12.579 Y-12.699
G1 X-12.721 Y-11.975
G1 X-12.813 Y-11.243
G1 X-12.854 Y-10.505
G1 X-12.844 Y-9.766
G1 X-12.783 Y-9.028
G1 X-12.671 Y-8.295
G1 X-12.509 Y-7.572
G1 X-12.297 Y-6.860
G1 X-12.036 Y-6.164
G1 X-11.727 Y-5.487
G1 X-11.373 Y-4.833
G1 X-10.974 Y-4.203
G1 X-10.533 Y-3.602
G1 X-10.050 Y-3.032
G1 X-9.530 Y-2.496
G1 X-8.974 Y-1.996
G1 X-8.384 Y-1.535
G1 X-7.764 Y-1.115
G1 X-7.116 Y-0.739
G1 X-6.444 Y-0.407
G1 X-5.750 Y-0.121
G1 X-5.038 Y0.117
G1 X-4.311 Y0.305
G1 X-3.573 Y0.444
G1 X-2.827 Y0.532
G1 X-2.076 Y0.570
G1 X-1.324 Y0.556
G1 X-0.575 Y0.491
G1 X0.168 Y0.376
G1 X0.901 Y0.210
G1 X1.622 Y-0.006
G1 X2.326 Y-0.269
G1 X3.010 Y-0.580
G1 X3.671 Y-0.937
G1 X4.307 Y-1.338
G1 X4.913 Y-1.781
G1 X5.488 Y-2.264
G1 X6.028 Y-2.784
G1 X6.531 Y-3.340
G1 X6.994 Y-3.929
G1 X7.416 Y-4.547
G1 X7.795 Y-5.193
G1 X8.128 Y-5.862
G1 X8.415 Y-6.552
G1 X8.653 Y-7.259
G1 X8.842 Y-7.981
G1 X8.981 Y-8.713
G1 X9.070 Y-9.452
G1 X9.107 Y-10.194
G1 X9.094 Y-10.937
G1 X9.029 Y-11.677
G1 X8.913 Y-12.409
G1 X8.748 Y-13.131
G1 X8.533 Y-13.840
G1 X8.270 Y-14.531
G1 X7.960 Y-15.201
G1 X7.605 Y-15.848
G1 X7.206 Y-16.468
G1 X6.766 Y-17.059
G1 X6.286 Y-17.617
G1 X5.769 Y-18.140
G1 X5.217 Y-18.625
G1 X4.633 Y-19.070
G1 X4.020 Y-19.473
G1 X3.381 Y-19.833
G1 X2.718 Y-20.146
G1 X2.036 Y-20.413
G1 X1.337 Y-20.631
G1 X0.625 Y-20.800
G1 X-0.098 Y-20.918
G1 X-0.826 Y-20.986
G1 X-1.557 Y-21.003
G1 X-2.288 Y-20.968
G1 X-3.014 Y-20.883
G1 X-3.732 Y-20.747
G1 X-4.440 Y-20.561
G1 X-5.132 Y-20.326
G1 X-5.807 Y-20.043
G1 X-6.460 Y-19.713
G1 X-7.089 Y-19.339
G1 X-7.691 Y-18.921
G1 X-8.262 Y-18.462
G1 X-8.800 Y-17.964
G1 X-9.303 Y-17.430
G1 X-9.767 Y-16.861
G1 X-10.191 Y-16.261
G1 X-10.572 Y-15.633
G1 X-10.909 Y-14.979
G1 X-11.200 Y-14.302
G1 X-11.444 Y-13.607
G1 X-11.639 Y-12.895
G1 X-11.784 Y-12.171
G1 X-11.879 Y-11.438
G1 X-11.923 Y-10.700
G1 X-11.916 Y-9.960
G1 X-11.858 Y-9.221
G1 X-11.749 Y-8.487
G1 X-11.589 Y-7.762
G1 X-11.380 Y-7.048
G1 X-11.122 Y-6.350
G1 X-10.816 Y-5.671
G1 X-10.465 Y-5.014
G1 X-10.068 Y-4.382
G1 X-9.629 Y-3.778
G1 X-9.149 Y-3.205
G1 X-8.631 Y-2.666
G1 X-8.076 Y-2.163
G1 X-7.489 Y-1.699
G1 X-6.870 Y-1.276
G1 X-6.224 Y-0.895
G1 X-5.553 Y-0.560
G1 X-4.860 Y-0.270
G1 X-4.149 Y-0.029
G1 X-3.423 Y0.164
G1 X-2.685 Y0.307
G1 X-1.939 Y0.399
G1 X-1.188 Y0.440
G1 X-0.436 Y0.431
G1 X0.313 Y0.370
G1 X1.057 Y0.258
G1 X1.791 Y0.096
G1 X2.513 Y-0.115
G1 X3.218 Y-0.375
G1 X3.903 Y-0.682
G1 X4.566 Y-1.035
G1 X5.203 Y-1.433
G1 X5.812 Y-1.872
G1 X6.388 Y-2.352
G1 X6.931 Y-2.869
G1 X7.436 Y-3.422
G1 X7.902 Y-4.008
G1 X8.327 Y-4.624
G1 X8.708 Y-5.267
G1 X9.045 Y-5.934
G1 X9.334 Y-6.621
G1 X9.575 Y-7.327
G1 X9.768 Y-8.046
G1 X9.910 Y-8.777
G1 X10.002 Y-9.515
G1 X10.043 Y-10.256
G1 X10.032 Y-10.998
G1 X9.970 Y-11.737
G1 X9.858 Y-12.469
G1 X9.696 Y-13.191
G1 X9.484 Y-13.899
G1 X9.224 Y-14.591
G1 X8.917 Y-15.262
G1 X8.565 Y-15.909
G1 X8.169 Y-16.530
G1 X7.731 Y-17.122
G1 X7.253 Y-17.681
G1 X6.738 Y-18.205
G1 X6.189 Y-18.691
G1 X5.607 Y-19.138
G1 X4.995 Y-19.543
G1 X4.358 Y-19.904
G1 X3.697 Y-20.220
G1 X3.015 Y-20.488
G1 X2.317 Y-20.709
G1 X1.606 Y-20.879
G1 X0.885 Y-21.000
G1 X0.157 Y-21.070
G1 X-0.574 Y-21.089
G1 X-1.305 Y-21.056
G1 X-2.032 Y-20.973
G1 X-2.750 Y-20.839
G1 X-3.458 Y-20.655
G1 X-4.152 Y-20.422
G1 X-4.828 Y-20.141
G1 X-5.483 Y-19.813
G1 X-6.113 Y-19.441
G1 X-6.716 Y-19.025
G1 X-7.290 Y-18.567
G1 X-7.830 Y-18.071
G1 X-8.334 Y-17.537
G1 X-8.801 Y-16.970
G1 X-9.227 Y-16.371
G1 X-9.611 Y-15.743
G1 X-9.951 Y-15.089
G1 X-10.245 Y-14.413
G1 X-10.491 Y-13.718
G1 X-10.689 Y-13.006
G1 X-10.837 Y-12.282
G1 X-10.935 Y-11.549
G1 X-10.982 Y-10.810
G1 X-10.978 Y-10.068
G1 X-10.923 Y-9.328
G1 X-10.817 Y-8.593
G1 X-10.660 Y-7.866
G1 X-10.454 Y-7.151
G1 X-10.199 Y-6.451
G1 X-9.896 Y-5.770
G1 X-9.547 Y-5.111
G1 X-9.153 Y-4.476
G1 X-8.716 Y-3.869
G1 X-8.239 Y-3.294
G1 X-7.723 Y-2.751
G1 X-7.170 Y-2.245
G1 X-6.584 Y-1.778
G1 X-5.968 Y-1.351
G1 X-5.323 Y-0.967
G1 X-4.653 Y-0.628
G1 X-3.962 Y-0.334
G1 X-3.251 Y-0.089
G1 X-2.526 Y0.107
G1 X-1.789 Y0.254
G1 X-1.043 Y0.351
G1 X-0.293 Y0.396
G1 X0.459 Y0.390
G1 X1.209 Y0.334
G1 X1.953 Y0.226
G1 X2.688 Y0.068
G1 X3.411 Y-0.139
G1 X4.117 Y-0.395
G1 X4.804 Y-0.699
G1 X5.468 Y-1.048
G1 X6.107 Y-1.442
G1 X6.717 Y-1.878
G1 X7.296 Y-2.354
G1 X7.840 Y-2.869
G1 X8.348 Y-3.419
G1 X8.817 Y-4.002
G1 X9.244 Y-4.615
G1 X9.628 Y-5.255
G1 X9.967 Y-5.920
G1 X10.260 Y-6.605
G1 X10.504 Y-7.309
G1 X10.699 Y-8.027
G1 X10.845 Y-8.756
G1 X10.940 Y-9.492
G1 X10.983 Y-10.233
G1 X10.976 Y-10.974
G1 X10.918 Y-11.712
G1 X10.808 Y-12.444
G1 X10.649 Y-13.166
G1 X10.440 Y-13.874
G1 X10.183 Y-14.565
G1 X9.879 Y-15.237
G1 X9.530 Y-15.885
G1 X9.136 Y-16.506
G1 X8.701 Y-17.099
G1 X8.225 Y-17.659
G1 X7.713 Y-18.184
G1 X7.165 Y-18.672
G1 X6.585 Y-19.121
G1 X5.975 Y-19.527
G1 X5.339 Y-19.890
G1 X4.679 Y-20.208
G1 X3.999 Y-20.478
G1 X3.302 Y-20.700
G1 X2.592 Y-20.873
G1 X1.871 Y-20.996
G1 X1.143 Y-21.068
G1 X0.412 Y-21.089
G1 X-0.319 Y-21.059
G1 X-1.045 Y-20.978
G1 X-1.765 Y-20.846
G1 X-2.474 Y-20.664
G1 X-3.168 Y-20.433
G1 X-3.845 Y-20.154
G1 X-4.501 Y-19.828
G1 X-5.133 Y-19.457
G1 X-5.739 Y-19.043
G1 X-6.314 Y-18.587
G1 X-6.856 Y-18.091
G1 X-7.363 Y-17.559
G1 X-7.832 Y-16.993
G1 X-8.260 Y-16.395
G1 X-8.647 Y-15.768
G1 X-8.989 Y-15.115
G1 X-9.286 Y-14.439
G1 X-9.535 Y-13.744
G1 X-9.736 Y-13.032
G1 X-9.888 Y-12.308
G1 X-9.989 Y-11.574
G1 X-10.039 Y-10.834
G1 X-10.038 Y-10.092
G1 X-9.986 Y-9.350
G1 X-9.883 Y-8.614
G1 X-9.729 Y-7.886
G1 X-9.526 Y-7.169
G1 X-9.274 Y-6.467
G1 X-8.974 Y-5.784
G1 X-8.627 Y-5.122
G1 X-8.236 Y-4.485
G1 X-7.802 Y-3.875
G1 X-7.327 Y-3.296
G1 X-6.813 Y-2.751
G1 X-6.263 Y-2.242
G1 X-5.679 Y-1.771
G1 X-5.064 Y-1.341
G1 X-4.421 Y-0.953
G1 X-3.753 Y-0.610
G1 X-3.063 Y-0.313
G1 X-2.354 Y-0.064
G1 X-1.629 Y0.137
G1 X-0.892 Y0.287
G1 X-0.147 Y0.388
G1 X0.603 Y0.437
G1 X1.355 Y0.436
G1 X2.105 Y0.383
G1 X2.849 Y0.279
G1 X3.585 Y0.125
G1 X4.308 Y-0.078
G1 X5.015 Y-0.330
G1 X5.704 Y-0.630
G1 X6.370 Y-0.976
G1 X7.010 Y-1.366
G1 X7.622 Y-1.798
G1 X8.202 Y-2.271
G1 X8.749 Y-2.783
G1 X9.259 Y-3.330
G1 X9.730 Y-3.910
G1 X10.160 Y-4.520
G1 X10.547 Y-5.158
G1 X10.888 Y-5.820
G1 X11.183 Y-6.504
G1 X11.431 Y-7.205
G1 X11.629 Y-7.922
G1 X11.777 Y-8.649
G1 X11.875 Y-9.384
G1 X11.922 Y-10.124
G1 X11.918 Y-10.864
G1 X11.862 Y-11.602
G1 X11.756 Y-12.333
G1 X11.600 Y-13.054
G1 X11.394 Y-13.763
G1 X11.140 Y-14.454
G1 X10.839 Y-15.126
G1 X10.491 Y-15.774
G1 X10.101 Y-16.397
G1 X9.668 Y-16.990
G1 X9.195 Y-17.551
G1 X8.684 Y-18.078
G1 X8.138 Y-18.567
G1 X7.560 Y-19.017
G1 X6.952 Y-19.426
G1 X6.317 Y-19.790
G1 X5.659 Y-20.110
G1 X4.980 Y-20.382
G1 X4.284 Y-20.606
G1 X3.574 Y-20.781
G1 X2.853 Y-20.906
G1 X2.126 Y-20.980
G1 X1.395 Y-21.004
G1 X0.664 Y-20.976
G1 X-0.063 Y-20.896
G1 X-0.784 Y-20.767
G1 X-1.493 Y-20.587
G1 X-2.189 Y-20.358
G1 X-2.867 Y-20.081
G1 X-3.525 Y-19.757
G1 X-4.158 Y-19.388
G1 X-4.765 Y-18.975
G1 X-5.342 Y-18.520
G1 X-5.887 Y-18.027
G1 X-6.396 Y-17.496
G1 X-6.867 Y-16.930
G1 X-7.299 Y-16.333
G1 X-7.688 Y-15.707
G1 X-8.033 Y-15.054
G1 X-8.333 Y-14.379
G1 X-8.585 Y-13.684
G1 X-8.789 Y-12.972
G1 X-8.943 Y-12.247
G1 X-9.048 Y-11.513
G1 X-9.101 Y-10.773
G1 X-9.103 Y-10.029
G1 X-9.055 Y-9.287
G1 X-8.955 Y-8.549
G1 X-8.804 Y-7.819
G1 X-8.604 Y-7.101
G1 X-8.355 Y-6.397
G1 X-8.058 Y-5.712
G1 X-7.715 Y-5.047
G1 X-7.326 Y-4.408
G1 X-6.895 Y-3.796
G1 X-6.422 Y-3.214
G1 X-5.911 Y-2.666
G1 X-5.363 Y-2.153
G1 X-4.781 Y-1.679
G1 X-4.168 Y-1.245
G1 X-3.527 Y-0.854
G1 X-2.860 Y-0.507
G1 X-2.171 Y-0.207
G1 X-1.463 Y0.046
G1 X-0.740 Y0.251
G1 X-0.004 Y0.406
G1 X0.741 Y0.510
G1 X1.491 Y0.564
G1 X2.243 Y0.566
G1 X2.993 Y0.517
G1 X3.738 Y0.418
G1 X4.474 Y0.268
G1 X5.197 Y0.068
G1 X5.906 Y-0.180
G1 X6.595 Y-0.476
G1 X7.262 Y-0.818
G1 X7.904 Y-1.205
G1 X8.518 Y-1.634
G1 X9.100 Y-2.104
G1 X9.649 Y-2.612
G1 X10.161 Y-3.156
G1 X10.634 Y-3.733
G1 X11.066 Y-4.340
G1 X11.456 Y-4.976
G1 X11.800 Y-5.636
G1 X12.098 Y-6.317
G1 X12.348 Y-7.017
G1 X12.549 Y-7.731
G1 X12.700 Y-8.457
G1 X12.801 Y-9.191
G1 X12.851 Y-9.930
G1 X12.850 Y-10.669
G1 X12.797 Y-11.406
G1 X12.694 Y-12.137
G1 X12.540 Y-12.858
G1 X12.337 Y-13.566
G1 X12.086 Y-14.258
G1 X11.787 Y-14.930
G1 X11.443 Y-15.579
G1 X11.054 Y-16.202
G1 X10.624 Y-16.797
G1 X10.153 Y-17.359
G1 X9.644 Y-17.887
G1 X9.101 Y-18.378
G1 X8.524 Y-18.829
G1 X7.918 Y-19.239
G1 X7.284 Y-19.605
G1 X6.627 Y-19.927
G1 X5.949 Y-20.201
G1 X5.254 Y-20.427
G1 X4.544 Y-20.604
G1 X3.824 Y-20.731
G1 X3.097 Y-20.808
G1 X2.366 Y-20.833
G1 X1.634 Y-20.807
G1 X0.907 Y-20.730
G1 X0.186 Y-20.603
G1 X-0.525 Y-20.425
G1 X-1.221 Y-20.198
G1 X-1.901 Y-19.923
G1 X-2.560 Y-19.601
G1 X-3.195 Y-19.233
G1 X-3.804 Y-18.822
G1 X-4.383 Y-18.369
G1 X-4.930 Y-17.877
G1 X-5.442 Y-17.347
G1 X-5.915 Y-16.783
G1 X-6.350 Y-16.187
G1 X-6.742 Y-15.561
G1 X-7.090 Y-14.909
G1 X-7.392 Y-14.234
G1 X-7.648 Y-13.539
G1 X-7.855 Y-12.827
G1 X-8.013 Y-12.103
G1 X-8.120 Y-11.368
G1 X-8.177 Y-10.627
G1 X-8.182 Y-9.883
G1 X-8.137 Y-9.139
G1 X-8.040 Y-8.400
G1 X-7.893 Y-7.669
G1 X-7.696 Y-6.949
G1 X-7.450 Y-6.243
G1 X-7.156 Y-5.555
G1 X-6.816 Y-4.889
G1 X-6.430 Y-4.246
G1 X-6.001 Y-3.632
G1 X-5.532 Y-3.047
G1 X-5.023 Y-2.496
G1 X-4.477 Y-1.980
G1 X-3.897 Y-1.503
G1 X-3.286 Y-1.066
G1 X-2.647 Y-0.671
G1 X-1.982 Y-0.320
G1 X-1.294 Y-0.016
G1 X-0.588 Y0.241
G1 X0.135 Y0.449
G1 X0.870 Y0.608
G1 X1.614 Y0.716
G1 X2.363 Y0.774
G1 X3.115 Y0.780
G1 X3.865 Y0.736
G1 X4.610 Y0.640
G1 X5.346 Y0.494
G1 X6.071 Y0.298
G1 X6.780 Y0.054
G1 X7.470 Y-0.239
G1 X8.139 Y-0.577
G1 X8.782 Y-0.960
G1 X9.397 Y-1.385
G1 X9.981 Y-1.852
G1 X10.532 Y-2.357
G1 X11.046 Y-2.898
G1 X11.522 Y-3.472
G1 X11.956 Y-4.077
G1 X12.348 Y-4.710
G1 X12.695 Y-5.367
G1 X12.995 Y-6.047
G1 X13.248 Y-6.745
G1 X13.452 Y-7.457
G1 X13.606 Y-8.182
G1 X13.710 Y-8.914
G1 X13.762 Y-9.652
G1 X13.764 Y-10.390
G1 X13.714 Y-11.126
G1 X13.614 Y-11.857
G1 X13.463 Y-12.578
G1 X13.263 Y-13.286
G1 X13.014 Y-13.978
G1 X12.718 Y-14.650
G1 X12.376 Y-15.300
G1 X11.990 Y-15.924
G1 X11.561 Y-16.519
G1 X11.093 Y-17.083
G1 X10.586 Y-17.612
G1 X10.044 Y-18.104
G1 X9.469 Y-18.557
G1 X8.864 Y-18.968
G1 X8.232 Y-19.337
G1 X7.576 Y-19.660
G1 X6.899 Y-19.936
G1 X6.204 Y-20.164
G1 X5.495 Y-20.344
G1 X4.776 Y-20.473
G1 X4.048 Y-20.551
G1 X3.317 Y-20.579
G1 X2.586 Y-20.555
G1 X1.857 Y-20.480
G1 X1.136 Y-20.355
G1 X0.424 Y-20.179
G1 X-0.274 Y-19.954
G1 X-0.955 Y-19.681
G1 X-1.615 Y-19.361
G1 X-2.252 Y-18.995
G1 X-2.863 Y-18.586
G1 X-3.444 Y-18.135
G1 X-3.993 Y-17.644
G1 X-4.507 Y-17.115
G1 X-4.984 Y-16.552
G1 X-5.421 Y-15.957
G1 X-5.816 Y-15.332
G1 X-6.167 Y-14.681
G1 X-6.473 Y-14.006
G1 X-6.731 Y-13.311
G1 X-6.941 Y-12.600
G1 X-7.102 Y-11.875
G1 X-7.213 Y-11.139
G1 X-7.273 Y-10.398
G1 X-7.282 Y-9.653
G1 X-7.240 Y-8.909
G1 X-7.147 Y-8.168
G1 X-7.003 Y-7.435
G1 X-6.809 Y-6.713
G1 X-6.567 Y-6.006
G1 X-6.276 Y-5.316
G1 X-5.938 Y-4.647
G1 X-5.556 Y-4.003
G1 X-5.130 Y-3.385
G1 X-4.663 Y-2.798
G1 X-4.157 Y-2.244
G1 X-3.613 Y-1.725
G1 X-3.036 Y-1.244
G1 X-2.427 Y-0.803
G1 X-1.790 Y-0.405
G1 X-1.126 Y-0.051
G1 X-0.440 Y0.257
G1 X0.265 Y0.518
G1 X0.986 Y0.730
G1 X1.720 Y0.893
G1 X2.464 Y1.005
G1 X3.213 Y1.066
G1 X3.964 Y1.077
G1 X4.714 Y1.036
G1 X5.459 Y0.945
G1 X6.196 Y0.802
G1 X6.921 Y0.611
G1 X7.631 Y0.370
G1 X8.322 Y0.081
G1 X8.991 Y-0.253
G1 X9.636 Y-0.633
G1 X10.253 Y-1.055
G1 X10.838 Y-1.518
G1 X11.391 Y-2.020
G1 X11.907 Y-2.557
G1 X12.385 Y-3.129
G1 X12.821 Y-3.731
G1 X13.215 Y-4.362
G1 X13.565 Y-5.017
G1 X13.868 Y-5.694
G1 X14.123 Y-6.390
G1 X14.330 Y-7.101
G1 X14.487 Y-7.824
G1 X14.593 Y-8.556
G1 X14.648 Y-9.292
G1 X14.653 Y-10.029
G1 X14.606 Y-10.765
G1 X14.508 Y-11.495
G1 X14.360 Y-12.216
G1 X14.163 Y-12.924
G1 X13.916 Y-13.616
G1 X13.623 Y-14.289
G1 X13.283 Y-14.939
G1 X12.899 Y-15.564
G1 X12.473 Y-16.160
G1 X12.007 Y-16.724
G1 X11.502 Y-17.255
G1 X10.962 Y-17.748
G1 X10.388 Y-18.203
G1 X9.785 Y-18.616
G1 X9.154 Y-18.986
G1 X8.499 Y-19.311
G1 X7.823 Y-19.590
G1 X7.129 Y-19.820
G1 X6.420 Y-20.001
G1 X5.701 Y-20.133
G1 X4.973 Y-20.213
G1 X4.242 Y-20.243
G1 X3.510 Y-20.222
G1 X2.781 Y-20.149
G1 X2.059 Y-20.026
G1 X1.346 Y-19.852
G1 X0.647 Y-19.630
G1 X-0.035 Y-19.358
G1 X-0.698 Y-19.040
G1 X-1.337 Y-18.676
G1 X-1.950 Y-18.269
G1 X-2.533 Y-17.819
G1 X-3.084 Y-17.329
G1 X-3.601 Y-16.802
G1 X-4.080 Y-16.240
G1 X-4.520 Y-15.646
G1 X-4.918 Y-15.022
G1 X-5.272 Y-14.371
G1 X-5.581 Y-13.697
G1 X-5.843 Y-13.003
G1 X-6.056 Y-12.291
G1 X-6.221 Y-11.566
G1 X-6.335 Y-10.830
G1 X-6.398 Y-10.088
G1 X-6.411 Y-9.342
G1 X-6.372 Y-8.597
G1 X-6.282 Y-7.855
G1 X-6.142 Y-7.121
G1 X-5.952 Y-6.398
G1 X-5.712 Y-5.688
G1 X-5.424 Y-4.996
G1 X-5.090 Y-4.325
G1 X-4.711 Y-3.678
G1 X-4.288 Y-3.058
G1 X-3.823 Y-2.468
G1 X-3.320 Y-1.911
G1 X-2.779 Y-1.389
G1 X-2.204 Y-0.905
G1 X-1.598 Y-0.461
G1 X-0.962 Y-0.059
G1 X-0.301 Y0.298
G1 X0.384 Y0.610
G1 X1.088 Y0.875
G1 X1.808 Y1.091
G1 X2.541 Y1.257
G1 X3.283 Y1.373
G1 X4.032 Y1.439
G1 X4.782 Y1.453
G1 X5.532 Y1.417
G1 X6.277 Y1.329
G1 X7.014 Y1.191
G1 X7.740 Y1.003
G1 X8.450 Y0.766
G1 X9.142 Y0.481
G1 X9.813 Y0.150
G1 X10.459 Y-0.226
G1 X11.077 Y-0.645
G1 X11.664 Y-1.104
G1 X12.218 Y-1.603
G1 X12.736 Y-2.138
G1 X13.216 Y-2.707
G1 X13.655 Y-3.306
G1 X14.051 Y-3.934
G1 X14.403 Y-4.587
G1 X14.708 Y-5.262
G1 X14.966 Y-5.956
G1 X15.175 Y-6.666
G1 X15.335 Y-7.387
G1 X15.444 Y-8.117
G1 X15.502 Y-8.853
G1 X15.509 Y-9.589
G1 X15.465 Y-10.324
G1 X15.370 Y-11.054
G1 X15.225 Y-11.774
G1 X15.030 Y-12.482
G1 X14.786 Y-13.175
G1 X14.495 Y-13.848
G1 X14.158 Y-14.499
G1 X13.776 Y-15.124
G1 X13.352 Y-15.721
G1 X12.887 Y-16.287
G1 X12.384 Y-16.819
G1 X11.846 Y-17.314
G1 X11.274 Y-17.770
G1 X10.672 Y-18.185
G1 X10.042 Y-18.557
G1 X9.388 Y-18.884
G1 X8.713 Y-19.164
G1 X8.019 Y-19.397
G1 X7.311 Y-19.580
G1 X6.592 Y-19.714
G1 X5.864 Y-19.797
G1 X5.133 Y-19.829
G1 X4.400 Y-19.810
G1 X3.671 Y-19.739
G1 X2.947 Y-19.618
G1 X2.234 Y-19.447
G1 X1.533 Y-19.226
G1 X0.849 Y-18.957
G1 X0.185 Y-18.641
G1 X-0.456 Y-18.279
G1 X-1.071 Y-17.873
G1 X-1.656 Y-17.425
G1 X-2.210 Y-16.937
G1 X-2.729 Y-16.411
G1 X-3.211 Y-15.850
G1 X-3.654 Y-15.257
G1 X-4.055 Y-14.634
G1 X-4.412 Y-13.984
G1 X-4.724 Y-13.310
G1 X-4.989 Y-12.616
G1 X-5.206 Y-11.905
G1 X-5.374 Y-11.179
G1 X-5.492 Y-10.443
G1 X-5.559 Y-9.701
G1 X-5.575 Y-8.954
G1 X-5.540 Y-8.208
G1 X-5.454 Y-7.465
G1 X-5.317 Y-6.729
G1 X-5.130 Y-6.004
G1 X-4.894 Y-5.293
G1 X-4.609 Y-4.599
G1 X-4.278 Y-3.926
G1 X-3.902 Y-3.277
G1 X-3.482 Y-2.654
G1 X-3.021 Y-2.061
G1 X-2.520 Y-1.501
G1 X-1.982 Y-0.976
G1 X-1.409 Y-0.489
G1 X-0.805 Y-0.042
G1 X-0.171 Y0.363
G1 X0.488 Y0.725
G1 X1.171 Y1.040
G1 X1.873 Y1.308
G1 X2.592 Y1.528
G1 X3.324 Y1.699
G1 X4.065 Y1.819
G1 X4.813 Y1.888
G1 X5.563 Y1.907
G1 X6.313 Y1.874
G1 X7.058 Y1.790
G1 X7.795 Y1.656
G1 X8.521 Y1.471
G1 X9.232 Y1.238
G1 X9.924 Y0.957
G1 X10.596 Y0.630
G1 X11.243 Y0.257
G1 X11.862 Y-0.158
G1 X12.451 Y-0.615
G1 X13.007 Y-1.110
G1 X13.527 Y-1.642
G1 X14.008 Y-2.208
G1 X14.449 Y-2.805
G1 X14.848 Y-3.430
G1 X15.202 Y-4.081
G1 X15.510 Y-4.754
G1 X15.770 Y-5.446
G1 X15.982 Y-6.154
G1 X16.144 Y-6.874
G1 X16.255 Y-7.603
G1 X16.316 Y-8.337
G1 X16.326 Y-9.073
G1 X16.284 Y-9.808
G1 X16.192 Y-10.537
G1 X16.049 Y-11.257
G1 X15.857 Y-11.965
G1 X15.615 Y-12.658
G1 X15.327 Y-13.331
G1 X14.992 Y-13.983
G1 X14.612 Y-14.609
G1 X14.190 Y-15.207
G1 X13.727 Y-15.774
G1 X13.226 Y-16.307
G1 X12.689 Y-16.804
G1 X12.119 Y-17.262
G1 X11.518 Y-17.678
G1 X10.890 Y-18.052
G1 X10.236 Y-18.381
G1 X9.562 Y-18.663
G1 X8.869 Y-18.898
G1 X8.161 Y-19.084
G1 X7.442 Y-19.219
G1 X6.714 Y-19.305
G1 X5.982 Y-19.339
