%
(guilloche)
(T501  D=0.125 CR=0 - ZMIN=-0.129 - vee)
G90
G17
G21
G28 G91 Z0
G90

(scribe)
T501 M6
S10000 M3
G54
G0 X2.755 Y0.028
Z0.6
Z0.2
Z0.01
G1 Z-0.125 F400
G1 X2.755 Y0.028
G1 X2.854 Y0.057
G1 X2.948 Y0.088
G1 X3.034 Y0.121
G1 X3.108 Y0.156
G1 X3.168 Y0.190
G1 X3.210 Y0.225
G1 X3.233 Y0.259
G1 X3.236 Y0.292
G1 X3.220 Y0.323
G1 X3.183 Y0.352
G1 X3.129 Y0.377
G1 X3.058 Y0.400
G1 X2.974 Y0.419
G1 X2.880 Y0.435
G1 X2.780 Y0.449
G1 X2.677 Y0.459
G1 X2.575 Y0.469
G1 X2.479 Y0.477
G1 X2.391 Y0.485
G1 X2.316 Y0.494
G1 X2.256 Y0.504
G1 X2.213 Y0.518
G1 X2.188 Y0.535
G1 X2.182 Y0.557
G1 X2.196 Y0.584
G1 X2.227 Y0.616
G1 X2.275 Y0.654
G1 X2.336 Y0.697
G1 X2.409 Y0.745
G1 X2.490 Y0.798
G1 X2.576 Y0.854
G1 X2.661 Y0.912
G1 X2.744 Y0.971
G1 X2.819 Y1.029
G1 X2.885 Y1.086
G1 X2.937 Y1.139
G1 X2.973 Y1.188
G1 X2.992 Y1.230
G1 X2.993 Y1.265
G1 X2.975 Y1.293
G1 X2.939 Y1.312
G1 X2.886 Y1.323
G1 X2.817 Y1.326
G1 X2.736 Y1.322
G1 X2.645 Y1.310
G1 X2.547 Y1.294
G1 X2.446 Y1.273
G1 X2.345 Y1.251
G1 X2.248 Y1.228
G1 X2.159 Y1.208
G1 X2.080 Y1.191
G1 X2.013 Y1.180
G1 X1.961 Y1.176
G1 X1.925 Y1.181
G1 X1.906 Y1.195
G1 X1.904 Y1.220
G1 X1.917 Y1.256
G1 X1.946 Y1.303
G1 X1.986 Y1.359
G1 X2.038 Y1.424
G1 X2.096 Y1.496
G1 X2.159 Y1.574
G1 X2.223 Y1.655
G1 X2.285 Y1.737
G1 X2.342 Y1.818
G1 X2.391 Y1.894
G1 X2.429 Y1.964
G1 X2.454 Y2.026
G1 X2.465 Y2.077
G1 X2.462 Y2.116
G1 X2.442 Y2.142
G1 X2.408 Y2.155
G1 X2.360 Y2.154
G1 X2.298 Y2.141
G1 X2.226 Y2.116
G1 X2.146 Y2.081
G1 X2.059 Y2.037
G1 X1.970 Y1.988
G1 X1.880 Y1.936
G1 X1.794 Y1.884
G1 X1.712 Y1.835
G1 X1.638 Y1.791
G1 X1.574 Y1.756
G1 X1.521 Y1.731
G1 X1.480 Y1.719
G1 X1.452 Y1.721
G1 X1.436 Y1.737
G1 X1.433 Y1.770
G1 X1.441 Y1.816
G1 X1.459 Y1.877
G1 X1.485 Y1.950
G1 X1.517 Y2.034
G1 X1.552 Y2.125
G1 X1.588 Y2.221
G1 X1.623 Y2.318
G1 X1.654 Y2.414
G1 X1.680 Y2.505
G1 X1.698 Y2.587
G1 X1.707 Y2.659
G1 X1.706 Y2.717
G1 X1.695 Y2.760
G1 X1.673 Y2.786
G1 X1.641 Y2.795
G1 X1.598 Y2.787
G1 X1.548 Y2.762
G1 X1.489 Y2.721
G1 X1.426 Y2.667
G1 X1.358 Y2.603
G1 X1.288 Y2.531
G1 X1.219 Y2.455
G1 X1.151 Y2.378
G1 X1.087 Y2.303
G1 X1.027 Y2.235
G1 X0.974 Y2.177
G1 X0.928 Y2.131
G1 X0.890 Y2.100
G1 X0.859 Y2.086
G1 X0.836 Y2.089
G1 X0.821 Y2.111
G1 X0.812 Y2.151
G1 X0.808 Y2.208
G1 X0.809 Y2.280
G1 X0.812 Y2.365
G1 X0.817 Y2.459
G1 X0.822 Y2.560
G1 X0.826 Y2.663
G1 X0.828 Y2.766
G1 X0.826 Y2.863
G1 X0.819 Y2.952
G1 X0.808 Y3.029
G1 X0.792 Y3.091
G1 X0.770 Y3.135
G1 X0.743 Y3.162
G1 X0.711 Y3.168
G1 X0.675 Y3.155
G1 X0.636 Y3.123
G1 X0.594 Y3.074
G1 X0.550 Y3.008
G1 X0.505 Y2.931
G1 X0.461 Y2.843
G1 X0.418 Y2.751
G1 X0.376 Y2.656
G1 X0.337 Y2.563
G1 X0.301 Y2.477
G1 X0.267 Y2.400
G1 X0.236 Y2.336
G1 X0.208 Y2.287
G1 X0.183 Y2.256
G1 X0.159 Y2.245
G1 X0.137 Y2.253
G1 X0.116 Y2.280
G1 X0.095 Y2.326
G1 X0.074 Y2.388
G1 X0.051 Y2.465
G1 X0.028 Y2.552
G1 X0.002 Y2.648
G1 X-0.025 Y2.747
G1 X-0.055 Y2.846
G1 X-0.086 Y2.941
G1 X-0.119 Y3.028
G1 X-0.153 Y3.103
G1 X-0.188 Y3.164
G1 X-0.222 Y3.207
G1 X-0.257 Y3.232
G1 X-0.290 Y3.237
G1 X-0.321 Y3.222
G1 X-0.349 Y3.187
G1 X-0.375 Y3.134
G1 X-0.398 Y3.064
G1 X-0.418 Y2.981
G1 X-0.434 Y2.888
G1 X-0.448 Y2.788
G1 X-0.459 Y2.685
G1 X-0.468 Y2.583
G1 X-0.476 Y2.486
G1 X-0.484 Y2.398
G1 X-0.493 Y2.322
G1 X-0.504 Y2.260
G1 X-0.517 Y2.216
G1 X-0.534 Y2.189
G1 X-0.555 Y2.182
G1 X-0.582 Y2.194
G1 X-0.614 Y2.224
G1 X-0.651 Y2.270
G1 X-0.694 Y2.331
G1 X-0.741 Y2.403
G1 X-0.793 Y2.484
G1 X-0.849 Y2.569
G1 X-0.907 Y2.655
G1 X-0.966 Y2.738
G1 X-1.025 Y2.814
G1 X-1.081 Y2.880
G1 X-1.135 Y2.933
G1 X-1.184 Y2.971
G1 X-1.227 Y2.991
G1 X-1.263 Y2.994
G1 X-1.291 Y2.977
G1 X-1.311 Y2.942
G1 X-1.323 Y2.891
G1 X-1.326 Y2.823
G1 X-1.322 Y2.743
G1 X-1.311 Y2.652
G1 X-1.295 Y2.555
G1 X-1.275 Y2.454
G1 X-1.253 Y2.353
G1 X-1.230 Y2.256
G1 X-1.209 Y2.166
G1 X-1.192 Y2.086
G1 X-1.180 Y2.018
G1 X-1.176 Y1.965
G1 X-1.180 Y1.928
G1 X-1.194 Y1.907
G1 X-1.218 Y1.904
G1 X-1.253 Y1.916
G1 X-1.299 Y1.943
G1 X-1.354 Y1.983
G1 X-1.419 Y2.033
G1 X-1.491 Y2.091
G1 X-1.568 Y2.154
G1 X-1.649 Y2.218
G1 X-1.731 Y2.280
G1 X-1.811 Y2.338
G1 X-1.888 Y2.387
G1 X-1.959 Y2.426
G1 X-2.021 Y2.453
G1 X-2.073 Y2.465
G1 X-2.113 Y2.462
G1 X-2.141 Y2.444
G1 X-2.154 Y2.411
G1 X-2.155 Y2.364
G1 X-2.143 Y2.304
G1 X-2.118 Y2.232
G1 X-2.084 Y2.152
G1 X-2.041 Y2.066
G1 X-1.992 Y1.977
G1 X-1.940 Y1.888
G1 X-1.888 Y1.800
G1 X-1.838 Y1.718
G1 X-1.794 Y1.644
G1 X-1.758 Y1.578
G1 X-1.732 Y1.524
G1 X-1.719 Y1.482
G1 X-1.720 Y1.453
G1 X-1.736 Y1.437
G1 X-1.766 Y1.433
G1 X-1.812 Y1.440
G1 X-1.872 Y1.458
G1 X-1.944 Y1.483
G1 X-2.027 Y1.514
G1 X-2.118 Y1.549
G1 X-2.213 Y1.585
G1 X-2.310 Y1.620
G1 X-2.406 Y1.652
G1 X-2.498 Y1.678
G1 X-2.581 Y1.697
G1 X-2.654 Y1.707
G1 X-2.713 Y1.707
G1 X-2.757 Y1.696
G1 X-2.785 Y1.675
G1 X-2.795 Y1.644
G1 X-2.788 Y1.602
G1 X-2.764 Y1.552
G1 X-2.725 Y1.494
G1 X-2.672 Y1.431
G1 X-2.609 Y1.363
G1 X-2.537 Y1.294
G1 X-2.461 Y1.224
G1 X-2.384 Y1.156
G1 X-2.309 Y1.092
G1 X-2.240 Y1.032
G1 X-2.181 Y0.978
G1 X-2.134 Y0.932
G1 X-2.102 Y0.893
G1 X-2.086 Y0.861
G1 X-2.088 Y0.838
G1 X-2.109 Y0.822
G1 X-2.147 Y0.812
G1 X-2.203 Y0.808
G1 X-2.274 Y0.808
G1 X-2.358 Y0.812
G1 X-2.451 Y0.817
G1 X-2.552 Y0.822
G1 X-2.655 Y0.826
G1 X-2.758 Y0.828
G1 X-2.855 Y0.826
G1 X-2.945 Y0.820
G1 X-3.023 Y0.809
G1 X-3.086 Y0.793
G1 X-3.133 Y0.772
G1 X-3.160 Y0.745
G1 X-3.169 Y0.714
G1 X-3.157 Y0.678
G1 X-3.126 Y0.639
G1 X-3.078 Y0.597
G1 X-3.014 Y0.553
G1 X-2.937 Y0.509
G1 X-2.851 Y0.465
G1 X-2.758 Y0.421
G1 X-2.663 Y0.380
G1 X-2.570 Y0.340
G1 X-2.483 Y0.303
G1 X-2.405 Y0.270
G1 X-2.340 Y0.239
G1 X-2.290 Y0.210
G1 X-2.258 Y0.185
G1 X-2.245 Y0.161
G1 X-2.251 Y0.139
G1 X-2.277 Y0.118
G1 X-2.321 Y0.097
G1 X-2.383 Y0.075
G1 X-2.458 Y0.053
G1 X-2.545 Y0.030
G1 X-2.640 Y0.004
G1 X-2.739 Y-0.023
G1 X-2.838 Y-0.052
G1 X-2.933 Y-0.083
G1 X-3.021 Y-0.116
G1 X-3.097 Y-0.150
G1 X-3.159 Y-0.185
G1 X-3.204 Y-0.220
G1 X-3.231 Y-0.254
G1 X-3.237 Y-0.287
G1 X-3.224 Y-0.318
G1 X-3.190 Y-0.347
G1 X-3.138 Y-0.373
G1 X-3.070 Y-0.396
G1 X-2.988 Y-0.416
G1 X-2.896 Y-0.433
G1 X-2.796 Y-0.447
G1 X-2.693 Y-0.458
G1 X-2.591 Y-0.467
G1 X-2.494 Y-0.475
G1 X-2.405 Y-0.483
G1 X-2.327 Y-0.492
G1 X-2.265 Y-0.503
G1 X-2.219 Y-0.516
G1 X-2.191 Y-0.532
G1 X-2.182 Y-0.553
G1 X-2.192 Y-0.579
G1 X-2.221 Y-0.611
G1 X-2.266 Y-0.648
G1 X-2.326 Y-0.690
G1 X-2.397 Y-0.737
G1 X-2.477 Y-0.789
G1 X-2.562 Y-0.844
G1 X-2.648 Y-0.902
G1 X-2.731 Y-0.961
G1 X-2.808 Y-1.020
G1 X-2.875 Y-1.077
G1 X-2.929 Y-1.131
G1 X-2.968 Y-1.180
G1 X-2.990 Y-1.224
G1 X-2.994 Y-1.260
G1 X-2.979 Y-1.289
G1 X-2.946 Y-1.310
G1 X-2.895 Y-1.322
G1 X-2.829 Y-1.326
G1 X-2.750 Y-1.323
G1 X-2.660 Y-1.313
G1 X-2.563 Y-1.297
G1 X-2.462 Y-1.277
G1 X-2.361 Y-1.255
G1 X-2.263 Y-1.232
G1 X-2.173 Y-1.211
G1 X-2.092 Y-1.193
G1 X-2.023 Y-1.181
G1 X-1.969 Y-1.176
G1 X-1.930 Y-1.179
G1 X-1.908 Y-1.192
G1 X-1.903 Y-1.216
G1 X-1.914 Y-1.250
G1 X-1.940 Y-1.295
G1 X-1.979 Y-1.349
G1 X-2.029 Y-1.413
G1 X-2.086 Y-1.485
G1 X-2.149 Y-1.562
G1 X-2.213 Y-1.642
G1 X-2.276 Y-1.724
G1 X-2.333 Y-1.805
G1 X-2.384 Y-1.882
G1 X-2.424 Y-1.953
G1 X-2.451 Y-2.016
G1 X-2.465 Y-2.069
G1 X-2.463 Y-2.110
G1 X-2.446 Y-2.139
G1 X-2.414 Y-2.154
G1 X-2.368 Y-2.155
G1 X-2.309 Y-2.144
G1 X-2.238 Y-2.121
G1 X-2.159 Y-2.087
G1 X-2.073 Y-2.045
G1 X-1.984 Y-1.996
G1 X-1.895 Y-1.945
G1 X-1.807 Y-1.892
G1 X-1.725 Y-1.842
G1 X-1.649 Y-1.798
G1 X-1.583 Y-1.761
G1 X-1.528 Y-1.734
G1 X-1.485 Y-1.720
G1 X-1.455 Y-1.719
G1 X-1.438 Y-1.734
G1 X-1.433 Y-1.763
G1 X-1.439 Y-1.808
G1 X-1.456 Y-1.867
G1 X-1.481 Y-1.938
G1 X-1.512 Y-2.020
G1 X-1.546 Y-2.110
G1 X-1.582 Y-2.205
G1 X-1.618 Y-2.303
G1 X-1.650 Y-2.399
G1 X-1.676 Y-2.491
G1 X-1.696 Y-2.575
G1 X-1.706 Y-2.648
G1 X-1.707 Y-2.709
G1 X-1.698 Y-2.754
G1 X-1.677 Y-2.783
G1 X-1.647 Y-2.795
G1 X-1.606 Y-2.789
G1 X-1.556 Y-2.767
G1 X-1.499 Y-2.728
G1 X-1.436 Y-2.677
G1 X-1.369 Y-2.614
G1 X-1.299 Y-2.543
G1 X-1.230 Y-2.467
G1 X-1.161 Y-2.390
G1 X-1.096 Y-2.315
G1 X-1.036 Y-2.245
G1 X-0.982 Y-2.185
G1 X-0.935 Y-2.137
G1 X-0.895 Y-2.104
G1 X-0.864 Y-2.087
G1 X-0.840 Y-2.088
G1 X-0.823 Y-2.107
G1 X-0.813 Y-2.144
G1 X-0.808 Y-2.198
G1 X-0.808 Y-2.268
G1 X-0.811 Y-2.351
G1 X-0.816 Y-2.444
G1 X-0.822 Y-2.544
G1 X-0.826 Y-2.647
G1 X-0.828 Y-2.750
G1 X-0.826 Y-2.848
G1 X-0.821 Y-2.938
G1 X-0.810 Y-3.017
G1 X-0.795 Y-3.082
G1 X-0.774 Y-3.130
G1 X-0.748 Y-3.159
G1 X-0.717 Y-3.169
G1 X-0.681 Y-3.159
G1 X-0.642 Y-3.130
G1 X-0.600 Y-3.083
G1 X-0.557 Y-3.020
G1 X-0.513 Y-2.944
G1 X-0.468 Y-2.858
G1 X-0.425 Y-2.766
G1 X-0.383 Y-2.671
G1 X-0.343 Y-2.578
G1 X-0.306 Y-2.490
G1 X-0.272 Y-2.411
G1 X-0.241 Y-2.345
G1 X-0.213 Y-2.294
G1 X-0.187 Y-2.260
G1 X-0.163 Y-2.245
G1 X-0.141 Y-2.250
G1 X-0.119 Y-2.274
G1 X-0.098 Y-2.317
G1 X-0.077 Y-2.377
G1 X-0.055 Y-2.452
G1 X-0.031 Y-2.538
G1 X-0.006 Y-2.632
G1 X0.021 Y-2.731
G1 X0.050 Y-2.830
G1 X0.081 Y-2.926
G1 X0.113 Y-3.014
G1 X0.147 Y-3.092
G1 X0.182 Y-3.155
G1 X0.217 Y-3.202
G1 X0.251 Y-3.229
G1 X0.284 Y-3.238
G1 X0.316 Y-3.225
G1 X0.345 Y-3.194
G1 X0.371 Y-3.143
G1 X0.395 Y-3.076
G1 X0.415 Y-2.995
G1 X0.432 Y-2.903
G1 X0.446 Y-2.804
G1 X0.457 Y-2.701
G1 X0.467 Y-2.599
G1 X0.475 Y-2.501
G1 X0.483 Y-2.411
G1 X0.491 Y-2.333
G1 X0.502 Y-2.269
G1 X0.515 Y-2.222
G1 X0.531 Y-2.192
G1 X0.552 Y-2.182
G1 X0.577 Y-2.191
G1 X0.608 Y-2.218
G1 X0.645 Y-2.262
G1 X0.686 Y-2.321
G1 X0.733 Y-2.391
G1 X0.785 Y-2.471
G1 X0.840 Y-2.555
G1 X0.898 Y-2.641
G1 X0.957 Y-2.725
G1 X1.015 Y-2.802
G1 X1.073 Y-2.870
G1 X1.127 Y-2.926
G1 X1.176 Y-2.966
G1 X1.220 Y-2.989
G1 X1.258 Y-2.995
G1 X1.287 Y-2.981
G1 X1.309 Y-2.949
G1 X1.322 Y-2.900
G1 X1.326 Y-2.835
G1 X1.323 Y-2.756
G1 X1.314 Y-2.667
G1 X1.298 Y-2.571
G1 X1.278 Y-2.470
G1 X1.256 Y-2.369
G1 X1.234 Y-2.271
G1 X1.212 Y-2.180
G1 X1.194 Y-2.098
G1 X1.182 Y-2.028
G1 X1.176 Y-1.972
G1 X1.179 Y-1.933
G1 X1.191 Y-1.909
G1 X1.213 Y-1.903
G1 X1.247 Y-1.913
G1 X1.291 Y-1.938
G1 X1.345 Y-1.976
G1 X1.408 Y-2.025
G1 X1.479 Y-2.082
G1 X1.555 Y-2.144
G1 X1.636 Y-2.208
G1 X1.718 Y-2.271
G1 X1.799 Y-2.329
G1 X1.876 Y-2.380
G1 X1.948 Y-2.421
G1 X2.012 Y-2.449
G1 X2.065 Y-2.464
G1 X2.108 Y-2.464
G1 X2.137 Y-2.448
G1 X2.153 Y-2.418
G1 X2.156 Y-2.372
G1 X2.145 Y-2.314
G1 X2.123 Y-2.244
G1 X2.090 Y-2.166
G1 X2.048 Y-2.080
G1 X2.000 Y-1.991
G1 X1.949 Y-1.902
G1 X1.896 Y-1.814
G1 X1.846 Y-1.731
G1 X1.801 Y-1.655
G1 X1.763 Y-1.588
G1 X1.736 Y-1.532
G1 X1.720 Y-1.488
G1 X1.719 Y-1.457
G1 X1.732 Y-1.439
G1 X1.760 Y-1.433
G1 X1.804 Y-1.439
G1 X1.862 Y-1.454
G1 X1.932 Y-1.478
G1 X2.013 Y-1.509
G1 X2.103 Y-1.543
G1 X2.198 Y-1.580
G1 X2.295 Y-1.615
G1 X2.391 Y-1.647
G1 X2.484 Y-1.674
G1 X2.568 Y-1.694
G1 X2.643 Y-1.706
G1 X2.704 Y-1.708
G1 X2.751 Y-1.699
G1 X2.781 Y-1.679
G1 X2.795 Y-1.649
G1 X2.790 Y-1.609
G1 X2.769 Y-1.560
G1 X2.732 Y-1.504
G1 X2.681 Y-1.441
G1 X2.619 Y-1.374
G1 X2.549 Y-1.305
G1 X2.473 Y-1.235
G1 X2.396 Y-1.167
G1 X2.321 Y-1.102
G1 X2.251 Y-1.041
G1 X2.190 Y-0.986
G1 X2.141 Y-0.938
G1 X2.106 Y-0.898
G1 X2.087 Y-0.866
G1 X2.087 Y-0.841
G1 X2.104 Y-0.824
G1 X2.140 Y-0.813
G1 X2.193 Y-0.808
G1 X2.262 Y-0.808
G1 X2.344 Y-0.811
G1 X2.436 Y-0.816
G1 X2.536 Y-0.821
G1 X2.639 Y-0.825
G1 X2.742 Y-0.828
G1 X2.840 Y-0.827
G1 X2.931 Y-0.821
G1 X3.011 Y-0.811
G1 X3.077 Y-0.796
G1 X3.126 Y-0.776
G1 X3.157 Y-0.750
G1 X3.169 Y-0.719
G1 X3.160 Y-0.684
G1 X3.133 Y-0.645
G1 X3.087 Y-0.604
G1 X3.025 Y-0.560
G1 X2.950 Y-0.516
G1 X2.865 Y-0.472
G1 X2.773 Y-0.428
G1 X2.678 Y-0.386
G1 X2.585 Y-0.346
G1 X2.497 Y-0.309
G1 X2.417 Y-0.275
G1 X2.350 Y-0.243
G1 X2.297 Y-0.215
G1 X2.262 Y-0.189
G1 X2.246 Y-0.165
G1 X2.249 Y-0.142
G1 X2.272 Y-0.121
G1 X2.313 Y-0.100
G1 X2.372 Y-0.079
G1 X2.445 Y-0.057
G1 X2.531 Y-0.033
G1 X2.624 Y-0.008
G1 X2.723 Y0.019
G0 Z0.6
G0 X3.407 Y0.175
Z0.6
Z0.2
Z0.01
G1 Z-0.125 F400
G1 X3.407 Y0.175
G1 X3.503 Y0.215
G1 X3.594 Y0.257
G1 X3.676 Y0.299
G1 X3.746 Y0.343
G1 X3.800 Y0.386
G1 X3.836 Y0.429
G1 X3.853 Y0.470
G1 X3.850 Y0.508
G1 X3.827 Y0.544
G1 X3.785 Y0.577
G1 X3.725 Y0.606
G1 X3.650 Y0.631
G1 X3.562 Y0.653
G1 X3.464 Y0.671
G1 X3.361 Y0.686
G1 X3.257 Y0.698
G1 X3.154 Y0.709
G1 X3.058 Y0.720
G1 X2.971 Y0.731
G1 X2.897 Y0.744
G1 X2.838 Y0.759
G1 X2.796 Y0.778
G1 X2.773 Y0.801
G1 X2.769 Y0.830
G1 X2.783 Y0.865
G1 X2.814 Y0.905
G1 X2.862 Y0.952
G1 X2.922 Y1.005
G1 X2.993 Y1.063
G1 X3.071 Y1.125
G1 X3.152 Y1.191
G1 X3.233 Y1.259
G1 X3.309 Y1.327
G1 X3.378 Y1.394
G1 X3.436 Y1.458
G1 X3.481 Y1.518
G1 X3.509 Y1.572
G1 X3.520 Y1.620
G1 X3.513 Y1.659
G1 X3.488 Y1.690
G1 X3.445 Y1.712
G1 X3.385 Y1.725
G1 X3.311 Y1.729
G1 X3.224 Y1.725
G1 X3.129 Y1.714
G1 X3.028 Y1.699
G1 X2.924 Y1.679
G1 X2.822 Y1.658
G1 X2.724 Y1.638
G1 X2.634 Y1.620
G1 X2.555 Y1.606
G1 X2.488 Y1.599
G1 X2.436 Y1.600
G1 X2.400 Y1.611
G1 X2.380 Y1.633
G1 X2.376 Y1.665
G1 X2.388 Y1.709
G1 X2.413 Y1.764
G1 X2.450 Y1.829
G1 X2.497 Y1.903
G1 X2.550 Y1.984
G1 X2.606 Y2.070
G1 X2.663 Y2.159
G1 X2.717 Y2.248
G1 X2.765 Y2.335
G1 X2.804 Y2.416
G1 X2.833 Y2.491
G1 X2.849 Y2.556
G1 X2.851 Y2.610
G1 X2.838 Y2.651
G1 X2.811 Y2.678
G1 X2.768 Y2.691
G1 X2.713 Y2.690
G1 X2.645 Y2.677
G1 X2.568 Y2.651
G1 X2.483 Y2.615
G1 X2.393 Y2.571
G1 X2.301 Y2.522
G1 X2.209 Y2.471
G1 X2.120 Y2.420
G1 X2.037 Y2.372
G1 X1.962 Y2.331
G1 X1.896 Y2.300
G1 X1.842 Y2.279
G1 X1.799 Y2.273
G1 X1.768 Y2.280
G1 X1.750 Y2.304
G1 X1.743 Y2.343
G1 X1.746 Y2.397
G1 X1.758 Y2.465
G1 X1.777 Y2.545
G1 X1.801 Y2.635
G1 X1.827 Y2.732
G1 X1.854 Y2.833
G1 X1.880 Y2.935
G1 X1.901 Y3.035
G1 X1.916 Y3.128
G1 X1.924 Y3.213
G1 X1.923 Y3.285
G1 X1.912 Y3.343
G1 X1.892 Y3.386
G1 X1.861 Y3.410
G1 X1.821 Y3.417
G1 X1.772 Y3.407
G1 X1.715 Y3.379
G1 X1.651 Y3.336
G1 X1.583 Y3.281
G1 X1.512 Y3.214
G1 X1.439 Y3.141
G1 X1.367 Y3.064
G1 X1.297 Y2.987
G1 X1.231 Y2.914
G1 X1.169 Y2.848
G1 X1.114 Y2.793
G1 X1.065 Y2.750
G1 X1.024 Y2.723
G1 X0.989 Y2.714
G1 X0.962 Y2.723
G1 X0.940 Y2.750
G1 X0.925 Y2.795
G1 X0.914 Y2.857
G1 X0.906 Y2.934
G1 X0.900 Y3.023
G1 X0.896 Y3.120
G1 X0.891 Y3.224
G1 X0.884 Y3.329
G1 X0.875 Y3.432
G1 X0.862 Y3.529
G1 X0.845 Y3.617
G1 X0.824 Y3.692
G1 X0.798 Y3.751
G1 X0.767 Y3.793
G1 X0.732 Y3.815
G1 X0.693 Y3.818
G1 X0.651 Y3.800
G1 X0.606 Y3.764
G1 X0.559 Y3.710
G1 X0.511 Y3.641
G1 X0.464 Y3.561
G1 X0.417 Y3.471
G1 X0.371 Y3.377
G1 X0.328 Y3.281
G1 X0.286 Y3.189
G1 X0.247 Y3.103
G1 X0.211 Y3.028
G1 X0.177 Y2.966
G1 X0.145 Y2.920
G1 X0.114 Y2.893
G1 X0.085 Y2.884
G1 X0.057 Y2.895
G1 X0.028 Y2.926
G1 X-0.001 Y2.974
G1 X-0.032 Y3.039
G1 X-0.064 Y3.117
G1 X-0.098 Y3.206
G1 X-0.134 Y3.301
G1 X-0.172 Y3.399
G1 X-0.212 Y3.496
G1 X-0.253 Y3.587
G1 X-0.296 Y3.670
G1 X-0.339 Y3.741
G1 X-0.383 Y3.796
G1 X-0.425 Y3.834
G1 X-0.466 Y3.853
G1 X-0.505 Y3.851
G1 X-0.541 Y3.830
G1 X-0.574 Y3.789
G1 X-0.604 Y3.730
G1 X-0.629 Y3.656
G1 X-0.651 Y3.569
G1 X-0.669 Y3.472
G1 X-0.685 Y3.370
G1 X-0.697 Y3.265
G1 X-0.709 Y3.162
G1 X-0.719 Y3.065
G1 X-0.730 Y2.978
G1 X-0.742 Y2.902
G1 X-0.757 Y2.842
G1 X-0.776 Y2.799
G1 X-0.799 Y2.774
G1 X-0.827 Y2.768
G1 X-0.862 Y2.781
G1 X-0.902 Y2.811
G1 X-0.948 Y2.857
G1 X-1.001 Y2.917
G1 X-1.058 Y2.987
G1 X-1.120 Y3.064
G1 X-1.186 Y3.145
G1 X-1.253 Y3.226
G1 X-1.321 Y3.303
G1 X-1.388 Y3.373
G1 X-1.453 Y3.432
G1 X-1.513 Y3.478
G1 X-1.568 Y3.508
G1 X-1.616 Y3.520
G1 X-1.657 Y3.515
G1 X-1.688 Y3.490
G1 X-1.711 Y3.449
G1 X-1.724 Y3.390
G1 X-1.729 Y3.317
G1 X-1.726 Y3.232
G1 X-1.715 Y3.137
G1 X-1.700 Y3.036
G1 X-1.681 Y2.933
G1 X-1.660 Y2.830
G1 X-1.639 Y2.732
G1 X-1.621 Y2.641
G1 X-1.607 Y2.561
G1 X-1.599 Y2.493
G1 X-1.600 Y2.440
G1 X-1.610 Y2.402
G1 X-1.631 Y2.381
G1 X-1.662 Y2.376
G1 X-1.705 Y2.386
G1 X-1.759 Y2.411
G1 X-1.824 Y2.447
G1 X-1.897 Y2.493
G1 X-1.977 Y2.545
G1 X-2.063 Y2.601
G1 X-2.152 Y2.658
G1 X-2.241 Y2.712
G1 X-2.328 Y2.761
G1 X-2.410 Y2.801
G1 X-2.485 Y2.831
G1 X-2.551 Y2.848
G1 X-2.606 Y2.851
G1 X-2.648 Y2.840
G1 X-2.676 Y2.813
G1 X-2.691 Y2.772
G1 X-2.691 Y2.718
G1 X-2.678 Y2.651
G1 X-2.653 Y2.574
G1 X-2.618 Y2.490
G1 X-2.575 Y2.400
G1 X-2.526 Y2.308
G1 X-2.475 Y2.216
G1 X-2.424 Y2.127
G1 X-2.376 Y2.044
G1 X-2.334 Y1.968
G1 X-2.302 Y1.901
G1 X-2.281 Y1.846
G1 X-2.273 Y1.802
G1 X-2.279 Y1.770
G1 X-2.301 Y1.751
G1 X-2.339 Y1.743
G1 X-2.392 Y1.745
G1 X-2.459 Y1.757
G1 X-2.538 Y1.775
G1 X-2.627 Y1.799
G1 X-2.724 Y1.825
G1 X-2.825 Y1.852
G1 X-2.927 Y1.878
G1 X-3.027 Y1.899
G1 X-3.121 Y1.915
G1 X-3.206 Y1.924
G1 X-3.280 Y1.923
G1 X-3.339 Y1.914
G1 X-3.383 Y1.894
G1 X-3.409 Y1.864
G1 X-3.417 Y1.824
G1 X-3.408 Y1.776
G1 X-3.382 Y1.719
G1 X-3.340 Y1.656
G1 X-3.285 Y1.588
G1 X-3.220 Y1.517
G1 X-3.147 Y1.445
G1 X-3.071 Y1.372
G1 X-2.994 Y1.302
G1 X-2.920 Y1.236
G1 X-2.853 Y1.174
G1 X-2.796 Y1.118
G1 X-2.753 Y1.069
G1 X-2.725 Y1.027
G1 X-2.714 Y0.992
G1 X-2.721 Y0.964
G1 X-2.747 Y0.942
G1 X-2.791 Y0.926
G1 X-2.852 Y0.914
G1 X-2.927 Y0.907
G1 X-3.015 Y0.901
G1 X-3.112 Y0.896
G1 X-3.216 Y0.891
G1 X-3.321 Y0.885
G1 X-3.424 Y0.876
G1 X-3.522 Y0.863
G1 X-3.611 Y0.847
G1 X-3.687 Y0.826
G1 X-3.747 Y0.800
G1 X-3.790 Y0.770
G1 X-3.814 Y0.735
G1 X-3.818 Y0.696
G1 X-3.802 Y0.654
G1 X-3.767 Y0.609
G1 X-3.715 Y0.563
G1 X-3.647 Y0.515
G1 X-3.567 Y0.468
G1 X-3.478 Y0.421
G1 X-3.384 Y0.375
G1 X-3.289 Y0.331
G1 X-3.196 Y0.289
G1 X-3.109 Y0.250
G1 X-3.033 Y0.214
G1 X-2.970 Y0.179
G1 X-2.923 Y0.147
G1 X-2.894 Y0.117
G1 X-2.884 Y0.088
G1 X-2.894 Y0.059
G1 X-2.923 Y0.030
G1 X-2.970 Y0.001
G1 X-3.033 Y-0.029
G1 X-3.111 Y-0.061
G1 X-3.198 Y-0.095
G1 X-3.293 Y-0.131
G1 X-3.391 Y-0.169
G1 X-3.488 Y-0.208
G1 X-3.580 Y-0.250
G1 X-3.664 Y-0.292
G1 X-3.736 Y-0.336
G1 X-3.792 Y-0.379
G1 X-3.832 Y-0.422
G1 X-3.852 Y-0.463
G1 X-3.852 Y-0.502
G1 X-3.832 Y-0.539
G1 X-3.793 Y-0.572
G1 X-3.736 Y-0.602
G1 X-3.663 Y-0.627
G1 X-3.576 Y-0.650
G1 X-3.480 Y-0.668
G1 X-3.378 Y-0.684
G1 X-3.273 Y-0.697
G1 X-3.170 Y-0.708
G1 X-3.073 Y-0.718
G1 X-2.984 Y-0.729
G1 X-2.908 Y-0.741
G1 X-2.846 Y-0.756
G1 X-2.802 Y-0.774
G1 X-2.775 Y-0.797
G1 X-2.768 Y-0.825
G1 X-2.779 Y-0.859
G1 X-2.808 Y-0.898
G1 X-2.853 Y-0.944
G1 X-2.912 Y-0.996
G1 X-2.981 Y-1.053
G1 X-3.058 Y-1.115
G1 X-3.139 Y-1.180
G1 X-3.220 Y-1.248
G1 X-3.298 Y-1.316
G1 X-3.368 Y-1.383
G1 X-3.428 Y-1.448
G1 X-3.475 Y-1.509
G1 X-3.506 Y-1.564
G1 X-3.520 Y-1.613
G1 X-3.516 Y-1.654
G1 X-3.493 Y-1.686
G1 X-3.453 Y-1.709
G1 X-3.395 Y-1.723
G1 X-3.323 Y-1.729
G1 X-3.239 Y-1.726
G1 X-3.145 Y-1.717
G1 X-3.044 Y-1.701
G1 X-2.941 Y-1.682
G1 X-2.838 Y-1.662
G1 X-2.739 Y-1.641
G1 X-2.648 Y-1.622
G1 X-2.567 Y-1.608
G1 X-2.498 Y-1.600
G1 X-2.443 Y-1.600
G1 X-2.405 Y-1.609
G1 X-2.382 Y-1.628
G1 X-2.376 Y-1.659
G1 X-2.385 Y-1.701
G1 X-2.408 Y-1.755
G1 X-2.444 Y-1.818
G1 X-2.489 Y-1.891
G1 X-2.541 Y-1.971
G1 X-2.597 Y-2.056
G1 X-2.654 Y-2.144
G1 X-2.708 Y-2.234
G1 X-2.757 Y-2.321
G1 X-2.799 Y-2.404
G1 X-2.829 Y-2.480
G1 X-2.847 Y-2.546
G1 X-2.852 Y-2.602
G1 X-2.841 Y-2.645
G1 X-2.816 Y-2.675
G1 X-2.776 Y-2.690
G1 X-2.723 Y-2.692
G1 X-2.657 Y-2.680
G1 X-2.581 Y-2.656
G1 X-2.497 Y-2.621
G1 X-2.408 Y-2.578
G1 X-2.315 Y-2.530
G1 X-2.223 Y-2.479
G1 X-2.134 Y-2.428
G1 X-2.050 Y-2.379
G1 X-1.973 Y-2.337
G1 X-1.906 Y-2.304
G1 X-1.850 Y-2.282
G1 X-1.805 Y-2.273
G1 X-1.772 Y-2.278
G1 X-1.752 Y-2.299
G1 X-1.743 Y-2.335
G1 X-1.745 Y-2.387
G1 X-1.755 Y-2.453
G1 X-1.773 Y-2.531
G1 X-1.797 Y-2.620
G1 X-1.823 Y-2.716
G1 X-1.850 Y-2.817
G1 X-1.876 Y-2.919
G1 X-1.898 Y-3.019
G1 X-1.914 Y-3.114
G1 X-1.923 Y-3.200
G1 X-1.924 Y-3.275
G1 X-1.915 Y-3.335
G1 X-1.896 Y-3.380
G1 X-1.867 Y-3.408
G1 X-1.828 Y-3.417
G1 X-1.780 Y-3.409
G1 X-1.724 Y-3.385
G1 X-1.662 Y-3.344
G1 X-1.594 Y-3.290
G1 X-1.523 Y-3.226
G1 X-1.450 Y-3.153
G1 X-1.378 Y-3.077
G1 X-1.308 Y-3.000
G1 X-1.241 Y-2.926
G1 X-1.179 Y-2.858
G1 X-1.122 Y-2.801
G1 X-1.073 Y-2.756
G1 X-1.030 Y-2.726
G1 X-0.994 Y-2.714
G1 X-0.966 Y-2.720
G1 X-0.943 Y-2.744
G1 X-0.927 Y-2.787
G1 X-0.915 Y-2.846
G1 X-0.907 Y-2.921
G1 X-0.901 Y-3.008
G1 X-0.897 Y-3.104
G1 X-0.892 Y-3.207
G1 X-0.885 Y-3.312
G1 X-0.876 Y-3.416
G1 X-0.864 Y-3.515
G1 X-0.848 Y-3.604
G1 X-0.828 Y-3.681
G1 X-0.802 Y-3.743
G1 X-0.772 Y-3.787
G1 X-0.738 Y-3.813
G1 X-0.699 Y-3.819
G1 X-0.657 Y-3.804
G1 X-0.613 Y-3.771
G1 X-0.567 Y-3.720
G1 X-0.519 Y-3.653
G1 X-0.471 Y-3.574
G1 X-0.424 Y-3.486
G1 X-0.379 Y-3.392
G1 X-0.335 Y-3.296
G1 X-0.293 Y-3.203
G1 X-0.253 Y-3.116
G1 X-0.217 Y-3.039
G1 X-0.182 Y-2.975
G1 X-0.150 Y-2.926
G1 X-0.119 Y-2.896
G1 X-0.090 Y-2.884
G1 X-0.061 Y-2.892
G1 X-0.033 Y-2.920
G1 X-0.003 Y-2.966
G1 X0.027 Y-3.028
G1 X0.059 Y-3.104
G1 X0.092 Y-3.191
G1 X0.128 Y-3.285
G1 X0.165 Y-3.383
G1 X0.205 Y-3.480
G1 X0.246 Y-3.573
G1 X0.289 Y-3.658
G1 X0.332 Y-3.731
G1 X0.376 Y-3.788
G1 X0.419 Y-3.829
G1 X0.460 Y-3.851
G1 X0.499 Y-3.853
G1 X0.536 Y-3.835
G1 X0.569 Y-3.797
G1 X0.599 Y-3.741
G1 X0.625 Y-3.669
G1 X0.648 Y-3.584
G1 X0.667 Y-3.488
G1 X0.682 Y-3.386
G1 X0.696 Y-3.282
G1 X0.707 Y-3.178
G1 X0.717 Y-3.080
G1 X0.728 Y-2.991
G1 X0.740 Y-2.913
G1 X0.755 Y-2.851
G1 X0.773 Y-2.805
G1 X0.795 Y-2.777
G1 X0.823 Y-2.768
G1 X0.856 Y-2.778
G1 X0.895 Y-2.805
G1 X0.940 Y-2.849
G1 X0.992 Y-2.907
G1 X1.049 Y-2.975
G1 X1.110 Y-3.052
G1 X1.175 Y-3.132
G1 X1.242 Y-3.214
G1 X1.310 Y-3.292
G1 X1.378 Y-3.363
G1 X1.443 Y-3.424
G1 X1.504 Y-3.471
G1 X1.560 Y-3.504
G1 X1.609 Y-3.519
G1 X1.651 Y-3.517
G1 X1.684 Y-3.496
G1 X1.708 Y-3.456
G1 X1.722 Y-3.400
G1 X1.729 Y-3.329
G1 X1.727 Y-3.246
G1 X1.717 Y-3.152
G1 X1.703 Y-3.052
G1 X1.684 Y-2.949
G1 X1.663 Y-2.846
G1 X1.642 Y-2.747
G1 X1.624 Y-2.655
G1 X1.609 Y-2.573
G1 X1.600 Y-2.503
G1 X1.599 Y-2.447
G1 X1.608 Y-2.407
G1 X1.627 Y-2.383
G1 X1.656 Y-2.376
G1 X1.698 Y-2.384
G1 X1.750 Y-2.406
G1 X1.813 Y-2.440
G1 X1.885 Y-2.485
G1 X1.964 Y-2.536
G1 X2.049 Y-2.592
G1 X2.137 Y-2.649
G1 X2.227 Y-2.704
G1 X2.314 Y-2.754
G1 X2.397 Y-2.796
G1 X2.474 Y-2.827
G1 X2.541 Y-2.846
G1 X2.598 Y-2.852
G1 X2.642 Y-2.843
G1 X2.673 Y-2.819
G1 X2.689 Y-2.780
G1 X2.692 Y-2.727
G1 X2.681 Y-2.663
G1 X2.658 Y-2.587
G1 X2.624 Y-2.504
G1 X2.582 Y-2.415
G1 X2.534 Y-2.323
G1 X2.483 Y-2.231
G1 X2.432 Y-2.141
G1 X2.383 Y-2.056
G1 X2.340 Y-1.979
G1 X2.306 Y-1.911
G1 X2.283 Y-1.854
G1 X2.273 Y-1.808
G1 X2.277 Y-1.774
G1 X2.297 Y-1.753
G1 X2.332 Y-1.743
G1 X2.382 Y-1.744
G1 X2.447 Y-1.754
G1 X2.525 Y-1.772
G1 X2.613 Y-1.795
G1 X2.708 Y-1.821
G1 X2.809 Y-1.848
G1 X2.911 Y-1.874
G1 X3.011 Y-1.896
G1 X3.107 Y-1.913
G1 X3.194 Y-1.923
G1 X3.269 Y-1.924
G1 X3.331 Y-1.916
G1 X3.377 Y-1.898
G1 X3.406 Y-1.869
G1 X3.417 Y-1.831
G1 X3.411 Y-1.784
G1 X3.387 Y-1.729
G1 X3.348 Y-1.667
G1 X3.295 Y-1.599
G1 X3.231 Y-1.529
G1 X3.159 Y-1.456
G1 X3.083 Y-1.384
G1 X3.006 Y-1.313
G1 X2.931 Y-1.246
G1 X2.863 Y-1.183
G1 X2.805 Y-1.127
G1 X2.759 Y-1.076
G1 X2.728 Y-1.033
G1 X2.714 Y-0.997
G1 X2.719 Y-0.968
G1 X2.742 Y-0.945
G1 X2.783 Y-0.928
G1 X2.841 Y-0.916
G1 X2.914 Y-0.908
G1 X3.000 Y-0.902
G1 X3.096 Y-0.897
G1 X3.199 Y-0.892
G1 X3.304 Y-0.886
G1 X3.408 Y-0.877
G1 X3.507 Y-0.865
G1 X3.597 Y-0.850
G1 X3.675 Y-0.829
G1 X3.739 Y-0.804
G1 X3.785 Y-0.775
G1 X3.812 Y-0.741
G1 X3.819 Y-0.703
G1 X3.806 Y-0.661
G1 X3.774 Y-0.617
G1 X3.724 Y-0.570
G1 X3.659 Y-0.523
G1 X3.581 Y-0.475
G1 X3.493 Y-0.428
G1 X3.399 Y-0.382
G1 X3.304 Y-0.338
G1 X3.210 Y-0.296
G1 X3.123 Y-0.256
G1 X3.044 Y-0.219
G1 X2.979 Y-0.185
G1 X2.929 Y-0.152
G1 X2.897 Y-0.122
G1 X2.884 Y-0.092
G1 X2.891 Y-0.063
G1 X2.917 Y-0.035
G1 X2.961 Y-0.006
G1 X3.022 Y0.024
G1 X3.097 Y0.056
G1 X3.184 Y0.089
G1 X3.278 Y0.125
G1 X3.375 Y0.162
G0 Z0.6
G0 X4.050 Y0.376
Z0.6
Z0.2
Z0.01
G1 Z-0.125 F400
G1 X4.050 Y0.376
G1 X4.143 Y0.426
G1 X4.230 Y0.478
G1 X4.308 Y0.530
G1 X4.371 Y0.583
G1 X4.419 Y0.634
G1 X4.449 Y0.684
G1 X4.460 Y0.731
G1 X4.450 Y0.775
G1 X4.421 Y0.816
G1 X4.372 Y0.852
G1 X4.306 Y0.884
G1 X4.226 Y0.912
G1 X4.133 Y0.935
G1 X4.033 Y0.955
G1 X3.927 Y0.971
G1 X3.821 Y0.986
G1 X3.717 Y0.999
G1 X3.620 Y1.012
G1 X3.534 Y1.026
G1 X3.460 Y1.042
G1 X3.402 Y1.062
G1 X3.362 Y1.086
G1 X3.339 Y1.116
G1 X3.336 Y1.152
G1 X3.350 Y1.194
G1 X3.381 Y1.244
G1 X3.427 Y1.300
G1 X3.486 Y1.362
G1 X3.554 Y1.430
G1 X3.628 Y1.502
G1 X3.704 Y1.577
G1 X3.779 Y1.654
G1 X3.849 Y1.730
G1 X3.910 Y1.805
G1 X3.961 Y1.877
G1 X3.997 Y1.943
G1 X4.017 Y2.003
G1 X4.020 Y2.055
G1 X4.004 Y2.097
G1 X3.971 Y2.131
G1 X3.921 Y2.155
G1 X3.854 Y2.169
G1 X3.774 Y2.173
G1 X3.683 Y2.170
G1 X3.583 Y2.160
G1 X3.479 Y2.145
G1 X3.373 Y2.126
G1 X3.269 Y2.107
G1 X3.170 Y2.088
G1 X3.079 Y2.072
G1 X2.999 Y2.062
G1 X2.931 Y2.060
G1 X2.879 Y2.066
G1 X2.842 Y2.083
G1 X2.821 Y2.111
G1 X2.815 Y2.151
G1 X2.824 Y2.203
G1 X2.845 Y2.266
G1 X2.878 Y2.339
G1 X2.919 Y2.421
G1 X2.966 Y2.511
G1 X3.015 Y2.604
G1 X3.063 Y2.700
G1 X3.109 Y2.796
G1 X3.147 Y2.888
G1 X3.177 Y2.975
G1 X3.197 Y3.053
G1 X3.203 Y3.121
G1 X3.195 Y3.177
G1 X3.174 Y3.219
G1 X3.137 Y3.247
G1 X3.087 Y3.259
G1 X3.025 Y3.258
G1 X2.951 Y3.243
G1 X2.868 Y3.216
G1 X2.779 Y3.179
G1 X2.685 Y3.135
G1 X2.590 Y3.086
G1 X2.496 Y3.035
G1 X2.405 Y2.985
G1 X2.321 Y2.939
G1 X2.244 Y2.901
G1 X2.176 Y2.873
G1 X2.120 Y2.857
G1 X2.075 Y2.855
G1 X2.041 Y2.869
G1 X2.019 Y2.899
G1 X2.007 Y2.944
G1 X2.005 Y3.005
G1 X2.010 Y3.079
G1 X2.022 Y3.166
G1 X2.037 Y3.262
G1 X2.055 Y3.365
G1 X2.072 Y3.471
G1 X2.087 Y3.577
G1 X2.098 Y3.679
G1 X2.103 Y3.774
G1 X2.100 Y3.860
G1 X2.089 Y3.932
G1 X2.069 Y3.990
G1 X2.039 Y4.030
G1 X2.000 Y4.053
G1 X1.951 Y4.058
G1 X1.895 Y4.044
G1 X1.832 Y4.014
G1 X1.764 Y3.968
G1 X1.691 Y3.910
G1 X1.617 Y3.842
G1 X1.541 Y3.767
G1 X1.466 Y3.690
G1 X1.394 Y3.613
G1 X1.326 Y3.540
G1 X1.262 Y3.476
G1 X1.204 Y3.423
G1 X1.153 Y3.384
G1 X1.107 Y3.361
G1 X1.069 Y3.356
G1 X1.036 Y3.369
G1 X1.009 Y3.401
G1 X0.986 Y3.451
G1 X0.967 Y3.518
G1 X0.951 Y3.599
G1 X0.936 Y3.691
G1 X0.921 Y3.792
G1 X0.905 Y3.897
G1 X0.888 Y4.003
G1 X0.868 Y4.106
G1 X0.844 Y4.202
G1 X0.817 Y4.288
G1 X0.786 Y4.360
G1 X0.750 Y4.416
G1 X0.711 Y4.453
G1 X0.668 Y4.471
G1 X0.622 Y4.469
G1 X0.574 Y4.447
G1 X0.524 Y4.406
G1 X0.473 Y4.348
G1 X0.422 Y4.275
G1 X0.371 Y4.191
G1 X0.322 Y4.099
G1 X0.274 Y4.002
G1 X0.228 Y3.906
G1 X0.184 Y3.813
G1 X0.143 Y3.728
G1 X0.103 Y3.654
G1 X0.066 Y3.595
G1 X0.029 Y3.551
G1 X-0.006 Y3.527
G1 X-0.041 Y3.521
G1 X-0.077 Y3.535
G1 X-0.113 Y3.568
G1 X-0.151 Y3.619
G1 X-0.191 Y3.685
G1 X-0.233 Y3.764
G1 X-0.277 Y3.852
G1 X-0.323 Y3.946
G1 X-0.372 Y4.042
G1 X-0.422 Y4.136
G1 X-0.474 Y4.224
G1 X-0.526 Y4.302
G1 X-0.578 Y4.367
G1 X-0.630 Y4.416
G1 X-0.680 Y4.448
G1 X-0.727 Y4.460
G1 X-0.772 Y4.452
G1 X-0.813 Y4.424
G1 X-0.849 Y4.377
G1 X-0.882 Y4.312
G1 X-0.910 Y4.233
G1 X-0.933 Y4.141
G1 X-0.953 Y4.041
G1 X-0.970 Y3.935
G1 X-0.985 Y3.829
G1 X-0.998 Y3.725
G1 X-1.011 Y3.628
G1 X-1.025 Y3.540
G1 X-1.041 Y3.466
G1 X-1.060 Y3.406
G1 X-1.084 Y3.364
G1 X-1.113 Y3.341
G1 X-1.149 Y3.335
G1 X-1.191 Y3.348
G1 X-1.240 Y3.378
G1 X-1.295 Y3.423
G1 X-1.357 Y3.481
G1 X-1.424 Y3.548
G1 X-1.496 Y3.621
G1 X-1.571 Y3.698
G1 X-1.647 Y3.773
G1 X-1.724 Y3.843
G1 X-1.799 Y3.906
G1 X-1.871 Y3.957
G1 X-1.938 Y3.994
G1 X-1.998 Y4.016
G1 X-2.051 Y4.020
G1 X-2.094 Y4.006
G1 X-2.129 Y3.974
G1 X-2.153 Y3.925
G1 X-2.168 Y3.860
G1 X-2.173 Y3.781
G1 X-2.171 Y3.690
G1 X-2.161 Y3.591
G1 X-2.146 Y3.487
G1 X-2.128 Y3.381
G1 X-2.108 Y3.277
G1 X-2.089 Y3.177
G1 X-2.074 Y3.086
G1 X-2.063 Y3.005
G1 X-2.060 Y2.936
G1 X-2.065 Y2.883
G1 X-2.081 Y2.844
G1 X-2.108 Y2.822
G1 X-2.147 Y2.815
G1 X-2.198 Y2.823
G1 X-2.260 Y2.843
G1 X-2.333 Y2.875
G1 X-2.415 Y2.916
G1 X-2.503 Y2.962
G1 X-2.597 Y3.011
G1 X-2.693 Y3.060
G1 X-2.788 Y3.105
G1 X-2.881 Y3.145
G1 X-2.968 Y3.175
G1 X-3.047 Y3.195
G1 X-3.116 Y3.203
G1 X-3.173 Y3.197
G1 X-3.216 Y3.176
G1 X-3.245 Y3.141
G1 X-3.259 Y3.092
G1 X-3.259 Y3.030
G1 X-3.245 Y2.957
G1 X-3.219 Y2.875
G1 X-3.183 Y2.786
G1 X-3.139 Y2.693
G1 X-3.090 Y2.598
G1 X-3.039 Y2.503
G1 X-2.989 Y2.412
G1 X-2.943 Y2.327
G1 X-2.904 Y2.250
G1 X-2.875 Y2.181
G1 X-2.858 Y2.124
G1 X-2.855 Y2.078
G1 X-2.867 Y2.043
G1 X-2.896 Y2.020
G1 X-2.940 Y2.007
G1 X-2.999 Y2.004
G1 X-3.073 Y2.009
G1 X-3.159 Y2.021
G1 X-3.254 Y2.036
G1 X-3.356 Y2.054
G1 X-3.462 Y2.071
G1 X-3.568 Y2.086
G1 X-3.671 Y2.097
G1 X-3.767 Y2.103
G1 X-3.853 Y2.101
G1 X-3.927 Y2.090
G1 X-3.986 Y2.071
G1 X-4.028 Y2.041
G1 X-4.052 Y2.003
G1 X-4.058 Y1.956
G1 X-4.046 Y1.900
G1 X-4.017 Y1.838
G1 X-3.972 Y1.770
G1 X-3.915 Y1.697
G1 X-3.847 Y1.623
G1 X-3.773 Y1.547
G1 X-3.696 Y1.472
G1 X-3.619 Y1.400
G1 X-3.546 Y1.331
G1 X-3.481 Y1.267
G1 X-3.427 Y1.209
G1 X-3.387 Y1.157
G1 X-3.362 Y1.111
G1 X-3.356 Y1.072
G1 X-3.368 Y1.038
G1 X-3.398 Y1.011
G1 X-3.447 Y0.988
G1 X-3.512 Y0.969
G1 X-3.592 Y0.952
G1 X-3.683 Y0.937
G1 X-3.783 Y0.922
G1 X-3.888 Y0.907
G1 X-3.995 Y0.889
G1 X-4.098 Y0.870
G1 X-4.195 Y0.846
G1 X-4.282 Y0.819
G1 X-4.355 Y0.788
G1 X-4.412 Y0.753
G1 X-4.451 Y0.714
G1 X-4.471 Y0.672
G1 X-4.470 Y0.626
G1 X-4.449 Y0.578
G1 X-4.410 Y0.528
G1 X-4.353 Y0.477
G1 X-4.281 Y0.426
G1 X-4.198 Y0.375
G1 X-4.106 Y0.325
G1 X-4.010 Y0.278
G1 X-3.914 Y0.232
G1 X-3.820 Y0.188
G1 X-3.735 Y0.146
G1 X-3.660 Y0.107
G1 X-3.599 Y0.069
G1 X-3.554 Y0.032
G1 X-3.528 Y-0.003
G1 X-3.521 Y-0.038
G1 X-3.533 Y-0.074
G1 X-3.565 Y-0.110
G1 X-3.614 Y-0.148
G1 X-3.679 Y-0.187
G1 X-3.757 Y-0.229
G1 X-3.845 Y-0.273
G1 X-3.938 Y-0.319
G1 X-4.034 Y-0.368
G1 X-4.129 Y-0.418
G1 X-4.217 Y-0.470
G1 X-4.296 Y-0.522
G1 X-4.362 Y-0.574
G1 X-4.413 Y-0.626
G1 X-4.446 Y-0.676
G1 X-4.459 Y-0.724
G1 X-4.453 Y-0.769
G1 X-4.427 Y-0.810
G1 X-4.381 Y-0.847
G1 X-4.318 Y-0.879
G1 X-4.240 Y-0.908
G1 X-4.149 Y-0.932
G1 X-4.049 Y-0.952
G1 X-3.944 Y-0.969
G1 X-3.837 Y-0.984
G1 X-3.733 Y-0.997
G1 X-3.635 Y-1.010
G1 X-3.547 Y-1.023
G1 X-3.471 Y-1.039
G1 X-3.411 Y-1.058
G1 X-3.367 Y-1.082
G1 X-3.342 Y-1.111
G1 X-3.335 Y-1.146
G1 X-3.347 Y-1.187
G1 X-3.375 Y-1.235
G1 X-3.419 Y-1.290
G1 X-3.476 Y-1.352
G1 X-3.542 Y-1.419
G1 X-3.615 Y-1.490
G1 X-3.692 Y-1.565
G1 X-3.767 Y-1.641
G1 X-3.838 Y-1.718
G1 X-3.901 Y-1.793
G1 X-3.953 Y-1.866
G1 X-3.992 Y-1.933
G1 X-4.015 Y-1.994
G1 X-4.020 Y-2.047
G1 X-4.008 Y-2.091
G1 X-3.978 Y-2.126
G1 X-3.930 Y-2.151
G1 X-3.866 Y-2.167
G1 X-3.788 Y-2.173
G1 X-3.698 Y-2.171
G1 X-3.599 Y-2.162
G1 X-3.496 Y-2.148
G1 X-3.390 Y-2.129
G1 X-3.285 Y-2.110
G1 X-3.185 Y-2.091
G1 X-3.092 Y-2.075
G1 X-3.011 Y-2.064
G1 X-2.941 Y-2.060
G1 X-2.886 Y-2.064
G1 X-2.847 Y-2.080
G1 X-2.823 Y-2.106
G1 X-2.815 Y-2.144
G1 X-2.821 Y-2.194
G1 X-2.841 Y-2.255
G1 X-2.872 Y-2.327
G1 X-2.912 Y-2.408
G1 X-2.958 Y-2.496
G1 X-3.007 Y-2.589
G1 X-3.056 Y-2.685
G1 X-3.102 Y-2.781
G1 X-3.142 Y-2.874
G1 X-3.173 Y-2.962
G1 X-3.194 Y-3.042
G1 X-3.203 Y-3.111
G1 X-3.198 Y-3.169
G1 X-3.178 Y-3.213
G1 X-3.144 Y-3.243
G1 X-3.096 Y-3.258
G1 X-3.036 Y-3.259
G1 X-2.964 Y-3.246
G1 X-2.882 Y-3.221
G1 X-2.794 Y-3.186
G1 X-2.700 Y-3.142
G1 X-2.605 Y-3.094
G1 X-2.511 Y-3.043
G1 X-2.419 Y-2.992
G1 X-2.334 Y-2.946
G1 X-2.255 Y-2.907
G1 X-2.186 Y-2.877
G1 X-2.128 Y-2.859
G1 X-2.081 Y-2.855
G1 X-2.045 Y-2.866
G1 X-2.021 Y-2.893
G1 X-2.008 Y-2.936
G1 X-2.004 Y-2.994
G1 X-2.009 Y-3.067
G1 X-2.020 Y-3.152
G1 X-2.035 Y-3.246
G1 X-2.052 Y-3.348
G1 X-2.070 Y-3.454
G1 X-2.085 Y-3.560
G1 X-2.097 Y-3.663
G1 X-2.103 Y-3.760
G1 X-2.101 Y-3.847
G1 X-2.091 Y-3.922
G1 X-2.072 Y-3.982
G1 X-2.044 Y-4.025
G1 X-2.006 Y-4.051
G1 X-1.960 Y-4.058
G1 X-1.905 Y-4.047
G1 X-1.843 Y-4.019
G1 X-1.775 Y-3.976
G1 X-1.703 Y-3.920
G1 X-1.629 Y-3.853
G1 X-1.553 Y-3.779
G1 X-1.478 Y-3.702
G1 X-1.405 Y-3.625
G1 X-1.336 Y-3.552
G1 X-1.272 Y-3.486
G1 X-1.213 Y-3.431
G1 X-1.160 Y-3.389
G1 X-1.114 Y-3.364
G1 X-1.074 Y-3.356
G1 X-1.041 Y-3.366
G1 X-1.013 Y-3.395
G1 X-0.989 Y-3.442
G1 X-0.970 Y-3.506
G1 X-0.953 Y-3.585
G1 X-0.938 Y-3.676
G1 X-0.923 Y-3.775
G1 X-0.908 Y-3.880
G1 X-0.891 Y-3.986
G1 X-0.871 Y-4.090
G1 X-0.848 Y-4.188
G1 X-0.822 Y-4.275
G1 X-0.791 Y-4.350
G1 X-0.756 Y-4.408
G1 X-0.717 Y-4.449
G1 X-0.675 Y-4.470
G1 X-0.629 Y-4.471
G1 X-0.581 Y-4.451
G1 X-0.532 Y-4.413
G1 X-0.481 Y-4.358
G1 X-0.430 Y-4.287
G1 X-0.379 Y-4.205
G1 X-0.329 Y-4.114
G1 X-0.281 Y-4.018
G1 X-0.235 Y-3.921
G1 X-0.191 Y-3.828
G1 X-0.149 Y-3.741
G1 X-0.110 Y-3.665
G1 X-0.072 Y-3.603
G1 X-0.035 Y-3.557
G1 X0.000 Y-3.529
G1 X0.036 Y-3.521
G1 X0.071 Y-3.532
G1 X0.107 Y-3.562
G1 X0.145 Y-3.610
G1 X0.184 Y-3.673
G1 X0.226 Y-3.750
G1 X0.269 Y-3.837
G1 X0.316 Y-3.931
G1 X0.364 Y-4.027
G1 X0.414 Y-4.121
G1 X0.465 Y-4.210
G1 X0.518 Y-4.290
G1 X0.570 Y-4.358
G1 X0.622 Y-4.410
G1 X0.672 Y-4.444
G1 X0.720 Y-4.459
G1 X0.765 Y-4.454
G1 X0.807 Y-4.429
G1 X0.844 Y-4.385
G1 X0.877 Y-4.323
G1 X0.906 Y-4.246
G1 X0.930 Y-4.156
G1 X0.950 Y-4.057
G1 X0.968 Y-3.952
G1 X0.982 Y-3.846
G1 X0.996 Y-3.741
G1 X1.009 Y-3.643
G1 X1.022 Y-3.553
G1 X1.038 Y-3.477
G1 X1.057 Y-3.415
G1 X1.080 Y-3.370
G1 X1.108 Y-3.343
G1 X1.143 Y-3.335
G1 X1.184 Y-3.345
G1 X1.231 Y-3.372
G1 X1.286 Y-3.415
G1 X1.347 Y-3.471
G1 X1.413 Y-3.537
G1 X1.484 Y-3.610
G1 X1.559 Y-3.686
G1 X1.635 Y-3.761
G1 X1.712 Y-3.833
G1 X1.788 Y-3.897
G1 X1.860 Y-3.950
G1 X1.928 Y-3.990
G1 X1.989 Y-4.014
G1 X2.043 Y-4.021
G1 X2.088 Y-4.010
G1 X2.124 Y-3.981
G1 X2.150 Y-3.934
G1 X2.166 Y-3.871
G1 X2.173 Y-3.794
G1 X2.172 Y-3.705
G1 X2.163 Y-3.608
G1 X2.149 Y-3.504
G1 X2.131 Y-3.398
G1 X2.111 Y-3.293
G1 X2.092 Y-3.193
G1 X2.076 Y-3.099
G1 X2.064 Y-3.017
G1 X2.060 Y-2.946
G1 X2.064 Y-2.890
G1 X2.078 Y-2.849
G1 X2.103 Y-2.824
G1 X2.140 Y-2.815
G1 X2.189 Y-2.820
G1 X2.250 Y-2.839
G1 X2.321 Y-2.869
G1 X2.401 Y-2.909
G1 X2.489 Y-2.954
G1 X2.582 Y-3.003
G1 X2.677 Y-3.052
G1 X2.773 Y-3.098
G1 X2.867 Y-3.139
G1 X2.955 Y-3.171
G1 X3.036 Y-3.193
G1 X3.106 Y-3.203
G1 X3.165 Y-3.198
G1 X3.210 Y-3.180
G1 X3.241 Y-3.147
G1 X3.258 Y-3.101
G1 X3.260 Y-3.041
G1 X3.248 Y-2.970
G1 X3.224 Y-2.889
G1 X3.189 Y-2.801
G1 X3.146 Y-2.708
G1 X3.098 Y-2.613
G1 X3.047 Y-2.518
G1 X2.996 Y-2.426
G1 X2.950 Y-2.340
G1 X2.909 Y-2.261
G1 X2.879 Y-2.192
G1 X2.860 Y-2.132
G1 X2.855 Y-2.084
G1 X2.864 Y-2.048
G1 X2.890 Y-2.023
G1 X2.932 Y-2.009
G1 X2.989 Y-2.004
G1 X3.060 Y-2.008
G1 X3.144 Y-2.019
G1 X3.238 Y-2.033
G1 X3.340 Y-2.051
G1 X3.445 Y-2.068
G1 X3.551 Y-2.084
G1 X3.655 Y-2.096
G1 X3.752 Y-2.102
G1 X3.840 Y-2.101
G1 X3.916 Y-2.092
G1 X3.978 Y-2.074
G1 X4.022 Y-2.047
G1 X4.049 Y-2.010
G1 X4.058 Y-1.964
G1 X4.049 Y-1.909
G1 X4.022 Y-1.848
G1 X3.980 Y-1.781
G1 X3.925 Y-1.709
G1 X3.859 Y-1.635
G1 X3.785 Y-1.559
G1 X3.708 Y-1.484
G1 X3.631 Y-1.411
G1 X3.557 Y-1.342
G1 X3.491 Y-1.277
G1 X3.435 Y-1.218
G1 X3.392 Y-1.164
G1 X3.365 Y-1.118
G1 X3.356 Y-1.077
G1 X3.365 Y-1.043
G1 X3.392 Y-1.015
G1 X3.438 Y-0.991
G1 X3.501 Y-0.971
G1 X3.578 Y-0.955
G1 X3.668 Y-0.939
G1 X3.767 Y-0.925
G1 X3.872 Y-0.909
G1 X3.978 Y-0.892
G1 X4.082 Y-0.873
G1 X4.180 Y-0.850
G1 X4.269 Y-0.824
G1 X4.344 Y-0.794
G1 X4.404 Y-0.759
G1 X4.446 Y-0.721
G1 X4.469 Y-0.679
G1 X4.471 Y-0.633
G1 X4.454 Y-0.585
G1 X4.417 Y-0.536
G1 X4.363 Y-0.485
G1 X4.293 Y-0.434
G1 X4.212 Y-0.383
G1 X4.121 Y-0.333
G1 X4.026 Y-0.285
G1 X3.929 Y-0.239
G1 X3.835 Y-0.195
G1 X3.748 Y-0.153
G1 X3.671 Y-0.113
G1 X3.608 Y-0.075
G1 X3.560 Y-0.038
G1 X3.531 Y-0.002
G1 X3.521 Y0.033
G1 X3.530 Y0.068
G1 X3.559 Y0.104
G1 X3.605 Y0.142
G1 X3.668 Y0.181
G1 X3.744 Y0.222
G1 X3.830 Y0.266
G1 X3.923 Y0.312
G1 X4.019 Y0.360
G0 Z0.6
G0 X4.681 Y0.630
Z0.6
Z0.2
Z0.01
G1 Z-0.125 F400
G1 X4.681 Y0.630
G1 X4.770 Y0.690
G1 X4.853 Y0.752
G1 X4.924 Y0.814
G1 X4.982 Y0.874
G1 X5.023 Y0.934
G1 X5.046 Y0.990
G1 X5.049 Y1.043
G1 X5.032 Y1.092
G1 X4.996 Y1.137
G1 X4.941 Y1.176
G1 X4.869 Y1.211
G1 X4.784 Y1.241
G1 X4.687 Y1.266
G1 X4.582 Y1.287
G1 X4.474 Y1.305
G1 X4.365 Y1.321
G1 X4.261 Y1.336
G1 X4.163 Y1.351
G1 X4.077 Y1.368
G1 X4.004 Y1.388
G1 X3.946 Y1.413
G1 X3.906 Y1.443
G1 X3.884 Y1.479
G1 X3.881 Y1.522
G1 X3.895 Y1.572
G1 X3.925 Y1.630
G1 X3.969 Y1.695
G1 X4.024 Y1.767
G1 X4.088 Y1.844
G1 X4.158 Y1.926
G1 X4.228 Y2.010
G1 X4.297 Y2.095
G1 X4.359 Y2.180
G1 X4.413 Y2.262
G1 X4.455 Y2.340
G1 X4.482 Y2.412
G1 X4.493 Y2.477
G1 X4.487 Y2.532
G1 X4.464 Y2.578
G1 X4.422 Y2.613
G1 X4.364 Y2.638
G1 X4.291 Y2.653
G1 X4.205 Y2.658
G1 X4.109 Y2.655
G1 X4.005 Y2.645
G1 X3.897 Y2.630
G1 X3.788 Y2.613
G1 X3.682 Y2.594
G1 X3.582 Y2.577
G1 X3.490 Y2.565
G1 X3.409 Y2.558
G1 X3.341 Y2.560
G1 X3.287 Y2.571
G1 X3.249 Y2.594
G1 X3.226 Y2.629
G1 X3.217 Y2.676
G1 X3.223 Y2.735
G1 X3.240 Y2.806
G1 X3.268 Y2.888
G1 X3.302 Y2.978
G1 X3.342 Y3.074
G1 X3.383 Y3.175
G1 X3.423 Y3.278
G1 X3.459 Y3.379
G1 X3.488 Y3.477
G1 X3.508 Y3.567
G1 X3.517 Y3.649
G1 X3.514 Y3.719
G1 X3.497 Y3.776
G1 X3.466 Y3.818
G1 X3.421 Y3.845
G1 X3.363 Y3.857
G1 X3.293 Y3.855
G1 X3.214 Y3.838
G1 X3.126 Y3.810
G1 X3.032 Y3.772
G1 X2.934 Y3.726
G1 X2.836 Y3.677
G1 X2.739 Y3.626
G1 X2.647 Y3.577
G1 X2.560 Y3.533
G1 X2.482 Y3.498
G1 X2.412 Y3.473
G1 X2.353 Y3.462
G1 X2.305 Y3.465
G1 X2.268 Y3.484
G1 X2.241 Y3.519
G1 X2.224 Y3.571
G1 X2.216 Y3.638
G1 X2.214 Y3.719
G1 X2.218 Y3.811
G1 X2.225 Y3.913
G1 X2.233 Y4.020
G1 X2.240 Y4.130
G1 X2.245 Y4.239
G1 X2.245 Y4.343
G1 X2.239 Y4.440
G1 X2.225 Y4.525
G1 X2.204 Y4.597
G1 X2.174 Y4.653
G1 X2.135 Y4.691
G1 X2.087 Y4.711
G1 X2.032 Y4.713
G1 X1.969 Y4.696
G1 X1.900 Y4.662
G1 X1.827 Y4.613
G1 X1.750 Y4.552
G1 X1.672 Y4.482
G1 X1.593 Y4.406
G1 X1.516 Y4.327
G1 X1.442 Y4.250
G1 X1.371 Y4.179
G1 X1.305 Y4.116
G1 X1.244 Y4.066
G1 X1.190 Y4.029
G1 X1.140 Y4.010
G1 X1.097 Y4.009
G1 X1.058 Y4.027
G1 X1.025 Y4.063
G1 X0.995 Y4.117
G1 X0.967 Y4.188
G1 X0.942 Y4.272
G1 X0.917 Y4.367
G1 X0.892 Y4.469
G1 X0.866 Y4.576
G1 X0.838 Y4.682
G1 X0.807 Y4.784
G1 X0.772 Y4.878
G1 X0.735 Y4.961
G1 X0.694 Y5.030
G1 X0.649 Y5.081
G1 X0.601 Y5.114
G1 X0.551 Y5.127
G1 X0.498 Y5.119
G1 X0.444 Y5.091
G1 X0.389 Y5.045
G1 X0.335 Y4.982
G1 X0.280 Y4.906
G1 X0.227 Y4.818
G1 X0.175 Y4.723
G1 X0.125 Y4.625
G1 X0.077 Y4.527
G1 X0.031 Y4.434
G1 X-0.013 Y4.350
G1 X-0.055 Y4.277
G1 X-0.097 Y4.219
G1 X-0.138 Y4.178
G1 X-0.179 Y4.156
G1 X-0.220 Y4.152
G1 X-0.263 Y4.169
G1 X-0.307 Y4.204
G1 X-0.354 Y4.256
G1 X-0.403 Y4.322
G1 X-0.455 Y4.401
G1 X-0.509 Y4.488
G1 X-0.566 Y4.580
G1 X-0.625 Y4.673
G1 X-0.686 Y4.763
G1 X-0.747 Y4.846
G1 X-0.809 Y4.919
G1 X-0.870 Y4.978
G1 X-0.929 Y5.021
G1 X-0.986 Y5.045
G1 X-1.039 Y5.050
G1 X-1.089 Y5.035
G1 X-1.134 Y5.000
G1 X-1.173 Y4.946
G1 X-1.208 Y4.876
G1 X-1.238 Y4.791
G1 X-1.264 Y4.695
G1 X-1.285 Y4.591
G1 X-1.303 Y4.483
G1 X-1.319 Y4.374
G1 X-1.334 Y4.269
G1 X-1.350 Y4.171
G1 X-1.367 Y4.083
G1 X-1.386 Y4.009
G1 X-1.411 Y3.950
G1 X-1.440 Y3.909
G1 X-1.476 Y3.885
G1 X-1.518 Y3.880
G1 X-1.568 Y3.893
G1 X-1.626 Y3.922
G1 X-1.690 Y3.965
G1 X-1.761 Y4.019
G1 X-1.838 Y4.083
G1 X-1.919 Y4.152
G1 X-2.003 Y4.223
G1 X-2.089 Y4.291
G1 X-2.173 Y4.354
G1 X-2.256 Y4.409
G1 X-2.334 Y4.452
G1 X-2.407 Y4.481
G1 X-2.472 Y4.493
G1 X-2.528 Y4.489
G1 X-2.575 Y4.466
G1 X-2.611 Y4.426
G1 X-2.637 Y4.369
G1 X-2.652 Y4.297
G1 X-2.658 Y4.212
G1 X-2.656 Y4.117
G1 X-2.646 Y4.013
G1 X-2.632 Y3.906
G1 X-2.614 Y3.797
G1 X-2.596 Y3.690
G1 X-2.579 Y3.589
G1 X-2.565 Y3.497
G1 X-2.558 Y3.415
G1 X-2.559 Y3.346
G1 X-2.570 Y3.291
G1 X-2.592 Y3.251
G1 X-2.625 Y3.227
G1 X-2.672 Y3.217
G1 X-2.730 Y3.222
G1 X-2.800 Y3.238
G1 X-2.881 Y3.265
G1 X-2.970 Y3.299
G1 X-3.067 Y3.339
G1 X-3.167 Y3.380
G1 X-3.270 Y3.420
G1 X-3.371 Y3.456
G1 X-3.469 Y3.486
G1 X-3.560 Y3.507
G1 X-3.643 Y3.517
G1 X-3.714 Y3.514
G1 X-3.772 Y3.498
G1 X-3.815 Y3.469
G1 X-3.844 Y3.425
G1 X-3.857 Y3.368
G1 X-3.855 Y3.299
G1 X-3.840 Y3.220
G1 X-3.812 Y3.133
G1 X-3.775 Y3.039
G1 X-3.730 Y2.942
G1 X-3.681 Y2.844
G1 X-3.630 Y2.747
G1 X-3.581 Y2.654
G1 X-3.537 Y2.567
G1 X-3.500 Y2.488
G1 X-3.475 Y2.417
G1 X-3.462 Y2.358
G1 X-3.464 Y2.309
G1 X-3.482 Y2.270
G1 X-3.516 Y2.243
G1 X-3.566 Y2.225
G1 X-3.632 Y2.216
G1 X-3.712 Y2.214
G1 X-3.804 Y2.218
G1 X-3.904 Y2.224
G1 X-4.011 Y2.232
G1 X-4.121 Y2.240
G1 X-4.230 Y2.245
G1 X-4.335 Y2.245
G1 X-4.432 Y2.240
G1 X-4.519 Y2.227
G1 X-4.592 Y2.206
G1 X-4.649 Y2.177
G1 X-4.689 Y2.138
G1 X-4.710 Y2.091
G1 X-4.713 Y2.036
G1 X-4.698 Y1.974
G1 X-4.665 Y1.906
G1 X-4.618 Y1.833
G1 X-4.557 Y1.756
G1 X-4.488 Y1.678
G1 X-4.412 Y1.600
G1 X-4.333 Y1.522
G1 X-4.256 Y1.448
G1 X-4.184 Y1.377
G1 X-4.121 Y1.310
G1 X-4.069 Y1.249
G1 X-4.032 Y1.194
G1 X-4.011 Y1.144
G1 X-4.009 Y1.100
G1 X-4.025 Y1.061
G1 X-4.060 Y1.027
G1 X-4.112 Y0.997
G1 X-4.181 Y0.970
G1 X-4.265 Y0.944
G1 X-4.359 Y0.919
G1 X-4.461 Y0.894
G1 X-4.567 Y0.868
G1 X-4.673 Y0.840
G1 X-4.776 Y0.809
G1 X-4.871 Y0.775
G1 X-4.955 Y0.738
G1 X-5.025 Y0.697
G1 X-5.078 Y0.653
G1 X-5.112 Y0.605
G1 X-5.126 Y0.555
G1 X-5.120 Y0.503
G1 X-5.094 Y0.449
G1 X-5.050 Y0.394
G1 X-4.988 Y0.339
G1 X-4.912 Y0.284
G1 X-4.825 Y0.231
G1 X-4.731 Y0.179
G1 X-4.633 Y0.129
G1 X-4.535 Y0.081
G1 X-4.442 Y0.035
G1 X-4.356 Y-0.009
G1 X-4.282 Y-0.052
G1 X-4.223 Y-0.094
G1 X-4.181 Y-0.134
G1 X-4.157 Y-0.175
G1 X-4.152 Y-0.217
G1 X-4.167 Y-0.259
G1 X-4.200 Y-0.304
G1 X-4.251 Y-0.350
G1 X-4.316 Y-0.399
G1 X-4.394 Y-0.450
G1 X-4.481 Y-0.505
G1 X-4.573 Y-0.561
G1 X-4.666 Y-0.620
G1 X-4.756 Y-0.681
G1 X-4.840 Y-0.742
G1 X-4.914 Y-0.804
G1 X-4.974 Y-0.865
G1 X-5.018 Y-0.924
G1 X-5.044 Y-0.981
G1 X-5.050 Y-1.035
G1 X-5.036 Y-1.085
G1 X-5.003 Y-1.130
G1 X-4.951 Y-1.170
G1 X-4.882 Y-1.206
G1 X-4.798 Y-1.236
G1 X-4.703 Y-1.262
G1 X-4.599 Y-1.284
G1 X-4.491 Y-1.302
G1 X-4.383 Y-1.318
G1 X-4.277 Y-1.333
G1 X-4.178 Y-1.348
G1 X-4.090 Y-1.365
G1 X-4.014 Y-1.385
G1 X-3.954 Y-1.408
G1 X-3.912 Y-1.437
G1 X-3.887 Y-1.473
G1 X-3.880 Y-1.515
G1 X-3.891 Y-1.564
G1 X-3.919 Y-1.621
G1 X-3.961 Y-1.685
G1 X-4.015 Y-1.755
G1 X-4.078 Y-1.832
G1 X-4.146 Y-1.912
G1 X-4.217 Y-1.996
G1 X-4.286 Y-2.082
G1 X-4.350 Y-2.167
G1 X-4.405 Y-2.250
G1 X-4.449 Y-2.328
G1 X-4.479 Y-2.401
G1 X-4.493 Y-2.467
G1 X-4.490 Y-2.524
G1 X-4.469 Y-2.571
G1 X-4.430 Y-2.608
G1 X-4.375 Y-2.635
G1 X-4.304 Y-2.651
G1 X-4.220 Y-2.658
G1 X-4.125 Y-2.656
G1 X-4.022 Y-2.647
G1 X-3.914 Y-2.633
G1 X-3.806 Y-2.616
G1 X-3.699 Y-2.597
G1 X-3.597 Y-2.580
G1 X-3.504 Y-2.566
G1 X-3.421 Y-2.558
G1 X-3.351 Y-2.559
G1 X-3.295 Y-2.569
G1 X-3.254 Y-2.589
G1 X-3.228 Y-2.622
G1 X-3.218 Y-2.667
G1 X-3.221 Y-2.725
G1 X-3.237 Y-2.794
G1 X-3.263 Y-2.874
G1 X-3.296 Y-2.963
G1 X-3.335 Y-3.059
G1 X-3.377 Y-3.159
G1 X-3.417 Y-3.262
G1 X-3.454 Y-3.363
G1 X-3.484 Y-3.462
G1 X-3.506 Y-3.553
G1 X-3.517 Y-3.636
G1 X-3.515 Y-3.708
G1 X-3.500 Y-3.767
G1 X-3.471 Y-3.812
G1 X-3.429 Y-3.842
G1 X-3.373 Y-3.856
G1 X-3.305 Y-3.856
G1 X-3.227 Y-3.842
G1 X-3.140 Y-3.815
G1 X-3.047 Y-3.778
G1 X-2.950 Y-3.734
G1 X-2.852 Y-3.685
G1 X-2.755 Y-3.634
G1 X-2.661 Y-3.584
G1 X-2.574 Y-3.540
G1 X-2.494 Y-3.503
G1 X-2.423 Y-3.476
G1 X-2.362 Y-3.462
G1 X-2.312 Y-3.463
G1 X-2.273 Y-3.480
G1 X-2.245 Y-3.513
G1 X-2.226 Y-3.562
G1 X-2.217 Y-3.626
G1 X-2.214 Y-3.705
G1 X-2.217 Y-3.796
G1 X-2.224 Y-3.896
G1 X-2.232 Y-4.003
G1 X-2.239 Y-4.112
G1 X-2.244 Y-4.222
G1 X-2.245 Y-4.327
G1 X-2.240 Y-4.425
G1 X-2.228 Y-4.513
G1 X-2.208 Y-4.587
G1 X-2.179 Y-4.645
G1 X-2.142 Y-4.687
G1 X-2.095 Y-4.709
G1 X-2.041 Y-4.714
G1 X-1.979 Y-4.700
G1 X-1.912 Y-4.668
G1 X-1.839 Y-4.622
G1 X-1.763 Y-4.563
G1 X-1.684 Y-4.494
G1 X-1.606 Y-4.418
G1 X-1.528 Y-4.340
G1 X-1.453 Y-4.262
G1 X-1.382 Y-4.190
G1 X-1.315 Y-4.125
G1 X-1.254 Y-4.073
G1 X-1.198 Y-4.034
G1 X-1.148 Y-4.012
G1 X-1.103 Y-4.008
G1 X-1.064 Y-4.023
G1 X-1.030 Y-4.056
G1 X-0.999 Y-4.108
G1 X-0.972 Y-4.175
G1 X-0.946 Y-4.258
G1 X-0.921 Y-4.351
G1 X-0.896 Y-4.453
G1 X-0.870 Y-4.559
G1 X-0.842 Y-4.665
G1 X-0.812 Y-4.768
G1 X-0.778 Y-4.864
G1 X-0.741 Y-4.949
G1 X-0.700 Y-5.020
G1 X-0.656 Y-5.074
G1 X-0.609 Y-5.110
G1 X-0.559 Y-5.126
G1 X-0.507 Y-5.121
G1 X-0.453 Y-5.097
G1 X-0.398 Y-5.054
G1 X-0.343 Y-4.993
G1 X-0.289 Y-4.919
G1 X-0.235 Y-4.832
G1 X-0.183 Y-4.739
G1 X-0.133 Y-4.641
G1 X-0.085 Y-4.543
G1 X-0.038 Y-4.449
G1 X0.006 Y-4.363
G1 X0.049 Y-4.288
G1 X0.090 Y-4.227
G1 X0.131 Y-4.183
G1 X0.172 Y-4.158
G1 X0.213 Y-4.152
G1 X0.256 Y-4.165
G1 X0.300 Y-4.197
G1 X0.346 Y-4.246
G1 X0.395 Y-4.311
G1 X0.446 Y-4.388
G1 X0.500 Y-4.474
G1 X0.557 Y-4.566
G1 X0.616 Y-4.659
G1 X0.676 Y-4.749
G1 X0.737 Y-4.834
G1 X0.799 Y-4.908
G1 X0.860 Y-4.970
G1 X0.920 Y-5.015
G1 X0.977 Y-5.042
G1 X1.031 Y-5.050
G1 X1.081 Y-5.038
G1 X1.127 Y-5.006
G1 X1.167 Y-4.956
G1 X1.203 Y-4.888
G1 X1.234 Y-4.805
G1 X1.260 Y-4.711
G1 X1.282 Y-4.608
G1 X1.301 Y-4.500
G1 X1.317 Y-4.391
G1 X1.332 Y-4.285
G1 X1.347 Y-4.186
G1 X1.364 Y-4.096
G1 X1.383 Y-4.020
G1 X1.406 Y-3.959
G1 X1.435 Y-3.914
G1 X1.469 Y-3.888
G1 X1.511 Y-3.880
G1 X1.560 Y-3.890
G1 X1.616 Y-3.916
G1 X1.679 Y-3.957
G1 X1.749 Y-4.010
G1 X1.825 Y-4.072
G1 X1.906 Y-4.141
G1 X1.990 Y-4.211
G1 X2.075 Y-4.281
G1 X2.160 Y-4.345
G1 X2.243 Y-4.401
G1 X2.322 Y-4.446
G1 X2.396 Y-4.477
G1 X2.462 Y-4.492
G1 X2.520 Y-4.491
G1 X2.568 Y-4.471
G1 X2.606 Y-4.434
G1 X2.633 Y-4.380
G1 X2.650 Y-4.310
G1 X2.658 Y-4.227
G1 X2.657 Y-4.132
G1 X2.648 Y-4.030
G1 X2.634 Y-3.923
G1 X2.617 Y-3.814
G1 X2.598 Y-3.707
G1 X2.581 Y-3.605
G1 X2.567 Y-3.511
G1 X2.559 Y-3.427
G1 X2.558 Y-3.356
G1 X2.567 Y-3.299
G1 X2.587 Y-3.257
G1 X2.619 Y-3.230
G1 X2.663 Y-3.218
G1 X2.720 Y-3.220
G1 X2.788 Y-3.235
G1 X2.867 Y-3.260
G1 X2.956 Y-3.294
G1 X3.051 Y-3.332
G1 X3.151 Y-3.373
G1 X3.254 Y-3.414
G1 X3.355 Y-3.451
G1 X3.454 Y-3.482
G1 X3.546 Y-3.504
G1 X3.630 Y-3.516
G1 X3.703 Y-3.516
G1 X3.763 Y-3.502
G1 X3.809 Y-3.474
G1 X3.840 Y-3.433
G1 X3.856 Y-3.378
G1 X3.856 Y-3.311
G1 X3.843 Y-3.233
G1 X3.818 Y-3.147
G1 X3.782 Y-3.054
G1 X3.738 Y-2.958
G1 X3.689 Y-2.859
G1 X3.638 Y-2.762
G1 X3.588 Y-2.668
G1 X3.543 Y-2.580
G1 X3.505 Y-2.500
G1 X3.478 Y-2.428
G1 X3.463 Y-2.366
G1 X3.463 Y-2.316
G1 X3.478 Y-2.276
G1 X3.509 Y-2.247
G1 X3.557 Y-2.227
G1 X3.621 Y-2.217
G1 X3.698 Y-2.214
G1 X3.788 Y-2.217
G1 X3.888 Y-2.223
G1 X3.994 Y-2.231
G1 X4.103 Y-2.239
G1 X4.213 Y-2.244
G1 X4.319 Y-2.245
G1 X4.418 Y-2.241
G1 X4.506 Y-2.229
G1 X4.581 Y-2.210
G1 X4.641 Y-2.182
G1 X4.684 Y-2.145
G1 X4.708 Y-2.099
G1 X4.714 Y-2.046
G1 X4.701 Y-1.985
G1 X4.671 Y-1.917
G1 X4.626 Y-1.845
G1 X4.568 Y-1.769
G1 X4.499 Y-1.691
G1 X4.424 Y-1.612
G1 X4.346 Y-1.535
G1 X4.268 Y-1.459
G1 X4.195 Y-1.388
G1 X4.130 Y-1.320
G1 X4.076 Y-1.258
G1 X4.037 Y-1.202
G1 X4.013 Y-1.152
G1 X4.008 Y-1.107
G1 X4.021 Y-1.067
G1 X4.053 Y-1.032
G1 X4.103 Y-1.002
G1 X4.169 Y-0.974
G1 X4.251 Y-0.948
G1 X4.343 Y-0.923
G1 X4.444 Y-0.898
G1 X4.550 Y-0.872
G1 X4.657 Y-0.845
G1 X4.760 Y-0.814
G1 X4.857 Y-0.781
G1 X4.943 Y-0.744
G1 X5.015 Y-0.704
G1 X5.071 Y-0.660
G1 X5.108 Y-0.613
G1 X5.125 Y-0.563
G1 X5.123 Y-0.511
G1 X5.100 Y-0.457
G1 X5.058 Y-0.403
G1 X4.999 Y-0.348
G1 X4.925 Y-0.293
G1 X4.840 Y-0.239
G1 X4.746 Y-0.187
G1 X4.648 Y-0.137
G1 X4.550 Y-0.088
G1 X4.456 Y-0.042
G1 X4.369 Y0.002
G1 X4.293 Y0.045
G1 X4.232 Y0.087
G1 X4.186 Y0.128
G1 X4.159 Y0.169
G1 X4.151 Y0.210
G1 X4.163 Y0.252
G1 X4.194 Y0.296
G1 X4.242 Y0.342
G1 X4.305 Y0.391
G1 X4.381 Y0.442
G1 X4.467 Y0.496
G1 X4.558 Y0.552
G1 X4.651 Y0.611
G0 Z0.6
G0 X5.297 Y0.936
Z0.6
Z0.2
Z0.01
G1 Z-0.125 F400
G1 X5.297 Y0.936
G1 X5.381 Y1.007
G1 X5.458 Y1.078
G1 X5.523 Y1.148
G1 X5.574 Y1.217
G1 X5.608 Y1.284
G1 X5.623 Y1.346
G1 X5.619 Y1.405
G1 X5.594 Y1.458
G1 X5.551 Y1.506
G1 X5.489 Y1.549
G1 X5.411 Y1.585
G1 X5.320 Y1.617
G1 X5.218 Y1.643
G1 X5.110 Y1.665
G1 X4.999 Y1.684
G1 X4.888 Y1.702
G1 X4.782 Y1.719
G1 X4.684 Y1.736
G1 X4.597 Y1.757
G1 X4.524 Y1.781
G1 X4.467 Y1.810
G1 X4.427 Y1.846
G1 X4.405 Y1.888
G1 X4.401 Y1.939
G1 X4.413 Y1.997
G1 X4.441 Y2.064
G1 X4.483 Y2.138
G1 X4.535 Y2.219
G1 X4.594 Y2.305
G1 X4.658 Y2.395
G1 X4.722 Y2.488
G1 X4.783 Y2.582
G1 X4.838 Y2.674
G1 X4.883 Y2.763
G1 X4.916 Y2.847
G1 X4.934 Y2.924
G1 X4.936 Y2.992
G1 X4.921 Y3.051
G1 X4.888 Y3.099
G1 X4.839 Y3.136
G1 X4.773 Y3.162
G1 X4.693 Y3.177
G1 X4.601 Y3.182
G1 X4.500 Y3.178
G1 X4.392 Y3.168
G1 X4.280 Y3.154
G1 X4.169 Y3.136
G1 X4.060 Y3.119
G1 X3.958 Y3.104
G1 X3.865 Y3.094
G1 X3.783 Y3.091
G1 X3.714 Y3.096
G1 X3.659 Y3.113
G1 X3.618 Y3.142
G1 X3.593 Y3.183
G1 X3.581 Y3.237
G1 X3.582 Y3.304
G1 X3.595 Y3.383
G1 X3.616 Y3.472
G1 X3.644 Y3.569
G1 X3.676 Y3.673
G1 X3.709 Y3.781
G1 X3.739 Y3.889
G1 X3.766 Y3.995
G1 X3.785 Y4.097
G1 X3.794 Y4.191
G1 X3.793 Y4.274
G1 X3.779 Y4.346
G1 X3.752 Y4.403
G1 X3.712 Y4.445
G1 X3.659 Y4.471
G1 X3.593 Y4.482
G1 X3.517 Y4.477
G1 X3.431 Y4.459
G1 X3.338 Y4.429
G1 X3.239 Y4.389
G1 X3.138 Y4.343
G1 X3.037 Y4.292
G1 X2.938 Y4.242
G1 X2.843 Y4.194
G1 X2.755 Y4.152
G1 X2.674 Y4.119
G1 X2.602 Y4.097
G1 X2.540 Y4.090
G1 X2.489 Y4.098
G1 X2.447 Y4.122
G1 X2.416 Y4.163
G1 X2.393 Y4.221
G1 X2.378 Y4.293
G1 X2.369 Y4.380
G1 X2.364 Y4.477
G1 X2.362 Y4.583
G1 X2.360 Y4.695
G1 X2.357 Y4.808
G1 X2.351 Y4.919
G1 X2.340 Y5.024
G1 X2.323 Y5.121
G1 X2.299 Y5.206
G1 X2.267 Y5.277
G1 X2.227 Y5.330
G1 X2.179 Y5.365
G1 X2.123 Y5.382
G1 X2.061 Y5.379
G1 X1.991 Y5.359
G1 X1.917 Y5.321
G1 X1.839 Y5.269
G1 X1.758 Y5.205
G1 X1.677 Y5.132
G1 X1.596 Y5.054
G1 X1.516 Y4.974
G1 X1.439 Y4.897
G1 X1.366 Y4.826
G1 X1.297 Y4.765
G1 X1.234 Y4.717
G1 X1.175 Y4.684
G1 X1.121 Y4.668
G1 X1.073 Y4.670
G1 X1.028 Y4.692
G1 X0.988 Y4.732
G1 X0.950 Y4.789
G1 X0.914 Y4.863
G1 X0.879 Y4.950
G1 X0.844 Y5.046
G1 X0.809 Y5.150
G1 X0.772 Y5.256
G1 X0.733 Y5.362
G1 X0.691 Y5.462
G1 X0.646 Y5.554
G1 X0.598 Y5.633
G1 X0.547 Y5.697
G1 X0.494 Y5.744
G1 X0.438 Y5.771
G1 X0.381 Y5.778
G1 X0.322 Y5.764
G1 X0.263 Y5.731
G1 X0.203 Y5.679
G1 X0.145 Y5.612
G1 X0.087 Y5.530
G1 X0.032 Y5.439
G1 X-0.022 Y5.341
G1 X-0.074 Y5.241
G1 X-0.124 Y5.142
G1 X-0.173 Y5.049
G1 X-0.220 Y4.964
G1 X-0.265 Y4.893
G1 X-0.311 Y4.836
G1 X-0.357 Y4.797
G1 X-0.403 Y4.776
G1 X-0.451 Y4.775
G1 X-0.501 Y4.792
G1 X-0.554 Y4.829
G1 X-0.609 Y4.881
G1 X-0.668 Y4.948
G1 X-0.730 Y5.026
G1 X-0.794 Y5.111
G1 X-0.862 Y5.200
G1 X-0.931 Y5.290
G1 X-1.001 Y5.375
G1 X-1.072 Y5.452
G1 X-1.143 Y5.519
G1 X-1.212 Y5.571
G1 X-1.278 Y5.606
G1 X-1.341 Y5.623
G1 X-1.400 Y5.620
G1 X-1.454 Y5.597
G1 X-1.503 Y5.555
G1 X-1.546 Y5.494
G1 X-1.583 Y5.418
G1 X-1.614 Y5.328
G1 X-1.641 Y5.227
G1 X-1.663 Y5.119
G1 X-1.683 Y5.008
G1 X-1.700 Y4.897
G1 X-1.717 Y4.790
G1 X-1.735 Y4.692
G1 X-1.755 Y4.604
G1 X-1.779 Y4.530
G1 X-1.808 Y4.471
G1 X-1.843 Y4.430
G1 X-1.885 Y4.406
G1 X-1.935 Y4.400
G1 X-1.992 Y4.412
G1 X-2.058 Y4.439
G1 X-2.132 Y4.479
G1 X-2.212 Y4.530
G1 X-2.298 Y4.589
G1 X-2.388 Y4.653
G1 X-2.481 Y4.717
G1 X-2.575 Y4.778
G1 X-2.667 Y4.834
G1 X-2.757 Y4.880
G1 X-2.841 Y4.914
G1 X-2.918 Y4.933
G1 X-2.987 Y4.937
G1 X-3.047 Y4.923
G1 X-3.096 Y4.892
G1 X-3.133 Y4.843
G1 X-3.160 Y4.779
G1 X-3.176 Y4.700
G1 X-3.182 Y4.609
G1 X-3.179 Y4.508
G1 X-3.169 Y4.400
G1 X-3.155 Y4.289
G1 X-3.138 Y4.178
G1 X-3.120 Y4.069
G1 X-3.105 Y3.966
G1 X-3.094 Y3.872
G1 X-3.090 Y3.789
G1 X-3.096 Y3.719
G1 X-3.111 Y3.662
G1 X-3.139 Y3.621
G1 X-3.179 Y3.594
G1 X-3.232 Y3.581
G1 X-3.298 Y3.582
G1 X-3.376 Y3.593
G1 X-3.464 Y3.614
G1 X-3.561 Y3.642
G1 X-3.665 Y3.673
G1 X-3.772 Y3.706
G1 X-3.880 Y3.737
G1 X-3.987 Y3.764
G1 X-4.089 Y3.783
G1 X-4.184 Y3.794
G1 X-4.268 Y3.794
G1 X-4.341 Y3.781
G1 X-4.399 Y3.755
G1 X-4.442 Y3.716
G1 X-4.470 Y3.664
G1 X-4.482 Y3.599
G1 X-4.478 Y3.523
G1 X-4.461 Y3.438
G1 X-4.432 Y3.345
G1 X-4.393 Y3.247
G1 X-4.346 Y3.146
G1 X-4.296 Y3.045
G1 X-4.246 Y2.946
G1 X-4.197 Y2.851
G1 X-4.155 Y2.761
G1 X-4.121 Y2.680
G1 X-4.099 Y2.607
G1 X-4.090 Y2.545
G1 X-4.097 Y2.492
G1 X-4.120 Y2.450
G1 X-4.159 Y2.418
G1 X-4.216 Y2.395
G1 X-4.287 Y2.379
G1 X-4.373 Y2.369
G1 X-4.469 Y2.364
G1 X-4.575 Y2.362
G1 X-4.686 Y2.360
G1 X-4.799 Y2.357
G1 X-4.910 Y2.351
G1 X-5.016 Y2.341
G1 X-5.114 Y2.324
G1 X-5.200 Y2.301
G1 X-5.271 Y2.270
G1 X-5.326 Y2.231
G1 X-5.363 Y2.183
G1 X-5.381 Y2.128
G1 X-5.380 Y2.066
G1 X-5.361 Y1.997
G1 X-5.325 Y1.923
G1 X-5.274 Y1.845
G1 X-5.210 Y1.765
G1 X-5.138 Y1.683
G1 X-5.060 Y1.602
G1 X-4.981 Y1.522
G1 X-4.903 Y1.445
G1 X-4.832 Y1.372
G1 X-4.770 Y1.303
G1 X-4.720 Y1.238
G1 X-4.686 Y1.179
G1 X-4.668 Y1.126
G1 X-4.669 Y1.076
G1 X-4.689 Y1.032
G1 X-4.728 Y0.991
G1 X-4.784 Y0.953
G1 X-4.856 Y0.917
G1 X-4.942 Y0.882
G1 X-5.038 Y0.847
G1 X-5.142 Y0.812
G1 X-5.248 Y0.775
G1 X-5.354 Y0.736
G1 X-5.454 Y0.694
G1 X-5.547 Y0.650
G1 X-5.627 Y0.602
G1 X-5.693 Y0.552
G1 X-5.741 Y0.498
G1 X-5.769 Y0.443
G1 X-5.778 Y0.385
G1 X-5.766 Y0.327
G1 X-5.734 Y0.267
G1 X-5.684 Y0.208
G1 X-5.618 Y0.149
G1 X-5.537 Y0.092
G1 X-5.447 Y0.036
G1 X-5.349 Y-0.018
G1 X-5.249 Y-0.070
G1 X-5.150 Y-0.121
G1 X-5.056 Y-0.169
G1 X-4.971 Y-0.216
G1 X-4.898 Y-0.262
G1 X-4.840 Y-0.307
G1 X-4.799 Y-0.353
G1 X-4.777 Y-0.399
G1 X-4.774 Y-0.447
G1 X-4.790 Y-0.497
G1 X-4.825 Y-0.550
G1 X-4.876 Y-0.605
G1 X-4.942 Y-0.663
G1 X-5.019 Y-0.725
G1 X-5.104 Y-0.789
G1 X-5.193 Y-0.856
G1 X-5.283 Y-0.925
G1 X-5.368 Y-0.996
G1 X-5.447 Y-1.067
G1 X-5.514 Y-1.137
G1 X-5.567 Y-1.206
G1 X-5.604 Y-1.273
G1 X-5.622 Y-1.337
G1 X-5.621 Y-1.396
G1 X-5.600 Y-1.450
G1 X-5.559 Y-1.499
G1 X-5.500 Y-1.542
G1 X-5.424 Y-1.580
G1 X-5.335 Y-1.612
G1 X-5.235 Y-1.639
G1 X-5.128 Y-1.662
G1 X-5.017 Y-1.681
G1 X-4.906 Y-1.699
G1 X-4.799 Y-1.716
G1 X-4.699 Y-1.733
G1 X-4.610 Y-1.753
G1 X-4.535 Y-1.777
G1 X-4.475 Y-1.805
G1 X-4.432 Y-1.840
G1 X-4.407 Y-1.881
G1 X-4.400 Y-1.930
G1 X-4.410 Y-1.988
G1 X-4.436 Y-2.053
G1 X-4.475 Y-2.126
G1 X-4.526 Y-2.205
G1 X-4.584 Y-2.291
G1 X-4.648 Y-2.381
G1 X-4.712 Y-2.473
G1 X-4.774 Y-2.567
G1 X-4.830 Y-2.660
G1 X-4.876 Y-2.750
G1 X-4.911 Y-2.834
G1 X-4.932 Y-2.912
G1 X-4.937 Y-2.982
G1 X-4.925 Y-3.042
G1 X-4.895 Y-3.092
G1 X-4.848 Y-3.131
G1 X-4.785 Y-3.158
G1 X-4.707 Y-3.175
G1 X-4.617 Y-3.182
G1 X-4.516 Y-3.180
G1 X-4.409 Y-3.170
G1 X-4.298 Y-3.156
G1 X-4.186 Y-3.139
G1 X-4.077 Y-3.122
G1 X-3.974 Y-3.106
G1 X-3.879 Y-3.095
G1 X-3.795 Y-3.090
G1 X-3.724 Y-3.095
G1 X-3.666 Y-3.110
G1 X-3.624 Y-3.136
G1 X-3.596 Y-3.175
G1 X-3.582 Y-3.228
G1 X-3.581 Y-3.292
G1 X-3.592 Y-3.369
G1 X-3.612 Y-3.457
G1 X-3.639 Y-3.553
G1 X-3.671 Y-3.656
G1 X-3.704 Y-3.763
G1 X-3.735 Y-3.872
G1 X-3.762 Y-3.979
G1 X-3.782 Y-4.081
G1 X-3.794 Y-4.176
G1 X-3.794 Y-4.262
G1 X-3.782 Y-4.335
G1 X-3.758 Y-4.395
G1 X-3.720 Y-4.439
G1 X-3.668 Y-4.468
G1 X-3.605 Y-4.481
G1 X-3.530 Y-4.479
G1 X-3.445 Y-4.463
G1 X-3.353 Y-4.434
G1 X-3.255 Y-4.396
G1 X-3.155 Y-4.350
G1 X-3.053 Y-4.300
G1 X-2.954 Y-4.250
G1 X-2.858 Y-4.201
G1 X-2.768 Y-4.158
G1 X-2.686 Y-4.123
G1 X-2.613 Y-4.100
G1 X-2.549 Y-4.090
G1 X-2.496 Y-4.095
G1 X-2.453 Y-4.117
G1 X-2.420 Y-4.156
G1 X-2.396 Y-4.211
G1 X-2.380 Y-4.281
G1 X-2.370 Y-4.365
G1 X-2.365 Y-4.461
G1 X-2.362 Y-4.566
G1 X-2.360 Y-4.677
G1 X-2.357 Y-4.790
G1 X-2.352 Y-4.901
G1 X-2.342 Y-5.008
G1 X-2.326 Y-5.107
G1 X-2.303 Y-5.194
G1 X-2.273 Y-5.266
G1 X-2.234 Y-5.323
G1 X-2.187 Y-5.361
G1 X-2.133 Y-5.381
G1 X-2.071 Y-5.381
G1 X-2.003 Y-5.363
G1 X-1.929 Y-5.328
G1 X-1.852 Y-5.278
G1 X-1.771 Y-5.216
G1 X-1.690 Y-5.144
G1 X-1.608 Y-5.066
G1 X-1.528 Y-4.987
G1 X-1.451 Y-4.909
G1 X-1.377 Y-4.837
G1 X-1.308 Y-4.774
G1 X-1.243 Y-4.723
G1 X-1.184 Y-4.688
G1 X-1.130 Y-4.669
G1 X-1.080 Y-4.668
G1 X-1.035 Y-4.687
G1 X-0.994 Y-4.724
G1 X-0.956 Y-4.779
G1 X-0.920 Y-4.850
G1 X-0.885 Y-4.935
G1 X-0.850 Y-5.030
G1 X-0.815 Y-5.133
G1 X-0.778 Y-5.239
G1 X-0.739 Y-5.345
G1 X-0.698 Y-5.447
G1 X-0.653 Y-5.540
G1 X-0.606 Y-5.621
G1 X-0.556 Y-5.688
G1 X-0.503 Y-5.738
G1 X-0.447 Y-5.768
G1 X-0.390 Y-5.778
G1 X-0.331 Y-5.768
G1 X-0.272 Y-5.738
G1 X-0.213 Y-5.689
G1 X-0.154 Y-5.623
G1 X-0.096 Y-5.544
G1 X-0.040 Y-5.454
G1 X0.014 Y-5.357
G1 X0.066 Y-5.257
G1 X0.117 Y-5.158
G1 X0.165 Y-5.063
G1 X0.212 Y-4.977
G1 X0.258 Y-4.903
G1 X0.304 Y-4.844
G1 X0.349 Y-4.802
G1 X0.396 Y-4.778
G1 X0.443 Y-4.774
G1 X0.493 Y-4.788
G1 X0.545 Y-4.822
G1 X0.600 Y-4.872
G1 X0.658 Y-4.936
G1 X0.720 Y-5.013
G1 X0.784 Y-5.097
G1 X0.851 Y-5.186
G1 X0.920 Y-5.276
G1 X0.990 Y-5.362
G1 X1.061 Y-5.441
G1 X1.132 Y-5.509
G1 X1.201 Y-5.563
G1 X1.268 Y-5.602
G1 X1.332 Y-5.621
G1 X1.391 Y-5.622
G1 X1.446 Y-5.602
G1 X1.495 Y-5.563
G1 X1.539 Y-5.505
G1 X1.577 Y-5.431
G1 X1.610 Y-5.343
G1 X1.637 Y-5.243
G1 X1.660 Y-5.136
G1 X1.680 Y-5.025
G1 X1.698 Y-4.914
G1 X1.715 Y-4.807
G1 X1.732 Y-4.707
G1 X1.752 Y-4.617
G1 X1.775 Y-4.540
G1 X1.803 Y-4.479
G1 X1.837 Y-4.435
G1 X1.878 Y-4.409
G1 X1.926 Y-4.400
G1 X1.983 Y-4.409
G1 X2.047 Y-4.433
G1 X2.120 Y-4.472
G1 X2.199 Y-4.522
G1 X2.284 Y-4.580
G1 X2.373 Y-4.642
G1 X2.466 Y-4.707
G1 X2.560 Y-4.769
G1 X2.653 Y-4.825
G1 X2.743 Y-4.873
G1 X2.828 Y-4.909
G1 X2.907 Y-4.931
G1 X2.977 Y-4.937
G1 X3.038 Y-4.926
G1 X3.089 Y-4.898
G1 X3.128 Y-4.852
G1 X3.156 Y-4.790
G1 X3.174 Y-4.714
G1 X3.181 Y-4.624
G1 X3.180 Y-4.525
G1 X3.171 Y-4.418
G1 X3.158 Y-4.307
G1 X3.141 Y-4.195
G1 X3.123 Y-4.086
G1 X3.107 Y-3.982
G1 X3.096 Y-3.886
G1 X3.091 Y-3.801
G1 X3.094 Y-3.729
G1 X3.108 Y-3.670
G1 X3.134 Y-3.627
G1 X3.172 Y-3.597
G1 X3.223 Y-3.583
G1 X3.287 Y-3.581
G1 X3.363 Y-3.591
G1 X3.450 Y-3.610
G1 X3.545 Y-3.637
G1 X3.648 Y-3.668
G1 X3.755 Y-3.701
G1 X3.863 Y-3.732
G1 X3.970 Y-3.760
G1 X4.073 Y-3.781
G1 X4.169 Y-3.793
G1 X4.256 Y-3.794
G1 X4.330 Y-3.784
G1 X4.391 Y-3.760
G1 X4.436 Y-3.723
G1 X4.467 Y-3.673
G1 X4.481 Y-3.610
G1 X4.480 Y-3.536
G1 X4.465 Y-3.452
G1 X4.437 Y-3.360
G1 X4.399 Y-3.263
G1 X4.354 Y-3.163
G1 X4.304 Y-3.061
G1 X4.254 Y-2.961
G1 X4.205 Y-2.865
G1 X4.161 Y-2.775
G1 X4.126 Y-2.692
G1 X4.101 Y-2.618
G1 X4.090 Y-2.554
G1 X4.094 Y-2.500
G1 X4.115 Y-2.456
G1 X4.152 Y-2.423
G1 X4.206 Y-2.398
G1 X4.275 Y-2.381
G1 X4.358 Y-2.371
G1 X4.453 Y-2.365
G1 X4.557 Y-2.362
G1 X4.668 Y-2.360
G1 X4.781 Y-2.358
G1 X4.893 Y-2.352
G1 X5.000 Y-2.343
G1 X5.099 Y-2.327
G1 X5.187 Y-2.305
G1 X5.261 Y-2.275
G1 X5.319 Y-2.237
G1 X5.359 Y-2.191
G1 X5.380 Y-2.137
G1 X5.382 Y-2.076
G1 X5.365 Y-2.008
G1 X5.332 Y-1.935
G1 X5.283 Y-1.858
G1 X5.221 Y-1.778
G1 X5.150 Y-1.696
G1 X5.073 Y-1.615
G1 X4.993 Y-1.535
G1 X4.915 Y-1.457
G1 X4.843 Y-1.383
G1 X4.779 Y-1.313
G1 X4.727 Y-1.248
G1 X4.690 Y-1.188
G1 X4.670 Y-1.134
G1 X4.668 Y-1.084
G1 X4.685 Y-1.039
G1 X4.720 Y-0.997
G1 X4.774 Y-0.959
G1 X4.844 Y-0.922
G1 X4.928 Y-0.887
G1 X5.023 Y-0.853
G1 X5.125 Y-0.818
G1 X5.231 Y-0.781
G1 X5.337 Y-0.742
G1 X5.439 Y-0.701
G1 X5.533 Y-0.657
G1 X5.615 Y-0.610
G1 X5.683 Y-0.560
G1 X5.734 Y-0.507
G1 X5.766 Y-0.452
G1 X5.778 Y-0.395
G1 X5.769 Y-0.336
G1 X5.741 Y-0.277
G1 X5.693 Y-0.218
G1 X5.629 Y-0.159
G1 X5.551 Y-0.101
G1 X5.462 Y-0.045
G1 X5.365 Y0.010
G1 X5.265 Y0.062
G1 X5.165 Y0.113
G1 X5.070 Y0.161
G1 X4.984 Y0.209
G1 X4.908 Y0.255
G1 X4.848 Y0.300
G1 X4.804 Y0.346
G1 X4.779 Y0.392
G1 X4.773 Y0.439
G1 X4.787 Y0.489
G1 X4.818 Y0.541
G1 X4.867 Y0.596
G1 X4.931 Y0.654
G1 X5.006 Y0.715
G1 X5.090 Y0.779
G1 X5.179 Y0.845
G1 X5.268 Y0.914
G0 Z0.6
G0 X5.894 Y1.295
Z0.6
Z0.2
Z0.01
G1 Z-0.125 F400
G1 X5.894 Y1.295
G1 X5.973 Y1.375
G1 X6.043 Y1.455
G1 X6.102 Y1.534
G1 X6.145 Y1.610
G1 X6.171 Y1.683
G1 X6.178 Y1.751
G1 X6.165 Y1.815
G1 X6.133 Y1.872
G1 X6.082 Y1.923
G1 X6.013 Y1.968
G1 X5.929 Y2.006
G1 X5.832 Y2.038
G1 X5.726 Y2.066
G1 X5.614 Y2.089
G1 X5.499 Y2.109
G1 X5.386 Y2.128
G1 X5.279 Y2.147
G1 X5.180 Y2.167
G1 X5.092 Y2.191
G1 X5.019 Y2.219
G1 X4.961 Y2.253
G1 X4.921 Y2.294
G1 X4.898 Y2.343
G1 X4.893 Y2.401
G1 X4.903 Y2.468
G1 X4.929 Y2.543
G1 X4.967 Y2.625
G1 X5.014 Y2.715
G1 X5.068 Y2.810
G1 X5.126 Y2.909
G1 X5.182 Y3.010
G1 X5.236 Y3.112
G1 X5.282 Y3.211
G1 X5.318 Y3.306
G1 X5.341 Y3.395
G1 X5.350 Y3.476
G1 X5.342 Y3.548
G1 X5.318 Y3.609
G1 X5.276 Y3.658
G1 X5.218 Y3.696
G1 X5.145 Y3.722
G1 X5.058 Y3.737
G1 X4.960 Y3.741
G1 X4.853 Y3.738
G1 X4.741 Y3.727
G1 X4.626 Y3.712
G1 X4.512 Y3.695
G1 X4.401 Y3.679
G1 X4.297 Y3.666
G1 X4.202 Y3.658
G1 X4.119 Y3.658
G1 X4.048 Y3.668
G1 X3.991 Y3.690
G1 X3.948 Y3.724
G1 X3.919 Y3.772
G1 X3.904 Y3.833
G1 X3.900 Y3.907
G1 X3.907 Y3.993
G1 X3.922 Y4.089
G1 X3.942 Y4.193
G1 X3.966 Y4.304
G1 X3.989 Y4.417
G1 X4.010 Y4.531
G1 X4.026 Y4.642
G1 X4.035 Y4.746
G1 X4.034 Y4.843
G1 X4.022 Y4.928
G1 X3.998 Y5.000
G1 X3.961 Y5.057
G1 X3.912 Y5.098
G1 X3.850 Y5.122
G1 X3.777 Y5.131
G1 X3.693 Y5.124
G1 X3.601 Y5.103
G1 X3.503 Y5.071
G1 X3.401 Y5.029
G1 X3.296 Y4.981
G1 X3.192 Y4.930
G1 X3.090 Y4.879
G1 X2.993 Y4.832
G1 X2.902 Y4.792
G1 X2.819 Y4.761
G1 X2.744 Y4.743
G1 X2.679 Y4.739
G1 X2.624 Y4.752
G1 X2.578 Y4.781
G1 X2.541 Y4.827
G1 X2.512 Y4.890
G1 X2.490 Y4.968
G1 X2.472 Y5.059
G1 X2.459 Y5.161
G1 X2.447 Y5.271
G1 X2.435 Y5.386
G1 X2.421 Y5.501
G1 X2.403 Y5.613
G1 X2.381 Y5.720
G1 X2.354 Y5.816
G1 X2.319 Y5.899
G1 X2.277 Y5.967
G1 X2.228 Y6.018
G1 X2.171 Y6.049
G1 X2.107 Y6.062
G1 X2.037 Y6.055
G1 X1.962 Y6.030
G1 X1.882 Y5.988
G1 X1.800 Y5.932
G1 X1.715 Y5.864
G1 X1.630 Y5.789
G1 X1.546 Y5.709
G1 X1.464 Y5.628
G1 X1.385 Y5.551
G1 X1.309 Y5.480
G1 X1.238 Y5.420
G1 X1.171 Y5.374
G1 X1.108 Y5.343
G1 X1.050 Y5.330
G1 X0.996 Y5.336
G1 X0.945 Y5.360
G1 X0.897 Y5.404
G1 X0.851 Y5.464
G1 X0.806 Y5.540
G1 X0.762 Y5.629
G1 X0.717 Y5.727
G1 X0.671 Y5.831
G1 X0.623 Y5.936
G1 X0.573 Y6.040
G1 X0.520 Y6.138
G1 X0.465 Y6.226
G1 X0.407 Y6.300
G1 X0.347 Y6.359
G1 X0.285 Y6.400
G1 X0.222 Y6.421
G1 X0.158 Y6.422
G1 X0.093 Y6.402
G1 X0.029 Y6.363
G1 X-0.034 Y6.305
G1 X-0.096 Y6.232
G1 X-0.156 Y6.146
G1 X-0.215 Y6.051
G1 X-0.271 Y5.950
G1 X-0.325 Y5.847
G1 X-0.377 Y5.747
G1 X-0.427 Y5.653
G1 X-0.477 Y5.569
G1 X-0.526 Y5.498
G1 X-0.576 Y5.442
G1 X-0.627 Y5.404
G1 X-0.679 Y5.385
G1 X-0.734 Y5.385
G1 X-0.792 Y5.403
G1 X-0.853 Y5.440
G1 X-0.917 Y5.492
G1 X-0.985 Y5.558
G1 X-1.057 Y5.634
G1 X-1.132 Y5.717
G1 X-1.209 Y5.803
G1 X-1.288 Y5.887
G1 X-1.369 Y5.967
G1 X-1.449 Y6.038
G1 X-1.527 Y6.097
G1 X-1.604 Y6.142
G1 X-1.677 Y6.169
G1 X-1.746 Y6.178
G1 X-1.810 Y6.167
G1 X-1.868 Y6.136
G1 X-1.919 Y6.086
G1 X-1.964 Y6.019
G1 X-2.003 Y5.936
G1 X-2.036 Y5.840
G1 X-2.064 Y5.734
G1 X-2.087 Y5.623
G1 X-2.108 Y5.508
G1 X-2.127 Y5.395
G1 X-2.145 Y5.287
G1 X-2.165 Y5.187
G1 X-2.189 Y5.099
G1 X-2.216 Y5.024
G1 X-2.250 Y4.965
G1 X-2.291 Y4.923
G1 X-2.339 Y4.899
G1 X-2.396 Y4.892
G1 X-2.462 Y4.902
G1 X-2.536 Y4.926
G1 X-2.618 Y4.963
G1 X-2.708 Y5.010
G1 X-2.802 Y5.064
G1 X-2.901 Y5.121
G1 X-3.002 Y5.178
G1 X-3.104 Y5.232
G1 X-3.203 Y5.278
G1 X-3.299 Y5.315
G1 X-3.388 Y5.340
G1 X-3.470 Y5.350
G1 X-3.543 Y5.343
G1 X-3.604 Y5.320
G1 X-3.655 Y5.280
G1 X-3.693 Y5.224
G1 X-3.720 Y5.151
G1 X-3.736 Y5.066
G1 X-3.741 Y4.968
G1 X-3.738 Y4.862
G1 X-3.728 Y4.750
G1 X-3.714 Y4.635
G1 X-3.697 Y4.521
G1 X-3.680 Y4.410
G1 X-3.667 Y4.305
G1 X-3.658 Y4.210
G1 X-3.658 Y4.125
G1 X-3.667 Y4.053
G1 X-3.688 Y3.995
G1 X-3.721 Y3.951
G1 X-3.767 Y3.921
G1 X-3.827 Y3.904
G1 X-3.900 Y3.900
G1 X-3.985 Y3.906
G1 X-4.081 Y3.920
G1 X-4.185 Y3.941
G1 X-4.295 Y3.964
G1 X-4.408 Y3.988
G1 X-4.522 Y4.009
G1 X-4.633 Y4.025
G1 X-4.738 Y4.035
G1 X-4.835 Y4.034
G1 X-4.921 Y4.023
G1 X-4.994 Y4.000
G1 X-5.053 Y3.965
G1 X-5.095 Y3.916
G1 X-5.121 Y3.855
G1 X-5.131 Y3.783
G1 X-5.125 Y3.700
G1 X-5.105 Y3.609
G1 X-5.074 Y3.511
G1 X-5.033 Y3.409
G1 X-4.985 Y3.304
G1 X-4.934 Y3.200
G1 X-4.883 Y3.098
G1 X-4.836 Y3.000
G1 X-4.794 Y2.909
G1 X-4.763 Y2.825
G1 X-4.744 Y2.750
G1 X-4.739 Y2.684
G1 X-4.750 Y2.628
G1 X-4.778 Y2.581
G1 X-4.823 Y2.544
G1 X-4.885 Y2.514
G1 X-4.961 Y2.491
G1 X-5.052 Y2.474
G1 X-5.153 Y2.460
G1 X-5.262 Y2.448
G1 X-5.377 Y2.436
G1 X-5.492 Y2.422
G1 X-5.605 Y2.405
G1 X-5.711 Y2.383
G1 X-5.809 Y2.356
G1 X-5.893 Y2.322
G1 X-5.962 Y2.281
G1 X-6.014 Y2.232
G1 X-6.048 Y2.176
G1 X-6.061 Y2.112
G1 X-6.056 Y2.043
G1 X-6.032 Y1.968
G1 X-5.992 Y1.889
G1 X-5.937 Y1.806
G1 X-5.870 Y1.722
G1 X-5.795 Y1.637
G1 X-5.715 Y1.553
G1 X-5.634 Y1.471
G1 X-5.557 Y1.391
G1 X-5.485 Y1.315
G1 X-5.425 Y1.243
G1 X-5.377 Y1.176
G1 X-5.345 Y1.113
G1 X-5.330 Y1.055
G1 X-5.334 Y1.000
G1 X-5.358 Y0.949
G1 X-5.400 Y0.901
G1 X-5.459 Y0.855
G1 X-5.534 Y0.810
G1 X-5.621 Y0.765
G1 X-5.719 Y0.721
G1 X-5.822 Y0.675
G1 X-5.928 Y0.627
G1 X-6.032 Y0.577
G1 X-6.130 Y0.524
G1 X-6.219 Y0.469
G1 X-6.295 Y0.412
G1 X-6.355 Y0.352
G1 X-6.398 Y0.290
G1 X-6.420 Y0.227
G1 X-6.423 Y0.163
G1 X-6.404 Y0.098
G1 X-6.367 Y0.034
G1 X-6.310 Y-0.029
G1 X-6.238 Y-0.091
G1 X-6.153 Y-0.152
G1 X-6.059 Y-0.210
G1 X-5.958 Y-0.266
G1 X-5.855 Y-0.320
G1 X-5.755 Y-0.373
G1 X-5.660 Y-0.423
G1 X-5.575 Y-0.473
G1 X-5.503 Y-0.522
G1 X-5.446 Y-0.572
G1 X-5.406 Y-0.623
G1 X-5.385 Y-0.675
G1 X-5.384 Y-0.729
G1 X-5.401 Y-0.787
G1 X-5.437 Y-0.848
G1 X-5.488 Y-0.912
G1 X-5.553 Y-0.980
G1 X-5.628 Y-1.051
G1 X-5.710 Y-1.126
G1 X-5.796 Y-1.203
G1 X-5.881 Y-1.282
G1 X-5.961 Y-1.362
G1 X-6.033 Y-1.442
G1 X-6.093 Y-1.521
G1 X-6.139 Y-1.598
G1 X-6.168 Y-1.672
G1 X-6.178 Y-1.741
G1 X-6.168 Y-1.805
G1 X-6.139 Y-1.863
G1 X-6.091 Y-1.915
G1 X-6.025 Y-1.961
G1 X-5.943 Y-2.000
G1 X-5.848 Y-2.034
G1 X-5.743 Y-2.062
G1 X-5.632 Y-2.085
G1 X-5.517 Y-2.106
G1 X-5.404 Y-2.125
G1 X-5.295 Y-2.144
G1 X-5.195 Y-2.164
G1 X-5.105 Y-2.187
G1 X-5.029 Y-2.214
G1 X-4.969 Y-2.247
G1 X-4.926 Y-2.287
G1 X-4.901 Y-2.335
G1 X-4.892 Y-2.391
G1 X-4.901 Y-2.456
G1 X-4.924 Y-2.530
G1 X-4.960 Y-2.612
G1 X-5.006 Y-2.700
G1 X-5.059 Y-2.795
G1 X-5.116 Y-2.893
G1 X-5.174 Y-2.994
G1 X-5.228 Y-3.096
G1 X-5.275 Y-3.195
G1 X-5.313 Y-3.291
G1 X-5.338 Y-3.382
G1 X-5.349 Y-3.464
G1 X-5.344 Y-3.537
G1 X-5.323 Y-3.600
G1 X-5.284 Y-3.651
G1 X-5.229 Y-3.691
G1 X-5.158 Y-3.719
G1 X-5.073 Y-3.735
G1 X-4.976 Y-3.741
G1 X-4.871 Y-3.739
G1 X-4.759 Y-3.729
G1 X-4.644 Y-3.715
G1 X-4.530 Y-3.698
G1 X-4.418 Y-3.681
G1 X-4.313 Y-3.667
G1 X-4.217 Y-3.659
G1 X-4.131 Y-3.657
G1 X-4.058 Y-3.666
G1 X-3.999 Y-3.686
G1 X-3.954 Y-3.718
G1 X-3.923 Y-3.763
G1 X-3.905 Y-3.822
G1 X-3.900 Y-3.894
G1 X-3.905 Y-3.978
G1 X-3.919 Y-4.073
G1 X-3.939 Y-4.176
G1 X-3.962 Y-4.286
G1 X-3.986 Y-4.399
G1 X-4.007 Y-4.513
G1 X-4.024 Y-4.624
G1 X-4.034 Y-4.730
G1 X-4.035 Y-4.828
G1 X-4.025 Y-4.915
G1 X-4.003 Y-4.989
G1 X-3.968 Y-5.048
G1 X-3.921 Y-5.092
G1 X-3.861 Y-5.119
G1 X-3.789 Y-5.130
G1 X-3.707 Y-5.126
G1 X-3.616 Y-5.107
G1 X-3.519 Y-5.077
G1 X-3.417 Y-5.036
G1 X-3.313 Y-4.989
G1 X-3.208 Y-4.938
G1 X-3.106 Y-4.887
G1 X-3.008 Y-4.839
G1 X-2.916 Y-4.797
G1 X-2.831 Y-4.765
G1 X-2.756 Y-4.745
G1 X-2.689 Y-4.739
G1 X-2.632 Y-4.749
G1 X-2.585 Y-4.775
G1 X-2.546 Y-4.819
G1 X-2.516 Y-4.879
G1 X-2.493 Y-4.955
G1 X-2.475 Y-5.044
G1 X-2.461 Y-5.145
G1 X-2.449 Y-5.253
G1 X-2.437 Y-5.367
G1 X-2.423 Y-5.483
G1 X-2.406 Y-5.596
G1 X-2.385 Y-5.703
G1 X-2.358 Y-5.801
G1 X-2.325 Y-5.887
G1 X-2.284 Y-5.957
G1 X-2.236 Y-6.011
G1 X-2.180 Y-6.046
G1 X-2.118 Y-6.061
G1 X-2.049 Y-6.057
G1 X-1.974 Y-6.035
G1 X-1.895 Y-5.996
G1 X-1.813 Y-5.942
G1 X-1.729 Y-5.876
G1 X-1.644 Y-5.801
G1 X-1.560 Y-5.722
G1 X-1.477 Y-5.641
G1 X-1.398 Y-5.563
G1 X-1.321 Y-5.491
G1 X-1.249 Y-5.429
G1 X-1.181 Y-5.380
G1 X-1.118 Y-5.347
G1 X-1.059 Y-5.331
G1 X-1.004 Y-5.333
G1 X-0.953 Y-5.355
G1 X-0.905 Y-5.396
G1 X-0.859 Y-5.454
G1 X-0.814 Y-5.527
G1 X-0.769 Y-5.614
G1 X-0.724 Y-5.711
G1 X-0.678 Y-5.814
G1 X-0.631 Y-5.919
G1 X-0.581 Y-6.024
G1 X-0.529 Y-6.123
G1 X-0.474 Y-6.212
G1 X-0.417 Y-6.289
G1 X-0.357 Y-6.351
G1 X-0.295 Y-6.395
G1 X-0.232 Y-6.419
G1 X-0.168 Y-6.423
G1 X-0.103 Y-6.407
G1 X-0.039 Y-6.370
G1 X0.024 Y-6.316
G1 X0.087 Y-6.245
G1 X0.147 Y-6.161
G1 X0.205 Y-6.067
G1 X0.262 Y-5.966
G1 X0.316 Y-5.864
G1 X0.369 Y-5.763
G1 X0.419 Y-5.667
G1 X0.469 Y-5.581
G1 X0.519 Y-5.508
G1 X0.568 Y-5.450
G1 X0.619 Y-5.409
G1 X0.671 Y-5.386
G1 X0.725 Y-5.383
G1 X0.782 Y-5.399
G1 X0.843 Y-5.433
G1 X0.907 Y-5.483
G1 X0.974 Y-5.547
G1 X1.045 Y-5.622
G1 X1.120 Y-5.703
G1 X1.197 Y-5.789
G1 X1.276 Y-5.874
G1 X1.356 Y-5.955
G1 X1.436 Y-6.028
G1 X1.515 Y-6.089
G1 X1.592 Y-6.136
G1 X1.666 Y-6.166
G1 X1.735 Y-6.178
G1 X1.800 Y-6.170
G1 X1.859 Y-6.142
G1 X1.911 Y-6.095
G1 X1.957 Y-6.031
G1 X1.997 Y-5.950
G1 X2.031 Y-5.856
G1 X2.060 Y-5.752
G1 X2.084 Y-5.641
G1 X2.105 Y-5.526
G1 X2.124 Y-5.413
G1 X2.142 Y-5.304
G1 X2.162 Y-5.202
G1 X2.185 Y-5.112
G1 X2.212 Y-5.035
G1 X2.244 Y-4.974
G1 X2.284 Y-4.929
G1 X2.331 Y-4.902
G1 X2.387 Y-4.892
G1 X2.451 Y-4.899
G1 X2.524 Y-4.921
G1 X2.605 Y-4.957
G1 X2.693 Y-5.002
G1 X2.787 Y-5.055
G1 X2.885 Y-5.112
G1 X2.986 Y-5.169
G1 X3.088 Y-5.223
G1 X3.188 Y-5.271
G1 X3.284 Y-5.310
G1 X3.375 Y-5.337
G1 X3.458 Y-5.349
G1 X3.532 Y-5.345
G1 X3.595 Y-5.325
G1 X3.648 Y-5.288
G1 X3.688 Y-5.234
G1 X3.717 Y-5.164
G1 X3.734 Y-5.080
G1 X3.741 Y-4.984
G1 X3.739 Y-4.879
G1 X3.730 Y-4.768
G1 X3.716 Y-4.654
G1 X3.699 Y-4.539
G1 X3.683 Y-4.427
G1 X3.668 Y-4.321
G1 X3.659 Y-4.224
G1 X3.657 Y-4.138
G1 X3.665 Y-4.063
G1 X3.684 Y-4.003
G1 X3.715 Y-3.957
G1 X3.759 Y-3.925
G1 X3.817 Y-3.906
G1 X3.888 Y-3.900
G1 X3.971 Y-3.905
G1 X4.065 Y-3.918
G1 X4.168 Y-3.937
G1 X4.277 Y-3.960
G1 X4.390 Y-3.984
G1 X4.504 Y-4.006
G1 X4.615 Y-4.023
G1 X4.722 Y-4.034
G1 X4.821 Y-4.035
G1 X4.909 Y-4.026
G1 X4.984 Y-4.005
G1 X5.044 Y-3.971
G1 X5.089 Y-3.925
G1 X5.118 Y-3.866
G1 X5.130 Y-3.795
G1 X5.127 Y-3.714
G1 X5.109 Y-3.624
G1 X5.079 Y-3.527
G1 X5.040 Y-3.425
G1 X4.993 Y-3.321
G1 X4.942 Y-3.216
G1 X4.891 Y-3.114
G1 X4.843 Y-3.016
G1 X4.800 Y-2.923
G1 X4.767 Y-2.838
G1 X4.746 Y-2.761
G1 X4.739 Y-2.694
G1 X4.747 Y-2.636
G1 X4.772 Y-2.588
G1 X4.815 Y-2.549
G1 X4.874 Y-2.518
G1 X4.948 Y-2.494
G1 X5.036 Y-2.476
G1 X5.136 Y-2.462
G1 X5.245 Y-2.449
G1 X5.358 Y-2.438
G1 X5.474 Y-2.424
G1 X5.587 Y-2.408
G1 X5.695 Y-2.387
G1 X5.794 Y-2.361
G1 X5.881 Y-2.328
G1 X5.952 Y-2.288
G1 X6.007 Y-2.240
G1 X6.044 Y-2.185
G1 X6.061 Y-2.123
G1 X6.058 Y-2.054
G1 X6.037 Y-1.980
G1 X5.999 Y-1.902
G1 X5.947 Y-1.820
G1 X5.881 Y-1.735
G1 X5.807 Y-1.651
G1 X5.728 Y-1.566
G1 X5.647 Y-1.484
G1 X5.569 Y-1.404
G1 X5.496 Y-1.327
G1 X5.433 Y-1.255
G1 X5.383 Y-1.187
G1 X5.349 Y-1.123
G1 X5.331 Y-1.064
G1 X5.333 Y-1.009
G1 X5.353 Y-0.957
G1 X5.392 Y-0.909
G1 X5.448 Y-0.862
G1 X5.521 Y-0.817
G1 X5.607 Y-0.773
G1 X5.703 Y-0.728
G1 X5.805 Y-0.682
G1 X5.911 Y-0.635
G1 X6.015 Y-0.585
G1 X6.115 Y-0.533
G1 X6.206 Y-0.478
G1 X6.284 Y-0.421
G1 X6.347 Y-0.362
G1 X6.392 Y-0.300
G1 X6.418 Y-0.237
G1 X6.424 Y-0.173
G1 X6.409 Y-0.109
G1 X6.374 Y-0.044
G1 X6.321 Y0.019
G1 X6.251 Y0.082
G1 X6.168 Y0.142
G1 X6.074 Y0.201
G1 X5.974 Y0.257
G1 X5.872 Y0.312
G1 X5.771 Y0.364
G1 X5.675 Y0.415
G1 X5.588 Y0.465
G1 X5.513 Y0.515
G1 X5.454 Y0.564
G1 X5.411 Y0.614
G1 X5.387 Y0.666
G1 X5.383 Y0.721
G1 X5.397 Y0.777
G1 X5.430 Y0.838
G1 X5.479 Y0.901
G1 X5.541 Y0.969
G1 X5.615 Y1.040
G1 X5.697 Y1.114
G1 X5.782 Y1.191
G1 X5.867 Y1.269
G0 Z0.6
G0 X6.469 Y1.704
Z0.6
Z0.2
Z0.01
G1 Z-0.125 F400
G1 X6.469 Y1.704
G1 X6.542 Y1.793
G1 X6.605 Y1.882
G1 X6.656 Y1.968
G1 X6.691 Y2.051
G1 X6.708 Y2.130
G1 X6.706 Y2.204
G1 X6.685 Y2.271
G1 X6.645 Y2.332
G1 X6.586 Y2.385
G1 X6.510 Y2.432
G1 X6.419 Y2.471
G1 X6.317 Y2.505
G1 X6.206 Y2.533
G1 X6.090 Y2.557
G1 X5.972 Y2.578
G1 X5.857 Y2.598
G1 X5.747 Y2.619
G1 X5.647 Y2.641
G1 X5.559 Y2.668
G1 X5.485 Y2.700
G1 X5.426 Y2.739
G1 X5.385 Y2.786
G1 X5.361 Y2.842
G1 X5.354 Y2.907
G1 X5.362 Y2.982
G1 X5.384 Y3.065
G1 X5.417 Y3.156
G1 X5.460 Y3.254
G1 X5.508 Y3.358
G1 X5.558 Y3.465
G1 X5.607 Y3.574
G1 X5.651 Y3.682
G1 X5.688 Y3.788
G1 X5.715 Y3.889
G1 X5.728 Y3.982
G1 X5.727 Y4.067
G1 X5.709 Y4.141
G1 X5.675 Y4.204
G1 X5.625 Y4.254
G1 X5.558 Y4.292
G1 X5.477 Y4.317
G1 X5.384 Y4.331
G1 X5.279 Y4.335
G1 X5.167 Y4.330
G1 X5.051 Y4.319
G1 X4.932 Y4.304
G1 X4.815 Y4.287
G1 X4.702 Y4.272
G1 X4.596 Y4.260
G1 X4.499 Y4.255
G1 X4.414 Y4.258
G1 X4.341 Y4.273
G1 X4.281 Y4.299
G1 X4.235 Y4.339
G1 X4.203 Y4.393
G1 X4.183 Y4.460
G1 X4.174 Y4.541
G1 X4.175 Y4.634
G1 X4.182 Y4.737
G1 X4.195 Y4.848
G1 X4.209 Y4.964
G1 X4.223 Y5.083
G1 X4.234 Y5.200
G1 X4.239 Y5.315
G1 X4.237 Y5.422
G1 X4.225 Y5.520
G1 X4.202 Y5.606
G1 X4.168 Y5.677
G1 X4.122 Y5.733
G1 X4.063 Y5.772
G1 X3.993 Y5.795
G1 X3.912 Y5.801
G1 X3.821 Y5.791
G1 X3.724 Y5.768
G1 X3.620 Y5.733
G1 X3.514 Y5.689
G1 X3.406 Y5.639
G1 X3.298 Y5.587
G1 X3.194 Y5.536
G1 X3.094 Y5.489
G1 X3.001 Y5.450
G1 X2.915 Y5.422
G1 X2.838 Y5.407
G1 X2.769 Y5.407
G1 X2.709 Y5.424
G1 X2.658 Y5.457
G1 X2.616 Y5.509
G1 X2.580 Y5.576
G1 X2.549 Y5.659
G1 X2.524 Y5.754
G1 X2.500 Y5.860
G1 X2.478 Y5.973
G1 X2.456 Y6.090
G1 X2.431 Y6.207
G1 X2.403 Y6.320
G1 X2.369 Y6.425
G1 X2.331 Y6.520
G1 X2.285 Y6.601
G1 X2.233 Y6.666
G1 X2.175 Y6.712
G1 X2.109 Y6.740
G1 X2.038 Y6.748
G1 X1.961 Y6.736
G1 X1.880 Y6.706
G1 X1.795 Y6.660
G1 X1.708 Y6.599
G1 X1.620 Y6.528
G1 X1.533 Y6.450
G1 X1.446 Y6.367
G1 X1.361 Y6.285
G1 X1.280 Y6.207
G1 X1.201 Y6.137
G1 X1.127 Y6.078
G1 X1.056 Y6.033
G1 X0.989 Y6.005
G1 X0.926 Y5.994
G1 X0.866 Y6.003
G1 X0.809 Y6.030
G1 X0.753 Y6.076
G1 X0.699 Y6.139
G1 X0.644 Y6.217
G1 X0.590 Y6.306
G1 X0.535 Y6.404
G1 X0.478 Y6.507
G1 X0.419 Y6.611
G1 X0.358 Y6.712
G1 X0.295 Y6.807
G1 X0.230 Y6.890
G1 X0.162 Y6.960
G1 X0.093 Y7.013
G1 X0.023 Y7.047
G1 X-0.047 Y7.062
G1 X-0.118 Y7.056
G1 X-0.188 Y7.029
G1 X-0.256 Y6.983
G1 X-0.323 Y6.919
G1 X-0.388 Y6.841
G1 X-0.451 Y6.750
G1 X-0.511 Y6.650
G1 X-0.569 Y6.546
G1 X-0.625 Y6.441
G1 X-0.679 Y6.339
G1 X-0.732 Y6.244
G1 X-0.785 Y6.160
G1 X-0.838 Y6.089
G1 X-0.892 Y6.034
G1 X-0.948 Y5.997
G1 X-1.006 Y5.978
G1 X-1.068 Y5.979
G1 X-1.133 Y5.998
G1 X-1.203 Y6.035
G1 X-1.276 Y6.086
G1 X-1.354 Y6.150
G1 X-1.436 Y6.224
G1 X-1.520 Y6.303
G1 X-1.608 Y6.384
G1 X-1.697 Y6.463
G1 X-1.786 Y6.537
G1 X-1.875 Y6.601
G1 X-1.961 Y6.652
G1 X-2.045 Y6.688
G1 X-2.124 Y6.707
G1 X-2.198 Y6.707
G1 X-2.266 Y6.688
G1 X-2.327 Y6.649
G1 X-2.381 Y6.591
G1 X-2.428 Y6.516
G1 X-2.468 Y6.427
G1 X-2.502 Y6.325
G1 X-2.531 Y6.215
G1 X-2.555 Y6.099
G1 X-2.576 Y5.981
G1 X-2.596 Y5.866
G1 X-2.617 Y5.756
G1 X-2.639 Y5.655
G1 X-2.666 Y5.565
G1 X-2.698 Y5.490
G1 X-2.736 Y5.430
G1 X-2.782 Y5.388
G1 X-2.837 Y5.362
G1 X-2.902 Y5.353
G1 X-2.975 Y5.361
G1 X-3.058 Y5.382
G1 X-3.148 Y5.414
G1 X-3.246 Y5.456
G1 X-3.349 Y5.504
G1 X-3.457 Y5.554
G1 X-3.565 Y5.603
G1 X-3.674 Y5.648
G1 X-3.780 Y5.686
G1 X-3.881 Y5.713
G1 X-3.975 Y5.727
G1 X-4.060 Y5.727
G1 X-4.135 Y5.711
G1 X-4.199 Y5.679
G1 X-4.250 Y5.629
G1 X-4.289 Y5.564
G1 X-4.316 Y5.484
G1 X-4.331 Y5.391
G1 X-4.335 Y5.288
G1 X-4.331 Y5.177
G1 X-4.320 Y5.060
G1 X-4.305 Y4.942
G1 X-4.289 Y4.824
G1 X-4.273 Y4.711
G1 X-4.261 Y4.604
G1 X-4.255 Y4.507
G1 X-4.258 Y4.420
G1 X-4.271 Y4.346
G1 X-4.297 Y4.285
G1 X-4.335 Y4.238
G1 X-4.388 Y4.205
G1 X-4.455 Y4.184
G1 X-4.534 Y4.174
G1 X-4.626 Y4.174
G1 X-4.728 Y4.181
G1 X-4.839 Y4.193
G1 X-4.954 Y4.208
G1 X-5.073 Y4.222
G1 X-5.191 Y4.233
G1 X-5.306 Y4.239
G1 X-5.414 Y4.237
G1 X-5.513 Y4.226
G1 X-5.599 Y4.205
G1 X-5.672 Y4.171
G1 X-5.729 Y4.126
G1 X-5.770 Y4.068
G1 X-5.794 Y3.999
G1 X-5.801 Y3.918
G1 X-5.792 Y3.829
G1 X-5.770 Y3.732
G1 X-5.736 Y3.629
G1 X-5.693 Y3.522
G1 X-5.643 Y3.414
G1 X-5.591 Y3.307
G1 X-5.540 Y3.202
G1 X-5.493 Y3.102
G1 X-5.453 Y3.008
G1 X-5.424 Y2.922
G1 X-5.408 Y2.843
G1 X-5.406 Y2.774
G1 X-5.422 Y2.714
G1 X-5.454 Y2.662
G1 X-5.504 Y2.619
G1 X-5.570 Y2.582
G1 X-5.652 Y2.552
G1 X-5.746 Y2.526
G1 X-5.852 Y2.502
G1 X-5.964 Y2.480
G1 X-6.081 Y2.458
G1 X-6.197 Y2.433
G1 X-6.311 Y2.405
G1 X-6.417 Y2.372
G1 X-6.513 Y2.334
G1 X-6.595 Y2.289
G1 X-6.661 Y2.238
G1 X-6.709 Y2.180
G1 X-6.738 Y2.115
G1 X-6.748 Y2.044
G1 X-6.737 Y1.967
G1 X-6.709 Y1.886
G1 X-6.664 Y1.802
G1 X-6.605 Y1.715
G1 X-6.534 Y1.627
G1 X-6.456 Y1.540
G1 X-6.374 Y1.453
G1 X-6.292 Y1.368
G1 X-6.213 Y1.286
G1 X-6.142 Y1.207
G1 X-6.082 Y1.133
G1 X-6.036 Y1.062
G1 X-6.006 Y0.995
G1 X-5.994 Y0.931
G1 X-6.001 Y0.871
G1 X-6.027 Y0.813
G1 X-6.072 Y0.757
G1 X-6.133 Y0.703
G1 X-6.210 Y0.649
G1 X-6.299 Y0.594
G1 X-6.396 Y0.539
G1 X-6.499 Y0.482
G1 X-6.603 Y0.424
G1 X-6.705 Y0.363
G1 X-6.799 Y0.300
G1 X-6.884 Y0.235
G1 X-6.955 Y0.168
G1 X-7.009 Y0.099
G1 X-7.045 Y0.029
G1 X-7.061 Y-0.042
G1 X-7.057 Y-0.112
G1 X-7.032 Y-0.182
G1 X-6.987 Y-0.251
G1 X-6.925 Y-0.318
G1 X-6.847 Y-0.383
G1 X-6.757 Y-0.446
G1 X-6.659 Y-0.506
G1 X-6.555 Y-0.564
G1 X-6.449 Y-0.620
G1 X-6.347 Y-0.675
G1 X-6.252 Y-0.728
G1 X-6.166 Y-0.781
G1 X-6.094 Y-0.833
G1 X-6.038 Y-0.887
G1 X-5.999 Y-0.943
G1 X-5.979 Y-1.001
G1 X-5.978 Y-1.063
G1 X-5.996 Y-1.128
G1 X-6.031 Y-1.197
G1 X-6.082 Y-1.270
G1 X-6.145 Y-1.348
G1 X-6.218 Y-1.429
G1 X-6.296 Y-1.514
G1 X-6.378 Y-1.601
G1 X-6.457 Y-1.689
G1 X-6.531 Y-1.779
G1 X-6.596 Y-1.868
G1 X-6.649 Y-1.954
G1 X-6.686 Y-2.038
G1 X-6.706 Y-2.118
G1 X-6.708 Y-2.193
G1 X-6.690 Y-2.261
G1 X-6.653 Y-2.323
G1 X-6.596 Y-2.377
G1 X-6.523 Y-2.425
G1 X-6.435 Y-2.465
G1 X-6.334 Y-2.500
G1 X-6.224 Y-2.529
G1 X-6.108 Y-2.553
G1 X-5.991 Y-2.575
G1 X-5.875 Y-2.595
G1 X-5.764 Y-2.615
G1 X-5.662 Y-2.637
G1 X-5.572 Y-2.663
G1 X-5.495 Y-2.695
G1 X-5.435 Y-2.733
G1 X-5.390 Y-2.778
G1 X-5.364 Y-2.833
G1 X-5.354 Y-2.896
G1 X-5.359 Y-2.969
G1 X-5.379 Y-3.051
G1 X-5.411 Y-3.141
G1 X-5.453 Y-3.238
G1 X-5.500 Y-3.341
G1 X-5.550 Y-3.448
G1 X-5.599 Y-3.557
G1 X-5.645 Y-3.665
G1 X-5.683 Y-3.772
G1 X-5.711 Y-3.873
G1 X-5.727 Y-3.968
G1 X-5.728 Y-4.054
G1 X-5.713 Y-4.130
G1 X-5.682 Y-4.194
G1 X-5.634 Y-4.247
G1 X-5.570 Y-4.286
G1 X-5.491 Y-4.314
G1 X-5.399 Y-4.330
G1 X-5.297 Y-4.335
G1 X-5.186 Y-4.332
G1 X-5.069 Y-4.321
G1 X-4.951 Y-4.307
G1 X-4.833 Y-4.290
G1 X-4.720 Y-4.274
G1 X-4.612 Y-4.262
G1 X-4.514 Y-4.255
G1 X-4.427 Y-4.257
G1 X-4.351 Y-4.270
G1 X-4.290 Y-4.294
G1 X-4.242 Y-4.332
G1 X-4.207 Y-4.383
G1 X-4.185 Y-4.449
G1 X-4.175 Y-4.528
G1 X-4.174 Y-4.618
G1 X-4.181 Y-4.720
G1 X-4.192 Y-4.830
G1 X-4.207 Y-4.945
G1 X-4.221 Y-5.064
G1 X-4.232 Y-5.182
G1 X-4.239 Y-5.297
G1 X-4.238 Y-5.406
G1 X-4.228 Y-5.505
G1 X-4.207 Y-5.593
G1 X-4.174 Y-5.667
G1 X-4.130 Y-5.725
G1 X-4.073 Y-5.767
G1 X-4.004 Y-5.792
G1 X-3.925 Y-5.801
G1 X-3.836 Y-5.794
G1 X-3.740 Y-5.772
G1 X-3.637 Y-5.739
G1 X-3.531 Y-5.696
G1 X-3.423 Y-5.647
G1 X-3.315 Y-5.595
G1 X-3.210 Y-5.544
G1 X-3.110 Y-5.496
G1 X-3.015 Y-5.456
G1 X-2.928 Y-5.426
G1 X-2.849 Y-5.408
G1 X-2.779 Y-5.406
G1 X-2.718 Y-5.420
G1 X-2.666 Y-5.451
G1 X-2.622 Y-5.499
G1 X-2.585 Y-5.564
G1 X-2.554 Y-5.645
G1 X-2.528 Y-5.738
G1 X-2.504 Y-5.843
G1 X-2.482 Y-5.955
G1 X-2.459 Y-6.071
G1 X-2.435 Y-6.188
G1 X-2.407 Y-6.302
G1 X-2.375 Y-6.409
G1 X-2.337 Y-6.506
G1 X-2.293 Y-6.589
G1 X-2.242 Y-6.657
G1 X-2.184 Y-6.706
G1 X-2.120 Y-6.737
G1 X-2.050 Y-6.748
G1 X-1.974 Y-6.739
G1 X-1.893 Y-6.712
G1 X-1.809 Y-6.668
G1 X-1.722 Y-6.610
G1 X-1.634 Y-6.540
G1 X-1.546 Y-6.462
G1 X-1.460 Y-6.380
G1 X-1.375 Y-6.298
G1 X-1.292 Y-6.219
G1 X-1.213 Y-6.147
G1 X-1.138 Y-6.086
G1 X-1.067 Y-6.039
G1 X-1.000 Y-6.008
G1 X-0.936 Y-5.995
G1 X-0.875 Y-6.000
G1 X-0.818 Y-6.025
G1 X-0.762 Y-6.068
G1 X-0.707 Y-6.128
G1 X-0.653 Y-6.203
G1 X-0.599 Y-6.291
G1 X-0.544 Y-6.388
G1 X-0.487 Y-6.491
G1 X-0.429 Y-6.595
G1 X-0.368 Y-6.697
G1 X-0.305 Y-6.792
G1 X-0.240 Y-6.878
G1 X-0.173 Y-6.950
G1 X-0.104 Y-7.006
G1 X-0.034 Y-7.043
G1 X0.036 Y-7.061
G1 X0.107 Y-7.058
G1 X0.177 Y-7.035
G1 X0.246 Y-6.992
G1 X0.313 Y-6.931
G1 X0.378 Y-6.854
G1 X0.441 Y-6.765
G1 X0.502 Y-6.667
G1 X0.560 Y-6.563
G1 X0.616 Y-6.458
G1 X0.670 Y-6.355
G1 X0.724 Y-6.259
G1 X0.776 Y-6.173
G1 X0.829 Y-6.099
G1 X0.883 Y-6.042
G1 X0.938 Y-6.002
G1 X0.996 Y-5.980
G1 X1.058 Y-5.978
G1 X1.122 Y-5.994
G1 X1.191 Y-6.028
G1 X1.264 Y-6.077
G1 X1.341 Y-6.139
G1 X1.422 Y-6.211
G1 X1.507 Y-6.290
G1 X1.594 Y-6.371
G1 X1.682 Y-6.451
G1 X1.772 Y-6.525
G1 X1.861 Y-6.591
G1 X1.948 Y-6.645
G1 X2.032 Y-6.684
G1 X2.112 Y-6.706
G1 X2.187 Y-6.709
G1 X2.256 Y-6.692
G1 X2.318 Y-6.656
G1 X2.373 Y-6.601
G1 X2.421 Y-6.529
G1 X2.462 Y-6.442
G1 X2.497 Y-6.342
G1 X2.526 Y-6.233
G1 X2.551 Y-6.118
G1 X2.573 Y-6.000
G1 X2.593 Y-5.884
G1 X2.613 Y-5.773
G1 X2.636 Y-5.670
G1 X2.661 Y-5.579
G1 X2.692 Y-5.501
G1 X2.729 Y-5.439
G1 X2.774 Y-5.393
G1 X2.828 Y-5.365
G1 X2.891 Y-5.354
G1 X2.963 Y-5.358
G1 X3.044 Y-5.377
G1 X3.134 Y-5.408
G1 X3.230 Y-5.449
G1 X3.333 Y-5.496
G1 X3.439 Y-5.546
G1 X3.548 Y-5.596
G1 X3.657 Y-5.641
G1 X3.763 Y-5.680
G1 X3.865 Y-5.709
G1 X3.961 Y-5.726
G1 X4.047 Y-5.728
G1 X4.124 Y-5.715
G1 X4.190 Y-5.685
G1 X4.243 Y-5.638
G1 X4.284 Y-5.576
G1 X4.312 Y-5.498
G1 X4.329 Y-5.407
G1 X4.335 Y-5.305
G1 X4.332 Y-5.195
G1 X4.322 Y-5.079
G1 X4.308 Y-4.961
G1 X4.291 Y-4.843
G1 X4.275 Y-4.729
G1 X4.263 Y-4.621
G1 X4.256 Y-4.521
G1 X4.257 Y-4.433
G1 X4.268 Y-4.357
G1 X4.292 Y-4.294
G1 X4.328 Y-4.245
G1 X4.379 Y-4.209
G1 X4.443 Y-4.187
G1 X4.521 Y-4.175
G1 X4.611 Y-4.174
G1 X4.711 Y-4.180
G1 X4.821 Y-4.191
G1 X4.936 Y-4.206
G1 X5.054 Y-4.220
G1 X5.173 Y-4.232
G1 X5.288 Y-4.239
G1 X5.397 Y-4.238
G1 X5.498 Y-4.229
G1 X5.586 Y-4.209
G1 X5.662 Y-4.177
G1 X5.721 Y-4.134
G1 X5.765 Y-4.078
G1 X5.791 Y-4.010
G1 X5.801 Y-3.932
G1 X5.795 Y-3.844
G1 X5.774 Y-3.748
G1 X5.742 Y-3.646
G1 X5.700 Y-3.539
G1 X5.651 Y-3.431
G1 X5.600 Y-3.324
G1 X5.548 Y-3.219
G1 X5.500 Y-3.118
G1 X5.459 Y-3.023
G1 X5.428 Y-2.935
G1 X5.409 Y-2.855
G1 X5.405 Y-2.785
G1 X5.418 Y-2.723
G1 X5.448 Y-2.670
G1 X5.495 Y-2.625
G1 X5.559 Y-2.588
G1 X5.638 Y-2.556
G1 X5.731 Y-2.529
G1 X5.834 Y-2.506
G1 X5.946 Y-2.484
G1 X6.062 Y-2.461
G1 X6.179 Y-2.437
G1 X6.293 Y-2.410
G1 X6.401 Y-2.378
G1 X6.498 Y-2.340
G1 X6.583 Y-2.297
G1 X6.652 Y-2.246
G1 X6.703 Y-2.189
G1 X6.735 Y-2.125
G1 X6.747 Y-2.055
G1 X6.740 Y-1.980
G1 X6.715 Y-1.899
G1 X6.672 Y-1.816
G1 X6.615 Y-1.729
G1 X6.546 Y-1.641
G1 X6.469 Y-1.553
G1 X6.387 Y-1.466
G1 X6.305 Y-1.381
G1 X6.225 Y-1.299
G1 X6.153 Y-1.220
G1 X6.091 Y-1.144
G1 X6.042 Y-1.073
G1 X6.010 Y-1.005
G1 X5.995 Y-0.941
G1 X5.999 Y-0.880
G1 X6.022 Y-0.822
G1 X6.064 Y-0.766
G1 X6.123 Y-0.711
G1 X6.197 Y-0.657
G1 X6.284 Y-0.603
G1 X6.380 Y-0.548
G1 X6.483 Y-0.492
G1 X6.587 Y-0.433
G1 X6.689 Y-0.373
G1 X6.785 Y-0.310
G1 X6.871 Y-0.245
G1 X6.945 Y-0.178
G1 X7.002 Y-0.110
G1 X7.041 Y-0.040
G1 X7.060 Y0.030
G1 X7.059 Y0.101
G1 X7.037 Y0.171
G1 X6.996 Y0.240
G1 X6.936 Y0.308
G1 X6.861 Y0.373
G1 X6.773 Y0.436
G1 X6.675 Y0.497
G1 X6.571 Y0.555
G1 X6.466 Y0.612
G1 X6.363 Y0.666
G1 X6.266 Y0.719
G1 X6.179 Y0.772
G1 X6.105 Y0.825
G1 X6.046 Y0.879
G1 X6.004 Y0.934
G1 X5.981 Y0.992
G1 X5.977 Y1.053
G1 X5.992 Y1.117
G1 X6.025 Y1.186
G1 X6.073 Y1.258
G1 X6.134 Y1.335
G1 X6.205 Y1.416
G1 X6.284 Y1.500
G1 X6.365 Y1.587
G1 X6.445 Y1.675
G0 Z0.6
G0 X7.020 Y2.162
Z0.6
Z0.2
Z0.01
G1 Z-0.125 F400
G1 X7.020 Y2.162
G1 X7.085 Y2.260
G1 X7.141 Y2.356
G1 X7.183 Y2.450
G1 X7.209 Y2.540
G1 X7.217 Y2.624
G1 X7.207 Y2.702
G1 X7.177 Y2.773
G1 X7.128 Y2.837
G1 X7.061 Y2.892
G1 X6.977 Y2.940
G1 X6.880 Y2.980
G1 X6.772 Y3.014
G1 X6.656 Y3.042
G1 X6.536 Y3.067
G1 X6.415 Y3.089
G1 X6.297 Y3.110
G1 X6.186 Y3.132
G1 X6.084 Y3.158
G1 X5.994 Y3.188
G1 X5.919 Y3.224
G1 X5.860 Y3.268
G1 X5.817 Y3.321
G1 X5.791 Y3.383
G1 X5.781 Y3.455
G1 X5.786 Y3.537
G1 X5.804 Y3.629
G1 X5.832 Y3.728
G1 X5.869 Y3.835
G1 X5.910 Y3.946
G1 X5.952 Y4.061
G1 X5.993 Y4.177
G1 X6.028 Y4.292
G1 X6.055 Y4.403
G1 X6.071 Y4.508
G1 X6.074 Y4.606
G1 X6.063 Y4.693
G1 X6.035 Y4.769
G1 X5.991 Y4.833
G1 X5.932 Y4.883
G1 X5.857 Y4.920
G1 X5.768 Y4.945
G1 X5.667 Y4.958
G1 X5.557 Y4.961
G1 X5.440 Y4.955
G1 X5.319 Y4.943
G1 X5.197 Y4.927
G1 X5.076 Y4.910
G1 X4.961 Y4.895
G1 X4.853 Y4.885
G1 X4.754 Y4.882
G1 X4.666 Y4.889
G1 X4.591 Y4.907
G1 X4.528 Y4.939
G1 X4.479 Y4.984
G1 X4.442 Y5.044
G1 X4.417 Y5.117
G1 X4.402 Y5.205
G1 X4.396 Y5.304
G1 X4.395 Y5.413
G1 X4.399 Y5.529
G1 X4.404 Y5.651
G1 X4.408 Y5.774
G1 X4.408 Y5.895
G1 X4.402 Y6.012
G1 X4.389 Y6.121
G1 X4.366 Y6.220
G1 X4.333 Y6.305
G1 X4.288 Y6.376
G1 X4.232 Y6.430
G1 X4.164 Y6.467
G1 X4.085 Y6.486
G1 X3.997 Y6.489
G1 X3.900 Y6.476
G1 X3.797 Y6.450
G1 X3.688 Y6.412
G1 X3.578 Y6.365
G1 X3.466 Y6.314
G1 X3.356 Y6.260
G1 X3.249 Y6.209
G1 X3.146 Y6.163
G1 X3.050 Y6.125
G1 X2.961 Y6.099
G1 X2.881 Y6.086
G1 X2.808 Y6.090
G1 X2.744 Y6.110
G1 X2.687 Y6.148
G1 X2.638 Y6.204
G1 X2.595 Y6.276
G1 X2.556 Y6.362
G1 X2.521 Y6.462
G1 X2.489 Y6.571
G1 X2.456 Y6.686
G1 X2.423 Y6.804
G1 X2.387 Y6.921
G1 X2.347 Y7.034
G1 X2.303 Y7.138
G1 X2.253 Y7.230
G1 X2.197 Y7.308
G1 X2.135 Y7.369
G1 X2.067 Y7.411
G1 X1.994 Y7.434
G1 X1.915 Y7.436
G1 X1.832 Y7.419
G1 X1.745 Y7.384
G1 X1.655 Y7.333
G1 X1.565 Y7.268
G1 X1.473 Y7.193
G1 X1.383 Y7.111
G1 X1.293 Y7.026
G1 X1.206 Y6.942
G1 X1.122 Y6.864
G1 X1.041 Y6.794
G1 X0.963 Y6.735
G1 X0.889 Y6.692
G1 X0.818 Y6.665
G1 X0.749 Y6.657
G1 X0.683 Y6.668
G1 X0.618 Y6.698
G1 X0.555 Y6.745
G1 X0.491 Y6.810
G1 X0.428 Y6.888
G1 X0.364 Y6.978
G1 X0.298 Y7.076
G1 X0.230 Y7.177
G1 X0.160 Y7.279
G1 X0.089 Y7.376
G1 X0.015 Y7.466
G1 X-0.060 Y7.544
G1 X-0.137 Y7.608
G1 X-0.214 Y7.655
G1 X-0.292 Y7.682
G1 X-0.369 Y7.689
G1 X-0.445 Y7.676
G1 X-0.520 Y7.642
G1 X-0.593 Y7.589
G1 X-0.663 Y7.519
G1 X-0.731 Y7.434
G1 X-0.795 Y7.338
G1 X-0.857 Y7.235
G1 X-0.917 Y7.127
G1 X-0.975 Y7.019
G1 X-1.031 Y6.916
G1 X-1.086 Y6.820
G1 X-1.142 Y6.735
G1 X-1.199 Y6.664
G1 X-1.257 Y6.609
G1 X-1.318 Y6.572
G1 X-1.383 Y6.554
G1 X-1.452 Y6.555
G1 X-1.525 Y6.574
G1 X-1.603 Y6.609
G1 X-1.686 Y6.659
G1 X-1.773 Y6.721
G1 X-1.864 Y6.791
G1 X-1.959 Y6.865
G1 X-2.056 Y6.941
G1 X-2.154 Y7.014
G1 X-2.252 Y7.081
G1 X-2.349 Y7.137
G1 X-2.443 Y7.180
G1 X-2.533 Y7.207
G1 X-2.618 Y7.217
G1 X-2.696 Y7.208
G1 X-2.768 Y7.180
G1 X-2.832 Y7.132
G1 X-2.888 Y7.066
G1 X-2.936 Y6.984
G1 X-2.977 Y6.888
G1 X-3.011 Y6.781
G1 X-3.040 Y6.665
G1 X-3.065 Y6.545
G1 X-3.087 Y6.424
G1 X-3.108 Y6.306
G1 X-3.131 Y6.194
G1 X-3.155 Y6.092
G1 X-3.185 Y6.001
G1 X-3.221 Y5.924
G1 X-3.264 Y5.864
G1 X-3.316 Y5.820
G1 X-3.378 Y5.792
G1 X-3.449 Y5.781
G1 X-3.530 Y5.785
G1 X-3.621 Y5.802
G1 X-3.720 Y5.830
G1 X-3.826 Y5.866
G1 X-3.937 Y5.906
G1 X-4.052 Y5.949
G1 X-4.168 Y5.990
G1 X-4.283 Y6.025
G1 X-4.394 Y6.053
G1 X-4.500 Y6.070
G1 X-4.598 Y6.074
G1 X-4.686 Y6.064
G1 X-4.763 Y6.038
G1 X-4.828 Y5.995
G1 X-4.880 Y5.937
G1 X-4.918 Y5.863
G1 X-4.944 Y5.775
G1 X-4.957 Y5.676
G1 X-4.961 Y5.566
G1 X-4.955 Y5.449
G1 X-4.944 Y5.329
G1 X-4.928 Y5.206
G1 X-4.912 Y5.086
G1 X-4.896 Y4.970
G1 X-4.886 Y4.861
G1 X-4.882 Y4.761
G1 X-4.888 Y4.673
G1 X-4.905 Y4.596
G1 X-4.936 Y4.533
G1 X-4.980 Y4.482
G1 X-5.038 Y4.444
G1 X-5.111 Y4.418
G1 X-5.197 Y4.403
G1 X-5.295 Y4.396
G1 X-5.404 Y4.395
G1 X-5.520 Y4.399
G1 X-5.641 Y4.404
G1 X-5.764 Y4.408
G1 X-5.886 Y4.408
G1 X-6.003 Y4.403
G1 X-6.113 Y4.390
G1 X-6.213 Y4.368
G1 X-6.299 Y4.336
G1 X-6.371 Y4.292
G1 X-6.426 Y4.237
G1 X-6.465 Y4.170
G1 X-6.485 Y4.092
G1 X-6.489 Y4.004
G1 X-6.478 Y3.908
G1 X-6.452 Y3.805
G1 X-6.415 Y3.697
G1 X-6.369 Y3.586
G1 X-6.318 Y3.475
G1 X-6.265 Y3.364
G1 X-6.213 Y3.257
G1 X-6.166 Y3.154
G1 X-6.128 Y3.058
G1 X-6.100 Y2.968
G1 X-6.087 Y2.887
G1 X-6.089 Y2.813
G1 X-6.108 Y2.749
G1 X-6.145 Y2.691
G1 X-6.199 Y2.642
G1 X-6.269 Y2.598
G1 X-6.355 Y2.559
G1 X-6.453 Y2.524
G1 X-6.562 Y2.491
G1 X-6.677 Y2.459
G1 X-6.795 Y2.425
G1 X-6.912 Y2.390
G1 X-7.025 Y2.350
G1 X-7.130 Y2.306
G1 X-7.224 Y2.257
G1 X-7.303 Y2.202
G1 X-7.365 Y2.141
G1 X-7.409 Y2.073
G1 X-7.433 Y2.000
G1 X-7.437 Y1.921
G1 X-7.421 Y1.838
G1 X-7.387 Y1.752
G1 X-7.337 Y1.663
G1 X-7.273 Y1.572
G1 X-7.199 Y1.481
G1 X-7.118 Y1.390
G1 X-7.033 Y1.300
G1 X-6.949 Y1.213
G1 X-6.870 Y1.129
G1 X-6.799 Y1.047
G1 X-6.740 Y0.969
G1 X-6.695 Y0.895
G1 X-6.667 Y0.823
G1 X-6.657 Y0.754
G1 X-6.666 Y0.688
G1 X-6.694 Y0.623
G1 X-6.741 Y0.560
G1 X-6.804 Y0.497
G1 X-6.882 Y0.433
G1 X-6.971 Y0.369
G1 X-7.068 Y0.303
G1 X-7.169 Y0.236
G1 X-7.271 Y0.166
G1 X-7.369 Y0.095
G1 X-7.459 Y0.021
G1 X-7.539 Y-0.054
G1 X-7.604 Y-0.130
G1 X-7.651 Y-0.208
G1 X-7.680 Y-0.286
G1 X-7.689 Y-0.363
G1 X-7.677 Y-0.439
G1 X-7.645 Y-0.514
G1 X-7.594 Y-0.587
G1 X-7.525 Y-0.658
G1 X-7.441 Y-0.725
G1 X-7.346 Y-0.790
G1 X-7.243 Y-0.852
G1 X-7.136 Y-0.912
G1 X-7.028 Y-0.970
G1 X-6.924 Y-1.026
G1 X-6.827 Y-1.082
G1 X-6.741 Y-1.137
G1 X-6.669 Y-1.194
G1 X-6.613 Y-1.252
G1 X-6.575 Y-1.313
G1 X-6.555 Y-1.378
G1 X-6.554 Y-1.446
G1 X-6.572 Y-1.519
G1 X-6.606 Y-1.597
G1 X-6.655 Y-1.679
G1 X-6.715 Y-1.766
G1 X-6.785 Y-1.857
G1 X-6.859 Y-1.951
G1 X-6.935 Y-2.048
G1 X-7.009 Y-2.146
G1 X-7.076 Y-2.244
G1 X-7.133 Y-2.341
G1 X-7.177 Y-2.436
G1 X-7.206 Y-2.526
G1 X-7.217 Y-2.611
G1 X-7.210 Y-2.690
G1 X-7.183 Y-2.762
G1 X-7.137 Y-2.827
G1 X-7.072 Y-2.884
G1 X-6.991 Y-2.933
G1 X-6.896 Y-2.974
G1 X-6.790 Y-3.009
G1 X-6.675 Y-3.038
G1 X-6.555 Y-3.063
G1 X-6.434 Y-3.085
G1 X-6.315 Y-3.107
G1 X-6.203 Y-3.129
G1 X-6.099 Y-3.153
G1 X-6.008 Y-3.182
G1 X-5.930 Y-3.218
G1 X-5.868 Y-3.260
G1 X-5.822 Y-3.312
G1 X-5.794 Y-3.373
G1 X-5.781 Y-3.443
G1 X-5.784 Y-3.524
G1 X-5.800 Y-3.613
G1 X-5.827 Y-3.712
G1 X-5.863 Y-3.817
G1 X-5.903 Y-3.928
G1 X-5.945 Y-4.043
G1 X-5.986 Y-4.159
G1 X-6.023 Y-4.274
G1 X-6.051 Y-4.386
G1 X-6.069 Y-4.492
G1 X-6.075 Y-4.591
G1 X-6.065 Y-4.680
G1 X-6.041 Y-4.758
G1 X-5.999 Y-4.823
G1 X-5.942 Y-4.876
G1 X-5.870 Y-4.915
G1 X-5.783 Y-4.942
G1 X-5.684 Y-4.957
G1 X-5.575 Y-4.961
G1 X-5.459 Y-4.956
G1 X-5.338 Y-4.945
G1 X-5.216 Y-4.929
G1 X-5.095 Y-4.913
G1 X-4.979 Y-4.898
G1 X-4.869 Y-4.887
G1 X-4.769 Y-4.882
G1 X-4.679 Y-4.887
G1 X-4.602 Y-4.904
G1 X-4.537 Y-4.933
G1 X-4.486 Y-4.976
G1 X-4.447 Y-5.033
G1 X-4.420 Y-5.105
G1 X-4.404 Y-5.190
G1 X-4.396 Y-5.287
G1 X-4.395 Y-5.395
G1 X-4.398 Y-5.510
G1 X-4.403 Y-5.631
G1 X-4.407 Y-5.754
G1 X-4.408 Y-5.876
G1 X-4.404 Y-5.994
G1 X-4.392 Y-6.105
G1 X-4.371 Y-6.205
G1 X-4.339 Y-6.293
G1 X-4.296 Y-6.366
G1 X-4.241 Y-6.423
G1 X-4.175 Y-6.462
G1 X-4.098 Y-6.484
G1 X-4.011 Y-6.490
G1 X-3.916 Y-6.479
G1 X-3.813 Y-6.455
G1 X-3.706 Y-6.418
G1 X-3.595 Y-6.373
G1 X-3.484 Y-6.322
G1 X-3.373 Y-6.269
G1 X-3.265 Y-6.217
G1 X-3.162 Y-6.170
G1 X-3.065 Y-6.130
G1 X-2.975 Y-6.102
G1 X-2.893 Y-6.087
G1 X-2.819 Y-6.088
G1 X-2.753 Y-6.106
G1 X-2.696 Y-6.141
G1 X-2.645 Y-6.194
G1 X-2.601 Y-6.263
G1 X-2.562 Y-6.348
G1 X-2.527 Y-6.445
G1 X-2.494 Y-6.553
G1 X-2.461 Y-6.667
G1 X-2.428 Y-6.785
G1 X-2.393 Y-6.903
G1 X-2.354 Y-7.016
G1 X-2.310 Y-7.122
G1 X-2.261 Y-7.217
G1 X-2.206 Y-7.297
G1 X-2.146 Y-7.361
G1 X-2.079 Y-7.406
G1 X-2.006 Y-7.431
G1 X-1.928 Y-7.437
G1 X-1.845 Y-7.423
G1 X-1.759 Y-7.391
G1 X-1.670 Y-7.342
G1 X-1.579 Y-7.279
G1 X-1.488 Y-7.205
G1 X-1.397 Y-7.124
G1 X-1.307 Y-7.040
G1 X-1.220 Y-6.956
G1 X-1.135 Y-6.876
G1 X-1.054 Y-6.804
G1 X-0.975 Y-6.744
G1 X-0.900 Y-6.698
G1 X-0.829 Y-6.668
G1 X-0.760 Y-6.657
G1 X-0.693 Y-6.665
G1 X-0.628 Y-6.692
G1 X-0.565 Y-6.737
G1 X-0.502 Y-6.799
G1 X-0.438 Y-6.875
G1 X-0.374 Y-6.963
G1 X-0.308 Y-7.060
G1 X-0.241 Y-7.161
G1 X-0.172 Y-7.263
G1 X-0.100 Y-7.361
G1 X-0.027 Y-7.452
G1 X0.048 Y-7.533
G1 X0.124 Y-7.599
G1 X0.202 Y-7.648
G1 X0.279 Y-7.679
G1 X0.357 Y-7.689
G1 X0.433 Y-7.679
G1 X0.508 Y-7.648
G1 X0.581 Y-7.598
G1 X0.652 Y-7.531
G1 X0.720 Y-7.449
G1 X0.785 Y-7.354
G1 X0.848 Y-7.252
G1 X0.908 Y-7.144
G1 X0.965 Y-7.036
G1 X1.022 Y-6.932
G1 X1.077 Y-6.834
G1 X1.133 Y-6.747
G1 X1.189 Y-6.674
G1 X1.248 Y-6.617
G1 X1.308 Y-6.577
G1 X1.372 Y-6.556
G1 X1.441 Y-6.554
G1 X1.513 Y-6.570
G1 X1.590 Y-6.603
G1 X1.672 Y-6.650
G1 X1.759 Y-6.710
G1 X1.850 Y-6.779
G1 X1.944 Y-6.853
G1 X2.040 Y-6.929
G1 X2.138 Y-7.003
G1 X2.237 Y-7.071
G1 X2.334 Y-7.129
G1 X2.428 Y-7.174
G1 X2.519 Y-7.204
G1 X2.605 Y-7.217
G1 X2.684 Y-7.211
G1 X2.757 Y-7.186
G1 X2.822 Y-7.141
G1 X2.879 Y-7.078
G1 X2.929 Y-6.998
G1 X2.971 Y-6.904
G1 X3.006 Y-6.798
G1 X3.036 Y-6.684
G1 X3.061 Y-6.564
G1 X3.084 Y-6.443
G1 X3.105 Y-6.325
G1 X3.127 Y-6.211
G1 X3.151 Y-6.107
G1 X3.180 Y-6.014
G1 X3.215 Y-5.936
G1 X3.257 Y-5.872
G1 X3.307 Y-5.825
G1 X3.367 Y-5.795
G1 X3.437 Y-5.782
G1 X3.517 Y-5.783
G1 X3.606 Y-5.798
G1 X3.704 Y-5.825
G1 X3.809 Y-5.859
G1 X3.919 Y-5.900
G1 X4.034 Y-5.942
G1 X4.150 Y-5.983
G1 X4.265 Y-6.020
G1 X4.377 Y-6.049
G1 X4.484 Y-6.068
G1 X4.583 Y-6.075
G1 X4.673 Y-6.067
G1 X4.752 Y-6.043
G1 X4.819 Y-6.003
G1 X4.872 Y-5.947
G1 X4.913 Y-5.876
G1 X4.940 Y-5.790
G1 X4.956 Y-5.692
G1 X4.961 Y-5.584
G1 X4.957 Y-5.468
G1 X4.946 Y-5.348
G1 X4.931 Y-5.226
G1 X4.914 Y-5.105
G1 X4.899 Y-4.988
G1 X4.887 Y-4.878
G1 X4.882 Y-4.776
G1 X4.887 Y-4.686
G1 X4.902 Y-4.607
G1 X4.930 Y-4.542
G1 X4.972 Y-4.489
G1 X5.028 Y-4.450
G1 X5.099 Y-4.422
G1 X5.183 Y-4.405
G1 X5.279 Y-4.396
G1 X5.386 Y-4.395
G1 X5.501 Y-4.398
G1 X5.621 Y-4.403
G1 X5.744 Y-4.407
G1 X5.867 Y-4.408
G1 X5.985 Y-4.404
G1 X6.096 Y-4.393
G1 X6.197 Y-4.373
G1 X6.286 Y-4.342
G1 X6.361 Y-4.300
G1 X6.419 Y-4.246
G1 X6.460 Y-4.181
G1 X6.483 Y-4.105
G1 X6.490 Y-4.019
G1 X6.481 Y-3.924
G1 X6.457 Y-3.822
G1 X6.422 Y-3.715
G1 X6.377 Y-3.604
G1 X6.326 Y-3.493
G1 X6.273 Y-3.382
G1 X6.221 Y-3.274
G1 X6.173 Y-3.170
G1 X6.133 Y-3.073
G1 X6.104 Y-2.982
G1 X6.088 Y-2.899
G1 X6.087 Y-2.825
G1 X6.104 Y-2.758
G1 X6.138 Y-2.700
G1 X6.189 Y-2.649
G1 X6.257 Y-2.605
G1 X6.341 Y-2.565
G1 X6.437 Y-2.530
G1 X6.544 Y-2.496
G1 X6.658 Y-2.464
G1 X6.776 Y-2.431
G1 X6.894 Y-2.395
G1 X7.008 Y-2.357
G1 X7.114 Y-2.314
G1 X7.210 Y-2.265
G1 X7.291 Y-2.211
G1 X7.356 Y-2.151
G1 X7.403 Y-2.084
G1 X7.430 Y-2.012
G1 X7.437 Y-1.934
G1 X7.425 Y-1.852
G1 X7.394 Y-1.766
G1 X7.346 Y-1.677
G1 X7.284 Y-1.586
G1 X7.211 Y-1.495
G1 X7.131 Y-1.404
G1 X7.046 Y-1.315
G1 X6.962 Y-1.227
G1 X6.882 Y-1.142
G1 X6.809 Y-1.060
G1 X6.748 Y-0.981
G1 X6.701 Y-0.906
G1 X6.670 Y-0.834
G1 X6.657 Y-0.765
G1 X6.663 Y-0.698
G1 X6.689 Y-0.634
G1 X6.732 Y-0.570
G1 X6.793 Y-0.507
G1 X6.869 Y-0.443
G1 X6.956 Y-0.379
G1 X7.052 Y-0.314
G1 X7.153 Y-0.246
G1 X7.255 Y-0.177
G1 X7.354 Y-0.106
G1 X7.446 Y-0.033
G1 X7.527 Y0.042
G1 X7.594 Y0.118
G1 X7.645 Y0.195
G1 X7.677 Y0.273
G1 X7.689 Y0.351
G1 X7.681 Y0.427
G1 X7.652 Y0.502
G1 X7.603 Y0.576
G1 X7.537 Y0.646
G1 X7.456 Y0.715
G1 X7.362 Y0.780
G1 X7.260 Y0.843
G1 X7.153 Y0.903
G1 X7.045 Y0.961
G1 X6.940 Y1.017
G1 X6.842 Y1.073
G1 X6.754 Y1.129
G1 X6.679 Y1.185
G1 X6.621 Y1.243
G1 X6.579 Y1.303
G1 X6.557 Y1.367
G1 X6.553 Y1.435
G1 X6.568 Y1.507
G1 X6.599 Y1.584
G1 X6.646 Y1.666
G1 X6.705 Y1.752
G1 X6.773 Y1.842
G1 X6.847 Y1.936
G1 X6.923 Y2.033
G1 X6.997 Y2.131
G0 Z0.6
G0 X7.542 Y2.668
Z0.6
Z0.2
Z0.01
G1 Z-0.125 F400
G1 X7.542 Y2.668
G1 X7.600 Y2.774
G1 X7.647 Y2.878
G1 X7.680 Y2.979
G1 X7.696 Y3.074
G1 X7.695 Y3.163
G1 X7.675 Y3.245
G1 X7.636 Y3.319
G1 X7.578 Y3.384
G1 X7.503 Y3.441
G1 X7.412 Y3.490
G1 X7.308 Y3.530
G1 X7.194 Y3.564
G1 X7.073 Y3.593
G1 X6.949 Y3.618
G1 X6.825 Y3.640
G1 X6.704 Y3.663
G1 X6.591 Y3.687
G1 X6.487 Y3.714
G1 X6.396 Y3.748
G1 X6.319 Y3.788
G1 X6.258 Y3.837
G1 X6.213 Y3.895
G1 X6.185 Y3.964
G1 X6.172 Y4.044
G1 X6.173 Y4.133
G1 X6.186 Y4.232
G1 X6.209 Y4.339
G1 X6.238 Y4.454
G1 X6.272 Y4.573
G1 X6.306 Y4.695
G1 X6.337 Y4.817
G1 X6.363 Y4.938
G1 X6.379 Y5.054
G1 X6.385 Y5.163
G1 X6.377 Y5.263
G1 X6.355 Y5.353
G1 X6.317 Y5.430
G1 X6.264 Y5.494
G1 X6.195 Y5.544
G1 X6.111 Y5.580
G1 X6.015 Y5.603
G1 X5.907 Y5.614
G1 X5.791 Y5.615
G1 X5.669 Y5.608
G1 X5.543 Y5.595
G1 X5.417 Y5.578
G1 X5.294 Y5.561
G1 X5.176 Y5.547
G1 X5.065 Y5.539
G1 X4.964 Y5.538
G1 X4.874 Y5.548
G1 X4.795 Y5.570
G1 X4.729 Y5.606
G1 X4.676 Y5.656
G1 X4.634 Y5.721
G1 X4.603 Y5.801
G1 X4.582 Y5.894
G1 X4.568 Y5.999
G1 X4.559 Y6.114
G1 X4.554 Y6.235
G1 X4.549 Y6.361
G1 X4.542 Y6.488
G1 X4.531 Y6.612
G1 X4.514 Y6.731
G1 X4.490 Y6.841
G1 X4.456 Y6.939
G1 X4.411 Y7.024
G1 X4.356 Y7.093
G1 X4.290 Y7.144
G1 X4.213 Y7.178
G1 X4.127 Y7.194
G1 X4.031 Y7.193
G1 X3.928 Y7.176
G1 X3.819 Y7.146
G1 X3.706 Y7.105
G1 X3.591 Y7.056
G1 X3.476 Y7.002
G1 X3.363 Y6.947
G1 X3.253 Y6.895
G1 X3.148 Y6.849
G1 X3.049 Y6.813
G1 X2.957 Y6.788
G1 X2.872 Y6.778
G1 X2.795 Y6.785
G1 X2.726 Y6.809
G1 X2.663 Y6.851
G1 X2.607 Y6.910
G1 X2.556 Y6.986
G1 X2.509 Y7.076
G1 X2.465 Y7.178
G1 X2.422 Y7.289
G1 X2.379 Y7.406
G1 X2.334 Y7.525
G1 X2.287 Y7.642
G1 X2.236 Y7.753
G1 X2.181 Y7.855
G1 X2.120 Y7.944
G1 X2.054 Y8.018
G1 X1.983 Y8.074
G1 X1.906 Y8.111
G1 X1.824 Y8.128
G1 X1.738 Y8.124
G1 X1.649 Y8.101
G1 X1.557 Y8.060
G1 X1.463 Y8.004
G1 X1.368 Y7.934
G1 X1.274 Y7.855
G1 X1.181 Y7.770
G1 X1.089 Y7.682
G1 X0.999 Y7.597
G1 X0.913 Y7.517
G1 X0.828 Y7.447
G1 X0.747 Y7.389
G1 X0.669 Y7.347
G1 X0.593 Y7.322
G1 X0.519 Y7.315
G1 X0.446 Y7.328
G1 X0.374 Y7.359
G1 X0.302 Y7.408
G1 X0.230 Y7.474
G1 X0.157 Y7.552
G1 X0.083 Y7.642
G1 X0.006 Y7.738
G1 X-0.072 Y7.837
G1 X-0.152 Y7.935
G1 X-0.235 Y8.028
G1 X-0.318 Y8.112
G1 X-0.403 Y8.185
G1 X-0.489 Y8.242
G1 X-0.574 Y8.281
G1 X-0.659 Y8.301
G1 X-0.742 Y8.300
G1 X-0.824 Y8.279
G1 X-0.903 Y8.237
G1 X-0.979 Y8.177
G1 X-1.052 Y8.100
G1 X-1.122 Y8.010
G1 X-1.189 Y7.909
G1 X-1.252 Y7.800
G1 X-1.314 Y7.689
G1 X-1.373 Y7.579
G1 X-1.431 Y7.473
G1 X-1.489 Y7.376
G1 X-1.548 Y7.290
G1 X-1.608 Y7.219
G1 X-1.671 Y7.164
G1 X-1.738 Y7.127
G1 X-1.809 Y7.109
G1 X-1.885 Y7.109
G1 X-1.966 Y7.127
G1 X-2.053 Y7.161
G1 X-2.145 Y7.208
G1 X-2.241 Y7.266
G1 X-2.342 Y7.332
G1 X-2.446 Y7.402
G1 X-2.552 Y7.471
G1 X-2.659 Y7.537
G1 X-2.766 Y7.596
G1 X-2.870 Y7.643
G1 X-2.971 Y7.678
G1 X-3.067 Y7.696
G1 X-3.156 Y7.696
G1 X-3.239 Y7.678
G1 X-3.313 Y7.640
G1 X-3.379 Y7.584
G1 X-3.437 Y7.510
G1 X-3.486 Y7.420
G1 X-3.527 Y7.317
G1 X-3.562 Y7.204
G1 X-3.591 Y7.083
G1 X-3.616 Y6.959
G1 X-3.638 Y6.834
G1 X-3.661 Y6.714
G1 X-3.685 Y6.599
G1 X-3.712 Y6.495
G1 X-3.745 Y6.403
G1 X-3.784 Y6.325
G1 X-3.833 Y6.262
G1 X-3.890 Y6.216
G1 X-3.958 Y6.186
G1 X-4.037 Y6.172
G1 X-4.126 Y6.172
G1 X-4.224 Y6.184
G1 X-4.331 Y6.207
G1 X-4.444 Y6.236
G1 X-4.563 Y6.269
G1 X-4.685 Y6.303
G1 X-4.808 Y6.335
G1 X-4.929 Y6.361
G1 X-5.045 Y6.378
G1 X-5.155 Y6.385
G1 X-5.256 Y6.378
G1 X-5.346 Y6.357
G1 X-5.424 Y6.321
G1 X-5.489 Y6.268
G1 X-5.540 Y6.201
G1 X-5.578 Y6.118
G1 X-5.602 Y6.023
G1 X-5.614 Y5.916
G1 X-5.616 Y5.800
G1 X-5.609 Y5.679
G1 X-5.596 Y5.553
G1 X-5.579 Y5.427
G1 X-5.563 Y5.304
G1 X-5.548 Y5.185
G1 X-5.539 Y5.074
G1 X-5.538 Y4.972
G1 X-5.546 Y4.880
G1 X-5.568 Y4.801
G1 X-5.602 Y4.734
G1 X-5.652 Y4.680
G1 X-5.716 Y4.637
G1 X-5.794 Y4.605
G1 X-5.886 Y4.583
G1 X-5.990 Y4.569
G1 X-6.104 Y4.560
G1 X-6.225 Y4.554
G1 X-6.351 Y4.549
G1 X-6.478 Y4.543
G1 X-6.602 Y4.532
G1 X-6.722 Y4.516
G1 X-6.833 Y4.492
G1 X-6.932 Y4.459
G1 X-7.018 Y4.415
G1 X-7.088 Y4.361
G1 X-7.141 Y4.296
G1 X-7.176 Y4.220
G1 X-7.193 Y4.134
G1 X-7.193 Y4.039
G1 X-7.178 Y3.936
G1 X-7.149 Y3.828
G1 X-7.108 Y3.715
G1 X-7.060 Y3.600
G1 X-7.006 Y3.485
G1 X-6.952 Y3.372
G1 X-6.899 Y3.261
G1 X-6.853 Y3.156
G1 X-6.815 Y3.056
G1 X-6.790 Y2.964
G1 X-6.779 Y2.879
G1 X-6.784 Y2.801
G1 X-6.806 Y2.731
G1 X-6.847 Y2.668
G1 X-6.905 Y2.612
G1 X-6.979 Y2.560
G1 X-7.068 Y2.513
G1 X-7.169 Y2.468
G1 X-7.280 Y2.425
G1 X-7.397 Y2.382
G1 X-7.515 Y2.338
G1 X-7.632 Y2.291
G1 X-7.744 Y2.240
G1 X-7.847 Y2.185
G1 X-7.937 Y2.125
G1 X-8.013 Y2.060
G1 X-8.070 Y1.989
G1 X-8.109 Y1.912
G1 X-8.127 Y1.831
G1 X-8.125 Y1.745
G1 X-8.104 Y1.656
G1 X-8.064 Y1.564
G1 X-8.009 Y1.471
G1 X-7.940 Y1.376
G1 X-7.862 Y1.282
G1 X-7.777 Y1.188
G1 X-7.689 Y1.096
G1 X-7.604 Y1.006
G1 X-7.523 Y0.919
G1 X-7.452 Y0.835
G1 X-7.393 Y0.754
G1 X-7.350 Y0.675
G1 X-7.323 Y0.599
G1 X-7.315 Y0.525
G1 X-7.326 Y0.452
G1 X-7.356 Y0.380
G1 X-7.404 Y0.308
G1 X-7.468 Y0.236
G1 X-7.546 Y0.163
G1 X-7.634 Y0.089
G1 X-7.730 Y0.012
G1 X-7.829 Y-0.066
G1 X-7.927 Y-0.146
G1 X-8.021 Y-0.228
G1 X-8.106 Y-0.311
G1 X-8.179 Y-0.396
G1 X-8.238 Y-0.482
G1 X-8.278 Y-0.567
G1 X-8.300 Y-0.652
G1 X-8.301 Y-0.736
G1 X-8.281 Y-0.818
G1 X-8.241 Y-0.897
G1 X-8.182 Y-0.973
G1 X-8.107 Y-1.047
G1 X-8.017 Y-1.117
G1 X-7.917 Y-1.184
G1 X-7.809 Y-1.247
G1 X-7.698 Y-1.309
G1 X-7.587 Y-1.368
G1 X-7.481 Y-1.426
G1 X-7.383 Y-1.484
G1 X-7.296 Y-1.543
G1 X-7.224 Y-1.603
G1 X-7.168 Y-1.666
G1 X-7.129 Y-1.733
G1 X-7.110 Y-1.803
G1 X-7.109 Y-1.879
G1 X-7.125 Y-1.960
G1 X-7.158 Y-2.046
G1 X-7.204 Y-2.137
G1 X-7.261 Y-2.234
G1 X-7.327 Y-2.334
G1 X-7.396 Y-2.438
G1 X-7.466 Y-2.544
G1 X-7.532 Y-2.651
G1 X-7.591 Y-2.757
G1 X-7.640 Y-2.862
G1 X-7.675 Y-2.963
G1 X-7.695 Y-3.059
G1 X-7.697 Y-3.149
G1 X-7.680 Y-3.233
G1 X-7.644 Y-3.308
G1 X-7.589 Y-3.374
G1 X-7.516 Y-3.433
G1 X-7.428 Y-3.482
G1 X-7.326 Y-3.524
G1 X-7.213 Y-3.559
G1 X-7.093 Y-3.589
G1 X-6.969 Y-3.614
G1 X-6.844 Y-3.637
G1 X-6.723 Y-3.659
G1 X-6.608 Y-3.683
G1 X-6.503 Y-3.710
G1 X-6.410 Y-3.742
G1 X-6.330 Y-3.781
G1 X-6.267 Y-3.828
G1 X-6.219 Y-3.885
G1 X-6.188 Y-3.953
G1 X-6.173 Y-4.030
G1 X-6.172 Y-4.118
G1 X-6.183 Y-4.216
G1 X-6.205 Y-4.322
G1 X-6.233 Y-4.435
G1 X-6.266 Y-4.554
G1 X-6.301 Y-4.675
G1 X-6.332 Y-4.798
G1 X-6.359 Y-4.919
G1 X-6.377 Y-5.036
G1 X-6.385 Y-5.146
G1 X-6.379 Y-5.248
G1 X-6.360 Y-5.339
G1 X-6.324 Y-5.418
G1 X-6.273 Y-5.484
G1 X-6.207 Y-5.537
G1 X-6.125 Y-5.575
G1 X-6.031 Y-5.600
G1 X-5.925 Y-5.613
G1 X-5.810 Y-5.616
G1 X-5.688 Y-5.609
G1 X-5.563 Y-5.597
G1 X-5.437 Y-5.581
G1 X-5.314 Y-5.564
G1 X-5.194 Y-5.549
G1 X-5.082 Y-5.539
G1 X-4.979 Y-5.537
G1 X-4.887 Y-5.545
G1 X-4.807 Y-5.565
G1 X-4.739 Y-5.599
G1 X-4.683 Y-5.647
G1 X-4.640 Y-5.710
G1 X-4.608 Y-5.787
G1 X-4.585 Y-5.878
G1 X-4.570 Y-5.982
G1 X-4.561 Y-6.095
G1 X-4.555 Y-6.216
G1 X-4.550 Y-6.341
G1 X-4.543 Y-6.468
G1 X-4.533 Y-6.593
G1 X-4.518 Y-6.713
G1 X-4.494 Y-6.824
G1 X-4.462 Y-6.925
G1 X-4.419 Y-7.012
G1 X-4.366 Y-7.083
G1 X-4.301 Y-7.137
G1 X-4.226 Y-7.174
G1 X-4.141 Y-7.192
G1 X-4.047 Y-7.194
G1 X-3.945 Y-7.180
G1 X-3.836 Y-7.151
G1 X-3.724 Y-7.112
G1 X-3.609 Y-7.064
G1 X-3.494 Y-7.011
G1 X-3.381 Y-6.956
G1 X-3.270 Y-6.903
G1 X-3.164 Y-6.856
G1 X-3.064 Y-6.818
G1 X-2.971 Y-6.791
G1 X-2.885 Y-6.779
G1 X-2.807 Y-6.783
G1 X-2.736 Y-6.804
G1 X-2.673 Y-6.843
G1 X-2.616 Y-6.899
G1 X-2.564 Y-6.973
G1 X-2.517 Y-7.061
G1 X-2.472 Y-7.161
G1 X-2.429 Y-7.271
G1 X-2.386 Y-7.387
G1 X-2.341 Y-7.506
G1 X-2.295 Y-7.623
G1 X-2.244 Y-7.736
G1 X-2.190 Y-7.839
G1 X-2.130 Y-7.931
G1 X-2.065 Y-8.007
G1 X-1.994 Y-8.066
G1 X-1.918 Y-8.106
G1 X-1.838 Y-8.126
G1 X-1.752 Y-8.126
G1 X-1.663 Y-8.106
G1 X-1.572 Y-8.068
G1 X-1.478 Y-8.014
G1 X-1.384 Y-7.946
G1 X-1.289 Y-7.868
G1 X-1.195 Y-7.784
G1 X-1.103 Y-7.696
G1 X-1.013 Y-7.610
G1 X-0.926 Y-7.529
G1 X-0.842 Y-7.457
G1 X-0.760 Y-7.397
G1 X-0.681 Y-7.352
G1 X-0.605 Y-7.324
G1 X-0.530 Y-7.315
G1 X-0.458 Y-7.324
G1 X-0.386 Y-7.353
G1 X-0.314 Y-7.399
G1 X-0.242 Y-7.462
G1 X-0.169 Y-7.539
G1 X-0.094 Y-7.627
G1 X-0.018 Y-7.722
G1 X0.060 Y-7.821
G1 X0.139 Y-7.919
G1 X0.221 Y-8.014
G1 X0.305 Y-8.100
G1 X0.389 Y-8.174
G1 X0.475 Y-8.234
G1 X0.560 Y-8.276
G1 X0.645 Y-8.299
G1 X0.729 Y-8.301
G1 X0.811 Y-8.283
G1 X0.891 Y-8.245
G1 X0.967 Y-8.188
G1 X1.041 Y-8.114
G1 X1.111 Y-8.025
G1 X1.178 Y-7.925
G1 X1.242 Y-7.818
G1 X1.304 Y-7.707
G1 X1.364 Y-7.596
G1 X1.422 Y-7.489
G1 X1.480 Y-7.391
G1 X1.538 Y-7.303
G1 X1.598 Y-7.229
G1 X1.661 Y-7.172
G1 X1.727 Y-7.132
G1 X1.798 Y-7.111
G1 X1.873 Y-7.108
G1 X1.953 Y-7.123
G1 X2.039 Y-7.154
G1 X2.130 Y-7.200
G1 X2.226 Y-7.257
G1 X2.326 Y-7.321
G1 X2.430 Y-7.390
G1 X2.535 Y-7.460
G1 X2.642 Y-7.527
G1 X2.749 Y-7.587
G1 X2.854 Y-7.637
G1 X2.955 Y-7.673
G1 X3.052 Y-7.694
G1 X3.143 Y-7.697
G1 X3.226 Y-7.682
G1 X3.302 Y-7.647
G1 X3.369 Y-7.594
G1 X3.428 Y-7.523
G1 X3.479 Y-7.435
G1 X3.521 Y-7.334
G1 X3.557 Y-7.222
G1 X3.587 Y-7.103
G1 X3.612 Y-6.979
G1 X3.635 Y-6.854
