%
(guilloche)
(T501  D=0.125 CR=0 - ZMIN=-0.129 - vee)
G90
G17
G21
G28 G91 Z0
G90

(scribe)
T501 M6
S10000 M3
G54
G0 X2.750 Y-0.000
Z0.6
Z0.2
Z0.01
G1 Z-0.125 F400
G1 X2.750 Y-0.000
G1 X2.849 Y0.028
G1 X2.944 Y0.059
G1 X3.031 Y0.091
G1 X3.106 Y0.124
G1 X3.167 Y0.158
G1 X3.210 Y0.193
G1 X3.235 Y0.227
G1 X3.239 Y0.260
G1 X3.224 Y0.291
G1 X3.189 Y0.320
G1 X3.135 Y0.346
G1 X3.066 Y0.370
G1 X2.982 Y0.390
G1 X2.889 Y0.407
G1 X2.789 Y0.421
G1 X2.686 Y0.433
G1 X2.584 Y0.444
G1 X2.488 Y0.453
G1 X2.400 Y0.462
G1 X2.324 Y0.471
G1 X2.263 Y0.482
G1 X2.219 Y0.496
G1 X2.194 Y0.514
G1 X2.187 Y0.535
G1 X2.200 Y0.562
G1 X2.231 Y0.593
G1 X2.278 Y0.630
G1 X2.340 Y0.673
G1 X2.413 Y0.720
G1 X2.494 Y0.771
G1 X2.579 Y0.826
G1 X2.666 Y0.883
G1 X2.749 Y0.942
G1 X2.825 Y0.999
G1 X2.892 Y1.056
G1 X2.945 Y1.109
G1 X2.983 Y1.157
G1 X3.003 Y1.200
G1 X3.005 Y1.235
G1 X2.989 Y1.264
G1 X2.953 Y1.284
G1 X2.901 Y1.296
G1 X2.833 Y1.299
G1 X2.753 Y1.296
G1 X2.662 Y1.286
G1 X2.564 Y1.270
G1 X2.463 Y1.251
G1 X2.362 Y1.230
G1 X2.265 Y1.208
G1 X2.175 Y1.188
G1 X2.095 Y1.172
G1 X2.027 Y1.161
G1 X1.975 Y1.157
G1 X1.938 Y1.162
G1 X1.918 Y1.176
G1 X1.915 Y1.201
G1 X1.928 Y1.236
G1 X1.956 Y1.282
G1 X1.997 Y1.337
G1 X2.048 Y1.401
G1 X2.107 Y1.473
G1 X2.171 Y1.550
G1 X2.236 Y1.630
G1 X2.299 Y1.711
G1 X2.356 Y1.791
G1 X2.406 Y1.868
G1 X2.446 Y1.938
G1 X2.472 Y1.999
G1 X2.485 Y2.051
G1 X2.482 Y2.091
G1 X2.464 Y2.118
G1 X2.430 Y2.132
G1 X2.383 Y2.132
G1 X2.322 Y2.120
G1 X2.250 Y2.096
G1 X2.170 Y2.062
G1 X2.083 Y2.020
G1 X1.993 Y1.972
G1 X1.903 Y1.921
G1 X1.816 Y1.869
G1 X1.733 Y1.821
G1 X1.658 Y1.777
G1 X1.593 Y1.742
G1 X1.539 Y1.717
G1 X1.498 Y1.705
G1 X1.469 Y1.706
G1 X1.453 Y1.723
G1 X1.450 Y1.754
G1 X1.458 Y1.800
G1 X1.476 Y1.860
G1 X1.502 Y1.932
G1 X1.534 Y2.015
G1 X1.570 Y2.105
G1 X1.607 Y2.201
G1 X1.643 Y2.298
G1 X1.676 Y2.393
G1 X1.702 Y2.484
G1 X1.722 Y2.567
G1 X1.732 Y2.639
G1 X1.732 Y2.698
G1 X1.722 Y2.742
G1 X1.701 Y2.769
G1 X1.669 Y2.779
G1 X1.627 Y2.772
G1 X1.576 Y2.748
G1 X1.518 Y2.709
G1 X1.454 Y2.657
G1 X1.386 Y2.594
G1 X1.316 Y2.522
G1 X1.245 Y2.447
G1 X1.177 Y2.370
G1 X1.112 Y2.296
G1 X1.051 Y2.229
G1 X0.997 Y2.170
G1 X0.951 Y2.124
G1 X0.911 Y2.093
G1 X0.880 Y2.078
G1 X0.857 Y2.081
G1 X0.841 Y2.102
G1 X0.832 Y2.141
G1 X0.829 Y2.197
G1 X0.830 Y2.268
G1 X0.834 Y2.353
G1 X0.840 Y2.446
G1 X0.846 Y2.547
G1 X0.851 Y2.650
G1 X0.854 Y2.753
G1 X0.853 Y2.850
G1 X0.848 Y2.940
G1 X0.838 Y3.017
G1 X0.822 Y3.080
G1 X0.801 Y3.126
G1 X0.774 Y3.154
G1 X0.743 Y3.162
G1 X0.707 Y3.150
G1 X0.667 Y3.119
G1 X0.625 Y3.071
G1 X0.581 Y3.007
G1 X0.536 Y2.930
G1 X0.490 Y2.843
G1 X0.446 Y2.751
G1 X0.404 Y2.657
G1 X0.363 Y2.564
G1 X0.326 Y2.478
G1 X0.291 Y2.401
G1 X0.260 Y2.336
G1 X0.231 Y2.287
G1 X0.205 Y2.256
G1 X0.182 Y2.243
G1 X0.160 Y2.250
G1 X0.139 Y2.277
G1 X0.118 Y2.322
G1 X0.097 Y2.384
G1 X0.076 Y2.460
G1 X0.053 Y2.547
G1 X0.029 Y2.643
G1 X0.002 Y2.742
G1 X-0.026 Y2.841
G1 X-0.056 Y2.937
G1 X-0.088 Y3.024
G1 X-0.122 Y3.101
G1 X-0.156 Y3.163
G1 X-0.190 Y3.207
G1 X-0.224 Y3.234
G1 X-0.257 Y3.240
G1 X-0.289 Y3.226
G1 X-0.318 Y3.192
G1 X-0.344 Y3.140
G1 X-0.368 Y3.072
G1 X-0.388 Y2.989
G1 X-0.406 Y2.897
G1 X-0.420 Y2.797
G1 X-0.433 Y2.694
G1 X-0.443 Y2.592
G1 X-0.452 Y2.495
G1 X-0.461 Y2.407
G1 X-0.470 Y2.330
G1 X-0.481 Y2.268
G1 X-0.495 Y2.222
G1 X-0.512 Y2.195
G1 X-0.533 Y2.187
G1 X-0.559 Y2.198
G1 X-0.591 Y2.228
G1 X-0.627 Y2.274
G1 X-0.669 Y2.334
G1 X-0.716 Y2.406
G1 X-0.767 Y2.487
G1 X-0.822 Y2.572
G1 X-0.879 Y2.659
G1 X-0.937 Y2.743
G1 X-0.995 Y2.820
G1 X-1.051 Y2.887
G1 X-1.104 Y2.941
G1 X-1.153 Y2.980
G1 X-1.196 Y3.002
G1 X-1.233 Y3.006
G1 X-1.262 Y2.991
G1 X-1.282 Y2.957
G1 X-1.295 Y2.906
G1 X-1.299 Y2.839
G1 X-1.296 Y2.760
G1 X-1.287 Y2.669
G1 X-1.272 Y2.572
G1 X-1.253 Y2.471
G1 X-1.231 Y2.370
G1 X-1.210 Y2.272
G1 X-1.189 Y2.181
G1 X-1.173 Y2.101
G1 X-1.161 Y2.032
G1 X-1.157 Y1.978
G1 X-1.161 Y1.940
G1 X-1.175 Y1.919
G1 X-1.198 Y1.915
G1 X-1.233 Y1.927
G1 X-1.278 Y1.953
G1 X-1.332 Y1.993
G1 X-1.396 Y2.044
G1 X-1.467 Y2.102
G1 X-1.543 Y2.166
G1 X-1.624 Y2.231
G1 X-1.705 Y2.294
G1 X-1.785 Y2.352
G1 X-1.862 Y2.403
G1 X-1.932 Y2.443
G1 X-1.995 Y2.471
G1 X-2.047 Y2.484
G1 X-2.088 Y2.483
G1 X-2.116 Y2.466
G1 X-2.131 Y2.434
G1 X-2.133 Y2.387
G1 X-2.121 Y2.327
G1 X-2.098 Y2.256
G1 X-2.065 Y2.176
G1 X-2.023 Y2.090
G1 X-1.976 Y2.001
G1 X-1.925 Y1.910
G1 X-1.873 Y1.822
G1 X-1.824 Y1.740
G1 X-1.781 Y1.664
G1 X-1.745 Y1.598
G1 X-1.719 Y1.543
G1 X-1.705 Y1.501
G1 X-1.706 Y1.471
G1 X-1.721 Y1.454
G1 X-1.751 Y1.450
G1 X-1.796 Y1.457
G1 X-1.855 Y1.474
G1 X-1.926 Y1.500
G1 X-2.008 Y1.532
G1 X-2.098 Y1.567
G1 X-2.193 Y1.604
G1 X-2.290 Y1.640
G1 X-2.386 Y1.673
G1 X-2.477 Y1.701
G1 X-2.561 Y1.721
G1 X-2.634 Y1.732
G1 X-2.694 Y1.733
G1 X-2.739 Y1.723
G1 X-2.768 Y1.703
G1 X-2.779 Y1.672
G1 X-2.773 Y1.631
G1 X-2.751 Y1.581
G1 X-2.713 Y1.523
G1 X-2.661 Y1.459
G1 X-2.599 Y1.392
G1 X-2.528 Y1.321
G1 X-2.453 Y1.251
G1 X-2.376 Y1.182
G1 X-2.302 Y1.117
G1 X-2.234 Y1.056
G1 X-2.174 Y1.001
G1 X-2.127 Y0.954
G1 X-2.094 Y0.914
G1 X-2.078 Y0.883
G1 X-2.080 Y0.859
G1 X-2.100 Y0.842
G1 X-2.137 Y0.833
G1 X-2.192 Y0.829
G1 X-2.262 Y0.830
G1 X-2.345 Y0.834
G1 X-2.439 Y0.840
G1 X-2.539 Y0.846
G1 X-2.642 Y0.851
G1 X-2.745 Y0.854
G1 X-2.843 Y0.853
G1 X-2.933 Y0.848
G1 X-3.011 Y0.839
G1 X-3.076 Y0.823
G1 X-3.123 Y0.803
G1 X-3.152 Y0.777
G1 X-3.162 Y0.746
G1 X-3.151 Y0.710
G1 X-3.122 Y0.671
G1 X-3.075 Y0.628
G1 X-3.012 Y0.584
G1 X-2.936 Y0.539
G1 X-2.851 Y0.494
G1 X-2.759 Y0.450
G1 X-2.664 Y0.407
G1 X-2.572 Y0.367
G1 X-2.484 Y0.329
G1 X-2.406 Y0.294
G1 X-2.341 Y0.262
G1 X-2.290 Y0.233
G1 X-2.257 Y0.207
G1 X-2.243 Y0.183
G1 X-2.249 Y0.161
G1 X-2.274 Y0.140
G1 X-2.318 Y0.120
G1 X-2.378 Y0.099
G1 X-2.453 Y0.078
G1 X-2.540 Y0.055
G1 X-2.635 Y0.031
G1 X-2.734 Y0.004
G1 X-2.834 Y-0.024
G1 X-2.929 Y-0.054
G1 X-3.018 Y-0.086
G1 X-3.095 Y-0.119
G1 X-3.158 Y-0.153
G1 X-3.205 Y-0.187
G1 X-3.232 Y-0.221
G1 X-3.240 Y-0.255
G1 X-3.228 Y-0.286
G1 X-3.196 Y-0.315
G1 X-3.145 Y-0.342
G1 X-3.078 Y-0.366
G1 X-2.996 Y-0.387
G1 X-2.904 Y-0.405
G1 X-2.805 Y-0.419
G1 X-2.702 Y-0.432
G1 X-2.600 Y-0.442
G1 X-2.503 Y-0.451
G1 X-2.413 Y-0.460
G1 X-2.335 Y-0.470
G1 X-2.272 Y-0.480
G1 X-2.225 Y-0.494
G1 X-2.197 Y-0.511
G1 X-2.187 Y-0.532
G1 X-2.197 Y-0.557
G1 X-2.225 Y-0.588
G1 X-2.269 Y-0.624
G1 X-2.329 Y-0.666
G1 X-2.400 Y-0.712
G1 X-2.480 Y-0.763
G1 X-2.566 Y-0.817
G1 X-2.652 Y-0.874
G1 X-2.736 Y-0.932
G1 X-2.814 Y-0.990
G1 X-2.882 Y-1.047
G1 X-2.938 Y-1.100
G1 X-2.978 Y-1.150
G1 X-3.001 Y-1.193
G1 X-3.006 Y-1.230
G1 X-2.992 Y-1.260
G1 X-2.960 Y-1.281
G1 X-2.911 Y-1.294
G1 X-2.845 Y-1.299
G1 X-2.766 Y-1.297
G1 X-2.677 Y-1.288
G1 X-2.580 Y-1.273
G1 X-2.479 Y-1.254
G1 X-2.378 Y-1.233
G1 X-2.280 Y-1.211
G1 X-2.188 Y-1.191
G1 X-2.107 Y-1.174
G1 X-2.037 Y-1.162
G1 X-1.982 Y-1.157
G1 X-1.943 Y-1.160
G1 X-1.920 Y-1.173
G1 X-1.915 Y-1.196
G1 X-1.925 Y-1.230
G1 X-1.951 Y-1.274
G1 X-1.990 Y-1.328
G1 X-2.039 Y-1.391
G1 X-2.097 Y-1.461
G1 X-2.160 Y-1.537
G1 X-2.225 Y-1.617
G1 X-2.289 Y-1.698
G1 X-2.348 Y-1.779
G1 X-2.399 Y-1.856
G1 X-2.440 Y-1.927
G1 X-2.469 Y-1.990
G1 X-2.484 Y-2.043
G1 X-2.484 Y-2.085
G1 X-2.468 Y-2.114
G1 X-2.437 Y-2.130
G1 X-2.391 Y-2.133
G1 X-2.332 Y-2.123
G1 X-2.262 Y-2.101
G1 X-2.183 Y-2.068
G1 X-2.097 Y-2.027
G1 X-2.008 Y-1.980
G1 X-1.917 Y-1.929
G1 X-1.829 Y-1.878
G1 X-1.746 Y-1.828
G1 X-1.670 Y-1.784
G1 X-1.603 Y-1.747
G1 X-1.547 Y-1.720
G1 X-1.503 Y-1.706
G1 X-1.473 Y-1.705
G1 X-1.455 Y-1.719
G1 X-1.450 Y-1.748
G1 X-1.456 Y-1.792
G1 X-1.473 Y-1.850
G1 X-1.498 Y-1.920
G1 X-1.529 Y-2.001
G1 X-1.564 Y-2.091
G1 X-1.601 Y-2.185
G1 X-1.638 Y-2.282
G1 X-1.671 Y-2.378
G1 X-1.699 Y-2.470
G1 X-1.719 Y-2.555
G1 X-1.731 Y-2.629
G1 X-1.733 Y-2.690
G1 X-1.724 Y-2.736
G1 X-1.705 Y-2.766
G1 X-1.675 Y-2.779
G1 X-1.634 Y-2.774
G1 X-1.585 Y-2.753
G1 X-1.528 Y-2.716
G1 X-1.465 Y-2.666
G1 X-1.397 Y-2.604
G1 X-1.327 Y-2.534
G1 X-1.257 Y-2.459
G1 X-1.187 Y-2.382
G1 X-1.122 Y-2.308
G1 X-1.061 Y-2.239
G1 X-1.005 Y-2.179
G1 X-0.957 Y-2.130
G1 X-0.917 Y-2.096
G1 X-0.885 Y-2.079
G1 X-0.860 Y-2.079
G1 X-0.844 Y-2.097
G1 X-0.833 Y-2.134
G1 X-0.829 Y-2.187
G1 X-0.830 Y-2.256
G1 X-0.833 Y-2.338
G1 X-0.839 Y-2.431
G1 X-0.845 Y-2.531
G1 X-0.851 Y-2.634
G1 X-0.854 Y-2.737
G1 X-0.853 Y-2.835
G1 X-0.849 Y-2.926
G1 X-0.840 Y-3.006
G1 X-0.825 Y-3.071
G1 X-0.805 Y-3.120
G1 X-0.779 Y-3.151
G1 X-0.748 Y-3.162
G1 X-0.713 Y-3.153
G1 X-0.674 Y-3.125
G1 X-0.632 Y-3.079
G1 X-0.588 Y-3.018
G1 X-0.543 Y-2.943
G1 X-0.498 Y-2.858
G1 X-0.453 Y-2.766
G1 X-0.410 Y-2.672
G1 X-0.370 Y-2.579
G1 X-0.332 Y-2.491
G1 X-0.297 Y-2.412
G1 X-0.265 Y-2.345
G1 X-0.236 Y-2.294
G1 X-0.209 Y-2.259
G1 X-0.185 Y-2.244
G1 X-0.163 Y-2.248
G1 X-0.142 Y-2.271
G1 X-0.121 Y-2.314
G1 X-0.101 Y-2.373
G1 X-0.079 Y-2.447
G1 X-0.057 Y-2.533
G1 X-0.033 Y-2.627
G1 X-0.007 Y-2.726
G1 X0.022 Y-2.826
G1 X0.051 Y-2.922
G1 X0.083 Y-3.011
G1 X0.116 Y-3.089
G1 X0.150 Y-3.154
G1 X0.185 Y-3.202
G1 X0.219 Y-3.231
G1 X0.252 Y-3.240
G1 X0.284 Y-3.229
G1 X0.313 Y-3.199
G1 X0.340 Y-3.150
G1 X0.364 Y-3.084
G1 X0.385 Y-3.003
G1 X0.403 Y-2.912
G1 X0.418 Y-2.813
G1 X0.431 Y-2.711
G1 X0.441 Y-2.608
G1 X0.451 Y-2.510
G1 X0.459 Y-2.420
G1 X0.469 Y-2.341
G1 X0.480 Y-2.276
G1 X0.493 Y-2.228
G1 X0.509 Y-2.198
G1 X0.530 Y-2.187
G1 X0.555 Y-2.195
G1 X0.585 Y-2.222
G1 X0.621 Y-2.265
G1 X0.662 Y-2.324
G1 X0.708 Y-2.394
G1 X0.759 Y-2.474
G1 X0.813 Y-2.559
G1 X0.870 Y-2.645
G1 X0.928 Y-2.730
G1 X0.986 Y-2.808
G1 X1.042 Y-2.877
G1 X1.096 Y-2.934
G1 X1.146 Y-2.975
G1 X1.190 Y-3.000
G1 X1.227 Y-3.007
G1 X1.258 Y-2.994
G1 X1.280 Y-2.963
G1 X1.293 Y-2.915
G1 X1.299 Y-2.851
G1 X1.297 Y-2.773
G1 X1.289 Y-2.684
G1 X1.274 Y-2.588
G1 X1.256 Y-2.487
G1 X1.235 Y-2.386
G1 X1.213 Y-2.287
G1 X1.193 Y-2.195
G1 X1.175 Y-2.113
G1 X1.163 Y-2.042
G1 X1.157 Y-1.986
G1 X1.160 Y-1.945
G1 X1.172 Y-1.921
G1 X1.194 Y-1.914
G1 X1.227 Y-1.924
G1 X1.270 Y-1.948
G1 X1.323 Y-1.986
G1 X1.385 Y-2.035
G1 X1.455 Y-2.093
G1 X1.531 Y-2.155
G1 X1.611 Y-2.220
G1 X1.692 Y-2.284
G1 X1.773 Y-2.343
G1 X1.850 Y-2.395
G1 X1.922 Y-2.437
G1 X1.985 Y-2.467
G1 X2.040 Y-2.483
G1 X2.082 Y-2.484
G1 X2.113 Y-2.470
G1 X2.130 Y-2.440
G1 X2.133 Y-2.395
G1 X2.124 Y-2.337
G1 X2.103 Y-2.268
G1 X2.071 Y-2.189
G1 X2.031 Y-2.104
G1 X1.984 Y-2.015
G1 X1.933 Y-1.925
G1 X1.882 Y-1.836
G1 X1.832 Y-1.752
G1 X1.787 Y-1.676
G1 X1.750 Y-1.608
G1 X1.722 Y-1.551
G1 X1.707 Y-1.506
G1 X1.705 Y-1.475
G1 X1.717 Y-1.456
G1 X1.745 Y-1.450
G1 X1.788 Y-1.455
G1 X1.844 Y-1.471
G1 X1.914 Y-1.495
G1 X1.994 Y-1.526
G1 X2.083 Y-1.561
G1 X2.178 Y-1.598
G1 X2.275 Y-1.635
G1 X2.371 Y-1.668
G1 X2.463 Y-1.697
G1 X2.548 Y-1.718
G1 X2.623 Y-1.731
G1 X2.685 Y-1.733
G1 X2.733 Y-1.726
G1 X2.764 Y-1.707
G1 X2.779 Y-1.678
G1 X2.775 Y-1.638
G1 X2.755 Y-1.589
G1 X2.720 Y-1.533
G1 X2.670 Y-1.470
G1 X2.609 Y-1.403
G1 X2.540 Y-1.333
G1 X2.465 Y-1.262
G1 X2.389 Y-1.193
G1 X2.314 Y-1.127
G1 X2.244 Y-1.065
G1 X2.183 Y-1.010
G1 X2.134 Y-0.961
G1 X2.099 Y-0.920
G1 X2.080 Y-0.887
G1 X2.078 Y-0.862
G1 X2.095 Y-0.845
G1 X2.130 Y-0.834
G1 X2.182 Y-0.829
G1 X2.250 Y-0.830
G1 X2.331 Y-0.833
G1 X2.423 Y-0.839
G1 X2.523 Y-0.845
G1 X2.625 Y-0.850
G1 X2.728 Y-0.854
G1 X2.828 Y-0.854
G1 X2.919 Y-0.850
G1 X3.000 Y-0.841
G1 X3.067 Y-0.826
G1 X3.117 Y-0.806
G1 X3.149 Y-0.781
G1 X3.161 Y-0.751
G1 X3.154 Y-0.716
G1 X3.128 Y-0.677
G1 X3.084 Y-0.635
G1 X3.023 Y-0.591
G1 X2.949 Y-0.546
G1 X2.865 Y-0.501
G1 X2.774 Y-0.457
G1 X2.679 Y-0.414
G1 X2.586 Y-0.373
G1 X2.498 Y-0.335
G1 X2.418 Y-0.299
G1 X2.350 Y-0.267
G1 X2.297 Y-0.238
G1 X2.261 Y-0.211
G1 X2.244 Y-0.187
G1 X2.247 Y-0.165
G1 X2.269 Y-0.144
G1 X2.310 Y-0.123
G1 X2.368 Y-0.102
G1 X2.441 Y-0.081
G1 X2.526 Y-0.059
G1 X2.619 Y-0.035
G1 X2.718 Y-0.009
G0 Z0.6
G0 X3.410 Y0.211
Z0.6
Z0.2
Z0.01
G1 Z-0.125 F400
G1 X3.410 Y0.211
G1 X3.506 Y0.253
G1 X3.596 Y0.295
G1 X3.677 Y0.339
G1 X3.745 Y0.383
G1 X3.798 Y0.427
G1 X3.833 Y0.470
G1 X3.849 Y0.511
G1 X3.844 Y0.549
G1 X3.820 Y0.585
G1 X3.776 Y0.617
G1 X3.715 Y0.645
G1 X3.639 Y0.669
G1 X3.550 Y0.690
G1 X3.452 Y0.707
G1 X3.349 Y0.720
G1 X3.244 Y0.732
G1 X3.142 Y0.742
G1 X3.045 Y0.751
G1 X2.959 Y0.762
G1 X2.886 Y0.774
G1 X2.827 Y0.788
G1 X2.786 Y0.807
G1 X2.764 Y0.831
G1 X2.760 Y0.860
G1 X2.775 Y0.895
G1 X2.807 Y0.936
G1 X2.855 Y0.984
G1 X2.915 Y1.038
G1 X2.986 Y1.096
G1 X3.063 Y1.160
G1 X3.144 Y1.226
G1 X3.224 Y1.295
G1 X3.300 Y1.364
G1 X3.367 Y1.431
G1 X3.424 Y1.496
G1 X3.467 Y1.556
G1 X3.494 Y1.611
G1 X3.504 Y1.658
G1 X3.495 Y1.697
G1 X3.469 Y1.727
G1 X3.424 Y1.748
G1 X3.364 Y1.759
G1 X3.289 Y1.762
G1 X3.202 Y1.757
G1 X3.106 Y1.745
G1 X3.005 Y1.728
G1 X2.902 Y1.708
G1 X2.800 Y1.686
G1 X2.702 Y1.664
G1 X2.613 Y1.645
G1 X2.534 Y1.631
G1 X2.469 Y1.624
G1 X2.417 Y1.625
G1 X2.382 Y1.636
G1 X2.363 Y1.658
G1 X2.359 Y1.691
G1 X2.371 Y1.736
G1 X2.397 Y1.792
G1 X2.434 Y1.858
G1 X2.480 Y1.932
G1 X2.532 Y2.014
G1 X2.588 Y2.101
G1 X2.644 Y2.190
G1 X2.696 Y2.280
G1 X2.743 Y2.367
G1 X2.781 Y2.449
G1 X2.809 Y2.523
G1 X2.823 Y2.588
G1 X2.824 Y2.641
G1 X2.810 Y2.681
G1 X2.781 Y2.707
G1 X2.738 Y2.719
G1 X2.682 Y2.717
G1 X2.614 Y2.702
G1 X2.537 Y2.675
G1 X2.452 Y2.638
G1 X2.362 Y2.593
G1 X2.270 Y2.542
G1 X2.179 Y2.490
G1 X2.091 Y2.438
G1 X2.009 Y2.390
G1 X1.934 Y2.349
G1 X1.870 Y2.317
G1 X1.816 Y2.297
G1 X1.774 Y2.291
G1 X1.744 Y2.299
G1 X1.726 Y2.323
G1 X1.719 Y2.363
G1 X1.722 Y2.418
G1 X1.734 Y2.486
G1 X1.752 Y2.567
G1 X1.775 Y2.658
G1 X1.801 Y2.756
G1 X1.827 Y2.857
G1 X1.851 Y2.960
G1 X1.871 Y3.059
G1 X1.885 Y3.152
G1 X1.891 Y3.236
G1 X1.889 Y3.308
G1 X1.877 Y3.365
G1 X1.856 Y3.406
G1 X1.825 Y3.430
G1 X1.784 Y3.435
G1 X1.734 Y3.423
G1 X1.677 Y3.394
G1 X1.614 Y3.350
G1 X1.546 Y3.293
G1 X1.475 Y3.226
G1 X1.403 Y3.152
G1 X1.332 Y3.074
G1 X1.263 Y2.996
G1 X1.198 Y2.923
G1 X1.137 Y2.857
G1 X1.083 Y2.801
G1 X1.035 Y2.759
G1 X0.994 Y2.733
G1 X0.960 Y2.724
G1 X0.933 Y2.733
G1 X0.912 Y2.761
G1 X0.896 Y2.807
G1 X0.884 Y2.870
G1 X0.876 Y2.947
G1 X0.869 Y3.037
G1 X0.864 Y3.135
G1 X0.858 Y3.238
G1 X0.850 Y3.344
G1 X0.839 Y3.446
G1 X0.825 Y3.543
G1 X0.807 Y3.630
G1 X0.785 Y3.704
G1 X0.758 Y3.762
G1 X0.727 Y3.802
G1 X0.691 Y3.823
G1 X0.652 Y3.824
G1 X0.610 Y3.805
G1 X0.565 Y3.767
G1 X0.519 Y3.712
G1 X0.472 Y3.642
G1 X0.425 Y3.561
G1 X0.379 Y3.470
G1 X0.335 Y3.375
G1 X0.292 Y3.279
G1 X0.252 Y3.187
G1 X0.214 Y3.101
G1 X0.178 Y3.026
G1 X0.145 Y2.965
G1 X0.114 Y2.919
G1 X0.084 Y2.893
G1 X0.054 Y2.885
G1 X0.026 Y2.897
G1 X-0.003 Y2.928
G1 X-0.033 Y2.977
G1 X-0.064 Y3.042
G1 X-0.097 Y3.121
G1 X-0.132 Y3.209
G1 X-0.169 Y3.304
G1 X-0.208 Y3.402
G1 X-0.249 Y3.498
G1 X-0.292 Y3.589
G1 X-0.335 Y3.671
G1 X-0.380 Y3.741
G1 X-0.423 Y3.795
G1 X-0.466 Y3.831
G1 X-0.508 Y3.848
G1 X-0.546 Y3.845
G1 X-0.582 Y3.823
G1 X-0.614 Y3.780
G1 X-0.643 Y3.721
G1 X-0.668 Y3.645
G1 X-0.688 Y3.557
G1 X-0.705 Y3.460
G1 X-0.719 Y3.357
G1 X-0.731 Y3.252
G1 X-0.741 Y3.150
G1 X-0.751 Y3.053
G1 X-0.761 Y2.966
G1 X-0.773 Y2.891
G1 X-0.787 Y2.831
G1 X-0.805 Y2.789
G1 X-0.829 Y2.765
G1 X-0.857 Y2.760
G1 X-0.892 Y2.773
G1 X-0.933 Y2.804
G1 X-0.980 Y2.850
G1 X-1.033 Y2.910
G1 X-1.092 Y2.980
G1 X-1.155 Y3.057
G1 X-1.221 Y3.138
G1 X-1.289 Y3.218
G1 X-1.358 Y3.294
G1 X-1.426 Y3.362
G1 X-1.491 Y3.420
G1 X-1.552 Y3.464
G1 X-1.607 Y3.493
G1 X-1.654 Y3.504
G1 X-1.694 Y3.497
G1 X-1.725 Y3.471
G1 X-1.746 Y3.428
G1 X-1.759 Y3.369
G1 X-1.762 Y3.295
G1 X-1.758 Y3.209
G1 X-1.746 Y3.114
G1 X-1.730 Y3.013
G1 X-1.709 Y2.910
G1 X-1.687 Y2.808
G1 X-1.666 Y2.710
G1 X-1.647 Y2.620
G1 X-1.632 Y2.540
G1 X-1.624 Y2.473
G1 X-1.625 Y2.421
G1 X-1.635 Y2.384
G1 X-1.656 Y2.364
G1 X-1.688 Y2.359
G1 X-1.732 Y2.370
G1 X-1.787 Y2.394
G1 X-1.852 Y2.430
G1 X-1.926 Y2.476
G1 X-2.007 Y2.528
G1 X-2.094 Y2.583
G1 X-2.183 Y2.639
G1 X-2.273 Y2.692
G1 X-2.360 Y2.740
G1 X-2.443 Y2.779
G1 X-2.518 Y2.807
G1 X-2.583 Y2.823
G1 X-2.637 Y2.825
G1 X-2.678 Y2.812
G1 X-2.706 Y2.784
G1 X-2.719 Y2.742
G1 X-2.718 Y2.687
G1 X-2.704 Y2.620
G1 X-2.677 Y2.543
G1 X-2.641 Y2.459
G1 X-2.596 Y2.369
G1 X-2.547 Y2.277
G1 X-2.494 Y2.186
G1 X-2.442 Y2.098
G1 X-2.394 Y2.015
G1 X-2.352 Y1.940
G1 X-2.320 Y1.874
G1 X-2.298 Y1.820
G1 X-2.291 Y1.777
G1 X-2.298 Y1.746
G1 X-2.321 Y1.727
G1 X-2.359 Y1.719
G1 X-2.413 Y1.721
G1 X-2.480 Y1.732
G1 X-2.560 Y1.750
G1 X-2.651 Y1.773
G1 X-2.748 Y1.799
G1 X-2.849 Y1.825
G1 X-2.952 Y1.849
G1 X-3.051 Y1.869
G1 X-3.145 Y1.884
G1 X-3.230 Y1.891
G1 X-3.303 Y1.890
G1 X-3.361 Y1.879
G1 X-3.404 Y1.858
G1 X-3.429 Y1.827
G1 X-3.436 Y1.787
G1 X-3.425 Y1.738
G1 X-3.397 Y1.682
G1 X-3.354 Y1.619
G1 X-3.298 Y1.551
G1 X-3.231 Y1.481
G1 X-3.158 Y1.409
G1 X-3.080 Y1.338
G1 X-3.002 Y1.268
G1 X-2.928 Y1.203
G1 X-2.861 Y1.142
G1 X-2.805 Y1.087
G1 X-2.762 Y1.038
G1 X-2.734 Y0.997
G1 X-2.724 Y0.962
G1 X-2.732 Y0.935
G1 X-2.758 Y0.913
G1 X-2.803 Y0.897
G1 X-2.864 Y0.885
G1 X-2.941 Y0.876
G1 X-3.029 Y0.870
G1 X-3.127 Y0.864
G1 X-3.230 Y0.858
G1 X-3.335 Y0.850
G1 X-3.438 Y0.840
G1 X-3.536 Y0.827
G1 X-3.623 Y0.809
G1 X-3.698 Y0.787
G1 X-3.758 Y0.760
G1 X-3.800 Y0.729
G1 X-3.822 Y0.694
G1 X-3.825 Y0.655
G1 X-3.807 Y0.613
G1 X-3.771 Y0.569
G1 X-3.717 Y0.523
G1 X-3.648 Y0.476
G1 X-3.567 Y0.429
G1 X-3.478 Y0.383
G1 X-3.383 Y0.338
G1 X-3.287 Y0.296
G1 X-3.194 Y0.255
G1 X-3.107 Y0.217
G1 X-3.031 Y0.181
G1 X-2.969 Y0.148
G1 X-2.922 Y0.116
G1 X-2.894 Y0.086
G1 X-2.885 Y0.057
G1 X-2.895 Y0.028
G1 X-2.925 Y-0.001
G1 X-2.973 Y-0.031
G1 X-3.037 Y-0.062
G1 X-3.114 Y-0.094
G1 X-3.202 Y-0.129
G1 X-3.297 Y-0.166
G1 X-3.394 Y-0.205
G1 X-3.491 Y-0.246
G1 X-3.582 Y-0.288
G1 X-3.665 Y-0.332
G1 X-3.736 Y-0.376
G1 X-3.791 Y-0.420
G1 X-3.829 Y-0.463
G1 X-3.848 Y-0.504
G1 X-3.846 Y-0.543
G1 X-3.825 Y-0.579
G1 X-3.784 Y-0.612
G1 X-3.726 Y-0.641
G1 X-3.652 Y-0.666
G1 X-3.565 Y-0.687
G1 X-3.468 Y-0.704
G1 X-3.365 Y-0.718
G1 X-3.260 Y-0.730
G1 X-3.158 Y-0.740
G1 X-3.060 Y-0.750
G1 X-2.972 Y-0.760
G1 X-2.896 Y-0.772
G1 X-2.836 Y-0.786
G1 X-2.792 Y-0.804
G1 X-2.766 Y-0.826
G1 X-2.760 Y-0.855
G1 X-2.771 Y-0.889
G1 X-2.801 Y-0.929
G1 X-2.846 Y-0.976
G1 X-2.905 Y-1.029
G1 X-2.974 Y-1.087
G1 X-3.051 Y-1.149
G1 X-3.131 Y-1.216
G1 X-3.211 Y-1.284
G1 X-3.288 Y-1.353
G1 X-3.357 Y-1.421
G1 X-3.416 Y-1.486
G1 X-3.461 Y-1.547
G1 X-3.491 Y-1.602
G1 X-3.503 Y-1.651
G1 X-3.498 Y-1.691
G1 X-3.474 Y-1.723
G1 X-3.432 Y-1.745
G1 X-3.374 Y-1.758
G1 X-3.301 Y-1.762
G1 X-3.216 Y-1.758
G1 X-3.122 Y-1.748
G1 X-3.021 Y-1.731
G1 X-2.918 Y-1.711
G1 X-2.816 Y-1.689
G1 X-2.718 Y-1.667
G1 X-2.627 Y-1.648
G1 X-2.546 Y-1.633
G1 X-2.478 Y-1.625
G1 X-2.425 Y-1.625
G1 X-2.387 Y-1.634
G1 X-2.365 Y-1.654
G1 X-2.359 Y-1.685
G1 X-2.368 Y-1.728
G1 X-2.392 Y-1.782
G1 X-2.427 Y-1.846
G1 X-2.472 Y-1.920
G1 X-2.524 Y-2.001
G1 X-2.579 Y-2.087
G1 X-2.635 Y-2.176
G1 X-2.688 Y-2.266
G1 X-2.736 Y-2.353
G1 X-2.776 Y-2.436
G1 X-2.805 Y-2.512
G1 X-2.822 Y-2.578
G1 X-2.825 Y-2.633
G1 X-2.813 Y-2.676
G1 X-2.787 Y-2.704
G1 X-2.746 Y-2.718
G1 X-2.692 Y-2.719
G1 X-2.626 Y-2.705
G1 X-2.550 Y-2.680
G1 X-2.466 Y-2.644
G1 X-2.376 Y-2.600
G1 X-2.285 Y-2.551
G1 X-2.193 Y-2.498
G1 X-2.105 Y-2.446
G1 X-2.021 Y-2.398
G1 X-1.946 Y-2.355
G1 X-1.879 Y-2.322
G1 X-1.824 Y-2.300
G1 X-1.780 Y-2.291
G1 X-1.748 Y-2.297
G1 X-1.728 Y-2.318
G1 X-1.719 Y-2.355
G1 X-1.721 Y-2.408
G1 X-1.731 Y-2.475
G1 X-1.749 Y-2.554
G1 X-1.771 Y-2.643
G1 X-1.797 Y-2.740
G1 X-1.823 Y-2.841
G1 X-1.847 Y-2.944
G1 X-1.868 Y-3.044
G1 X-1.883 Y-3.138
G1 X-1.891 Y-3.224
G1 X-1.890 Y-3.298
G1 X-1.880 Y-3.357
G1 X-1.860 Y-3.401
G1 X-1.830 Y-3.427
G1 X-1.791 Y-3.436
G1 X-1.743 Y-3.426
G1 X-1.687 Y-3.400
G1 X-1.624 Y-3.358
G1 X-1.557 Y-3.303
G1 X-1.486 Y-3.237
G1 X-1.415 Y-3.164
G1 X-1.343 Y-3.086
G1 X-1.274 Y-3.009
G1 X-1.208 Y-2.934
G1 X-1.146 Y-2.866
G1 X-1.091 Y-2.809
G1 X-1.042 Y-2.765
G1 X-1.000 Y-2.736
G1 X-0.965 Y-2.724
G1 X-0.937 Y-2.730
G1 X-0.915 Y-2.755
G1 X-0.898 Y-2.799
G1 X-0.886 Y-2.859
G1 X-0.877 Y-2.934
G1 X-0.870 Y-3.022
G1 X-0.865 Y-3.119
G1 X-0.859 Y-3.222
G1 X-0.851 Y-3.327
G1 X-0.841 Y-3.430
G1 X-0.828 Y-3.528
G1 X-0.811 Y-3.617
G1 X-0.789 Y-3.693
G1 X-0.763 Y-3.754
G1 X-0.732 Y-3.797
G1 X-0.697 Y-3.821
G1 X-0.658 Y-3.825
G1 X-0.617 Y-3.809
G1 X-0.572 Y-3.775
G1 X-0.526 Y-3.722
G1 X-0.479 Y-3.654
G1 X-0.433 Y-3.574
G1 X-0.387 Y-3.485
G1 X-0.342 Y-3.390
G1 X-0.299 Y-3.294
G1 X-0.258 Y-3.201
G1 X-0.220 Y-3.114
G1 X-0.184 Y-3.037
G1 X-0.150 Y-2.973
G1 X-0.118 Y-2.925
G1 X-0.088 Y-2.896
G1 X-0.059 Y-2.885
G1 X-0.030 Y-2.894
G1 X-0.001 Y-2.922
G1 X0.028 Y-2.968
G1 X0.059 Y-3.031
G1 X0.092 Y-3.108
G1 X0.126 Y-3.195
G1 X0.163 Y-3.289
G1 X0.202 Y-3.386
G1 X0.243 Y-3.483
G1 X0.285 Y-3.575
G1 X0.328 Y-3.659
G1 X0.373 Y-3.730
G1 X0.416 Y-3.787
G1 X0.460 Y-3.826
G1 X0.501 Y-3.847
G1 X0.540 Y-3.847
G1 X0.577 Y-3.827
G1 X0.610 Y-3.788
G1 X0.639 Y-3.731
G1 X0.664 Y-3.658
G1 X0.685 Y-3.572
G1 X0.703 Y-3.476
G1 X0.717 Y-3.374
G1 X0.729 Y-3.269
G1 X0.740 Y-3.166
G1 X0.749 Y-3.068
G1 X0.759 Y-2.979
G1 X0.771 Y-2.902
G1 X0.785 Y-2.840
G1 X0.802 Y-2.795
G1 X0.824 Y-2.768
G1 X0.852 Y-2.759
G1 X0.886 Y-2.770
G1 X0.926 Y-2.798
G1 X0.972 Y-2.842
G1 X1.024 Y-2.900
G1 X1.082 Y-2.968
G1 X1.144 Y-3.045
G1 X1.210 Y-3.125
G1 X1.278 Y-3.205
G1 X1.347 Y-3.282
G1 X1.415 Y-3.352
G1 X1.481 Y-3.412
G1 X1.542 Y-3.458
G1 X1.598 Y-3.489
G1 X1.647 Y-3.503
G1 X1.688 Y-3.499
G1 X1.720 Y-3.477
G1 X1.744 Y-3.436
G1 X1.757 Y-3.379
G1 X1.762 Y-3.308
G1 X1.759 Y-3.223
G1 X1.749 Y-3.130
G1 X1.733 Y-3.029
G1 X1.713 Y-2.926
G1 X1.691 Y-2.824
G1 X1.669 Y-2.725
G1 X1.649 Y-2.634
G1 X1.634 Y-2.552
G1 X1.625 Y-2.483
G1 X1.624 Y-2.428
G1 X1.633 Y-2.389
G1 X1.652 Y-2.366
G1 X1.682 Y-2.359
G1 X1.724 Y-2.367
G1 X1.777 Y-2.390
G1 X1.841 Y-2.424
G1 X1.914 Y-2.468
G1 X1.994 Y-2.519
G1 X2.080 Y-2.574
G1 X2.169 Y-2.630
G1 X2.259 Y-2.684
G1 X2.347 Y-2.733
G1 X2.430 Y-2.773
G1 X2.506 Y-2.803
G1 X2.574 Y-2.821
G1 X2.630 Y-2.825
G1 X2.673 Y-2.815
G1 X2.702 Y-2.790
G1 X2.718 Y-2.750
G1 X2.719 Y-2.697
G1 X2.707 Y-2.631
G1 X2.682 Y-2.556
G1 X2.647 Y-2.473
G1 X2.604 Y-2.384
G1 X2.555 Y-2.292
G1 X2.503 Y-2.201
G1 X2.450 Y-2.112
G1 X2.401 Y-2.028
G1 X2.358 Y-1.951
G1 X2.324 Y-1.884
G1 X2.301 Y-1.828
G1 X2.291 Y-1.783
G1 X2.296 Y-1.750
G1 X2.316 Y-1.729
G1 X2.352 Y-1.719
G1 X2.403 Y-1.720
G1 X2.469 Y-1.730
G1 X2.547 Y-1.747
G1 X2.636 Y-1.770
G1 X2.732 Y-1.795
G1 X2.833 Y-1.821
G1 X2.935 Y-1.846
G1 X3.036 Y-1.867
G1 X3.131 Y-1.882
G1 X3.217 Y-1.890
G1 X3.292 Y-1.890
G1 X3.353 Y-1.881
G1 X3.398 Y-1.862
G1 X3.426 Y-1.833
G1 X3.436 Y-1.794
G1 X3.428 Y-1.747
G1 X3.403 Y-1.691
G1 X3.362 Y-1.629
G1 X3.308 Y-1.562
G1 X3.243 Y-1.492
G1 X3.170 Y-1.420
G1 X3.093 Y-1.349
G1 X3.015 Y-1.279
G1 X2.940 Y-1.213
G1 X2.872 Y-1.151
G1 X2.813 Y-1.095
G1 X2.768 Y-1.046
G1 X2.737 Y-1.003
G1 X2.724 Y-0.968
G1 X2.729 Y-0.939
G1 X2.753 Y-0.916
G1 X2.795 Y-0.899
G1 X2.853 Y-0.887
G1 X2.928 Y-0.878
G1 X3.014 Y-0.871
G1 X3.111 Y-0.865
G1 X3.213 Y-0.859
G1 X3.318 Y-0.852
G1 X3.422 Y-0.842
G1 X3.521 Y-0.829
G1 X3.610 Y-0.812
G1 X3.687 Y-0.791
G1 X3.749 Y-0.765
G1 X3.794 Y-0.735
G1 X3.820 Y-0.700
G1 X3.826 Y-0.662
G1 X3.811 Y-0.620
G1 X3.778 Y-0.576
G1 X3.727 Y-0.530
G1 X3.660 Y-0.483
G1 X3.581 Y-0.436
G1 X3.492 Y-0.390
G1 X3.398 Y-0.345
G1 X3.302 Y-0.302
G1 X3.208 Y-0.261
G1 X3.120 Y-0.223
G1 X3.043 Y-0.187
G1 X2.978 Y-0.153
G1 X2.929 Y-0.121
G1 X2.897 Y-0.091
G1 X2.885 Y-0.061
G1 X2.892 Y-0.033
G1 X2.919 Y-0.004
G1 X2.964 Y0.026
G1 X3.026 Y0.057
G1 X3.101 Y0.089
G1 X3.187 Y0.124
G1 X3.281 Y0.160
G1 X3.379 Y0.199
G0 Z0.6
G0 X4.051 Y0.479
Z0.6
Z0.2
Z0.01
G1 Z-0.125 F400
G1 X4.051 Y0.479
G1 X4.143 Y0.532
G1 X4.228 Y0.586
G1 X4.302 Y0.640
G1 X4.363 Y0.694
G1 X4.408 Y0.746
G1 X4.434 Y0.797
G1 X4.441 Y0.844
G1 X4.427 Y0.887
G1 X4.394 Y0.926
G1 X4.343 Y0.961
G1 X4.274 Y0.991
G1 X4.192 Y1.016
G1 X4.097 Y1.036
G1 X3.995 Y1.053
G1 X3.889 Y1.067
G1 X3.782 Y1.078
G1 X3.679 Y1.089
G1 X3.583 Y1.100
G1 X3.498 Y1.112
G1 X3.426 Y1.127
G1 X3.370 Y1.146
G1 X3.331 Y1.170
G1 X3.310 Y1.200
G1 X3.308 Y1.237
G1 X3.323 Y1.280
G1 X3.355 Y1.331
G1 X3.402 Y1.389
G1 X3.460 Y1.454
G1 X3.527 Y1.524
G1 X3.600 Y1.598
G1 X3.674 Y1.675
G1 X3.747 Y1.754
G1 X3.814 Y1.832
G1 X3.873 Y1.908
G1 X3.920 Y1.980
G1 X3.952 Y2.046
G1 X3.969 Y2.106
G1 X3.968 Y2.156
G1 X3.950 Y2.198
G1 X3.913 Y2.229
G1 X3.860 Y2.250
G1 X3.792 Y2.261
G1 X3.710 Y2.263
G1 X3.617 Y2.257
G1 X3.517 Y2.243
G1 X3.413 Y2.225
G1 X3.307 Y2.204
G1 X3.204 Y2.182
G1 X3.107 Y2.161
G1 X3.017 Y2.144
G1 X2.939 Y2.133
G1 X2.874 Y2.130
G1 X2.823 Y2.136
G1 X2.787 Y2.153
G1 X2.768 Y2.183
G1 X2.763 Y2.224
G1 X2.772 Y2.277
G1 X2.794 Y2.342
G1 X2.826 Y2.418
G1 X2.865 Y2.502
G1 X2.910 Y2.593
G1 X2.957 Y2.688
G1 X3.003 Y2.785
G1 X3.046 Y2.882
G1 X3.081 Y2.974
G1 X3.108 Y3.061
G1 X3.124 Y3.138
G1 X3.127 Y3.205
G1 X3.116 Y3.259
G1 X3.092 Y3.298
G1 X3.053 Y3.323
G1 X3.001 Y3.333
G1 X2.937 Y3.328
G1 X2.863 Y3.310
G1 X2.780 Y3.280
G1 X2.690 Y3.240
G1 X2.597 Y3.192
G1 X2.503 Y3.140
G1 X2.411 Y3.087
G1 X2.322 Y3.035
G1 X2.239 Y2.989
G1 X2.165 Y2.950
G1 X2.099 Y2.922
G1 X2.044 Y2.906
G1 X2.000 Y2.905
G1 X1.968 Y2.920
G1 X1.946 Y2.951
G1 X1.935 Y2.998
G1 X1.932 Y3.061
G1 X1.937 Y3.137
G1 X1.947 Y3.225
G1 X1.960 Y3.323
G1 X1.976 Y3.426
G1 X1.990 Y3.533
G1 X2.002 Y3.639
G1 X2.010 Y3.741
G1 X2.011 Y3.835
G1 X2.006 Y3.919
G1 X1.992 Y3.989
G1 X1.969 Y4.044
G1 X1.937 Y4.082
G1 X1.896 Y4.101
G1 X1.847 Y4.102
G1 X1.790 Y4.085
G1 X1.727 Y4.051
G1 X1.659 Y4.002
G1 X1.588 Y3.941
G1 X1.515 Y3.870
G1 X1.441 Y3.793
G1 X1.368 Y3.714
G1 X1.298 Y3.635
G1 X1.232 Y3.562
G1 X1.171 Y3.498
G1 X1.115 Y3.445
G1 X1.065 Y3.407
G1 X1.021 Y3.385
G1 X0.983 Y3.381
G1 X0.951 Y3.396
G1 X0.924 Y3.430
G1 X0.900 Y3.482
G1 X0.880 Y3.550
G1 X0.862 Y3.631
G1 X0.845 Y3.725
G1 X0.828 Y3.826
G1 X0.809 Y3.931
G1 X0.789 Y4.036
G1 X0.766 Y4.138
G1 X0.740 Y4.233
G1 X0.710 Y4.316
G1 X0.676 Y4.386
G1 X0.639 Y4.438
G1 X0.599 Y4.472
G1 X0.555 Y4.487
G1 X0.509 Y4.481
G1 X0.461 Y4.455
G1 X0.412 Y4.410
G1 X0.362 Y4.349
G1 X0.313 Y4.274
G1 X0.264 Y4.187
G1 X0.217 Y4.093
G1 X0.172 Y3.995
G1 X0.129 Y3.898
G1 X0.088 Y3.805
G1 X0.049 Y3.721
G1 X0.011 Y3.647
G1 X-0.025 Y3.589
G1 X-0.060 Y3.547
G1 X-0.095 Y3.524
G1 X-0.130 Y3.520
G1 X-0.166 Y3.535
G1 X-0.204 Y3.570
G1 X-0.243 Y3.622
G1 X-0.284 Y3.688
G1 X-0.328 Y3.768
G1 X-0.375 Y3.856
G1 X-0.424 Y3.949
G1 X-0.475 Y4.044
G1 X-0.528 Y4.136
G1 X-0.582 Y4.221
G1 X-0.636 Y4.297
G1 X-0.690 Y4.359
G1 X-0.742 Y4.405
G1 X-0.793 Y4.433
G1 X-0.840 Y4.441
G1 X-0.884 Y4.429
G1 X-0.923 Y4.398
G1 X-0.958 Y4.348
G1 X-0.989 Y4.280
G1 X-1.014 Y4.199
G1 X-1.035 Y4.105
G1 X-1.052 Y4.004
G1 X-1.066 Y3.898
G1 X-1.078 Y3.791
G1 X-1.088 Y3.687
G1 X-1.099 Y3.591
G1 X-1.111 Y3.504
G1 X-1.126 Y3.431
G1 X-1.144 Y3.374
G1 X-1.168 Y3.333
G1 X-1.197 Y3.311
G1 X-1.233 Y3.307
G1 X-1.277 Y3.321
G1 X-1.327 Y3.352
G1 X-1.384 Y3.397
G1 X-1.448 Y3.455
G1 X-1.518 Y3.522
G1 X-1.592 Y3.594
G1 X-1.669 Y3.668
G1 X-1.747 Y3.741
G1 X-1.826 Y3.809
G1 X-1.902 Y3.868
G1 X-1.974 Y3.916
G1 X-2.041 Y3.950
G1 X-2.101 Y3.968
G1 X-2.153 Y3.969
G1 X-2.195 Y3.952
G1 X-2.227 Y3.917
G1 X-2.249 Y3.865
G1 X-2.261 Y3.798
G1 X-2.263 Y3.717
G1 X-2.257 Y3.625
G1 X-2.245 Y3.526
G1 X-2.227 Y3.421
G1 X-2.206 Y3.316
G1 X-2.183 Y3.212
G1 X-2.162 Y3.114
G1 X-2.145 Y3.024
G1 X-2.133 Y2.945
G1 X-2.130 Y2.878
G1 X-2.135 Y2.826
G1 X-2.152 Y2.790
G1 X-2.180 Y2.769
G1 X-2.220 Y2.763
G1 X-2.273 Y2.771
G1 X-2.337 Y2.791
G1 X-2.411 Y2.823
G1 X-2.495 Y2.862
G1 X-2.585 Y2.907
G1 X-2.681 Y2.954
G1 X-2.778 Y3.000
G1 X-2.874 Y3.042
G1 X-2.967 Y3.079
G1 X-3.054 Y3.106
G1 X-3.133 Y3.123
G1 X-3.200 Y3.127
G1 X-3.255 Y3.118
G1 X-3.296 Y3.094
G1 X-3.322 Y3.057
G1 X-3.333 Y3.006
G1 X-3.329 Y2.943
G1 X-3.312 Y2.869
G1 X-3.283 Y2.786
G1 X-3.243 Y2.698
G1 X-3.196 Y2.605
G1 X-3.144 Y2.511
G1 X-3.091 Y2.418
G1 X-3.039 Y2.329
G1 X-2.992 Y2.246
G1 X-2.953 Y2.170
G1 X-2.923 Y2.104
G1 X-2.907 Y2.048
G1 X-2.905 Y2.004
G1 X-2.918 Y1.970
G1 X-2.948 Y1.948
G1 X-2.994 Y1.935
G1 X-3.055 Y1.932
G1 X-3.131 Y1.936
G1 X-3.218 Y1.946
G1 X-3.315 Y1.959
G1 X-3.418 Y1.974
G1 X-3.524 Y1.989
G1 X-3.630 Y2.001
G1 X-3.733 Y2.009
G1 X-3.828 Y2.012
G1 X-3.913 Y2.006
G1 X-3.984 Y1.993
G1 X-4.041 Y1.971
G1 X-4.080 Y1.940
G1 X-4.101 Y1.900
G1 X-4.103 Y1.851
G1 X-4.087 Y1.795
G1 X-4.054 Y1.733
G1 X-4.007 Y1.665
G1 X-3.946 Y1.594
G1 X-3.876 Y1.520
G1 X-3.799 Y1.447
G1 X-3.720 Y1.374
G1 X-3.642 Y1.304
G1 X-3.568 Y1.237
G1 X-3.503 Y1.176
G1 X-3.449 Y1.119
G1 X-3.409 Y1.069
G1 X-3.386 Y1.025
G1 X-3.381 Y0.986
G1 X-3.394 Y0.953
G1 X-3.427 Y0.926
G1 X-3.477 Y0.902
G1 X-3.544 Y0.882
G1 X-3.624 Y0.863
G1 X-3.717 Y0.846
G1 X-3.817 Y0.829
G1 X-3.922 Y0.811
G1 X-4.028 Y0.791
G1 X-4.130 Y0.768
G1 X-4.226 Y0.742
G1 X-4.310 Y0.713
G1 X-4.381 Y0.679
G1 X-4.435 Y0.642
G1 X-4.470 Y0.602
G1 X-4.486 Y0.558
G1 X-4.482 Y0.512
G1 X-4.458 Y0.465
G1 X-4.414 Y0.415
G1 X-4.354 Y0.366
G1 X-4.280 Y0.317
G1 X-4.194 Y0.268
G1 X-4.101 Y0.221
G1 X-4.003 Y0.176
G1 X-3.906 Y0.132
G1 X-3.812 Y0.091
G1 X-3.727 Y0.052
G1 X-3.653 Y0.014
G1 X-3.593 Y-0.022
G1 X-3.550 Y-0.057
G1 X-3.525 Y-0.092
G1 X-3.519 Y-0.127
G1 X-3.533 Y-0.163
G1 X-3.566 Y-0.201
G1 X-3.617 Y-0.240
G1 X-3.683 Y-0.281
G1 X-3.761 Y-0.325
G1 X-3.848 Y-0.371
G1 X-3.942 Y-0.420
G1 X-4.036 Y-0.471
G1 X-4.129 Y-0.524
G1 X-4.215 Y-0.578
G1 X-4.291 Y-0.632
G1 X-4.354 Y-0.686
G1 X-4.402 Y-0.738
G1 X-4.431 Y-0.789
G1 X-4.441 Y-0.836
G1 X-4.431 Y-0.881
G1 X-4.401 Y-0.920
G1 X-4.352 Y-0.956
G1 X-4.286 Y-0.986
G1 X-4.206 Y-1.012
G1 X-4.113 Y-1.033
G1 X-4.012 Y-1.051
G1 X-3.906 Y-1.065
G1 X-3.799 Y-1.077
G1 X-3.695 Y-1.087
G1 X-3.598 Y-1.098
G1 X-3.511 Y-1.110
G1 X-3.437 Y-1.124
G1 X-3.378 Y-1.142
G1 X-3.336 Y-1.166
G1 X-3.312 Y-1.195
G1 X-3.307 Y-1.230
G1 X-3.320 Y-1.273
G1 X-3.349 Y-1.323
G1 X-3.393 Y-1.380
G1 X-3.450 Y-1.443
G1 X-3.516 Y-1.512
G1 X-3.588 Y-1.586
G1 X-3.662 Y-1.663
G1 X-3.736 Y-1.741
G1 X-3.804 Y-1.820
G1 X-3.864 Y-1.896
G1 X-3.913 Y-1.969
G1 X-3.948 Y-2.036
G1 X-3.967 Y-2.097
G1 X-3.969 Y-2.149
G1 X-3.954 Y-2.192
G1 X-3.920 Y-2.225
G1 X-3.870 Y-2.247
G1 X-3.803 Y-2.260
G1 X-3.724 Y-2.263
G1 X-3.633 Y-2.258
G1 X-3.534 Y-2.246
G1 X-3.430 Y-2.228
G1 X-3.324 Y-2.207
G1 X-3.220 Y-2.185
G1 X-3.122 Y-2.164
G1 X-3.031 Y-2.146
G1 X-2.951 Y-2.134
G1 X-2.883 Y-2.130
G1 X-2.830 Y-2.134
G1 X-2.792 Y-2.150
G1 X-2.770 Y-2.177
G1 X-2.762 Y-2.216
G1 X-2.770 Y-2.268
G1 X-2.789 Y-2.331
G1 X-2.820 Y-2.405
G1 X-2.859 Y-2.488
G1 X-2.903 Y-2.578
G1 X-2.950 Y-2.673
G1 X-2.996 Y-2.770
G1 X-3.039 Y-2.867
G1 X-3.076 Y-2.960
G1 X-3.104 Y-3.048
G1 X-3.122 Y-3.127
G1 X-3.127 Y-3.195
G1 X-3.119 Y-3.251
G1 X-3.096 Y-3.293
G1 X-3.060 Y-3.320
G1 X-3.010 Y-3.332
G1 X-2.948 Y-3.330
G1 X-2.875 Y-3.314
G1 X-2.793 Y-3.285
G1 X-2.705 Y-3.247
G1 X-2.612 Y-3.200
G1 X-2.518 Y-3.149
G1 X-2.425 Y-3.095
G1 X-2.336 Y-3.043
G1 X-2.252 Y-2.996
G1 X-2.176 Y-2.955
G1 X-2.109 Y-2.925
G1 X-2.052 Y-2.908
G1 X-2.007 Y-2.904
G1 X-1.972 Y-2.917
G1 X-1.949 Y-2.945
G1 X-1.936 Y-2.990
G1 X-1.932 Y-3.050
G1 X-1.935 Y-3.124
G1 X-1.945 Y-3.211
G1 X-1.958 Y-3.307
G1 X-1.973 Y-3.410
G1 X-1.988 Y-3.516
G1 X-2.001 Y-3.622
G1 X-2.009 Y-3.725
G1 X-2.012 Y-3.821
G1 X-2.007 Y-3.906
G1 X-1.994 Y-3.979
G1 X-1.973 Y-4.037
G1 X-1.943 Y-4.077
G1 X-1.903 Y-4.100
G1 X-1.855 Y-4.103
G1 X-1.800 Y-4.089
G1 X-1.738 Y-4.058
G1 X-1.670 Y-4.011
G1 X-1.599 Y-3.951
G1 X-1.526 Y-3.882
G1 X-1.453 Y-3.806
G1 X-1.380 Y-3.726
G1 X-1.309 Y-3.648
G1 X-1.243 Y-3.574
G1 X-1.180 Y-3.507
G1 X-1.124 Y-3.453
G1 X-1.073 Y-3.412
G1 X-1.028 Y-3.387
G1 X-0.989 Y-3.381
G1 X-0.956 Y-3.393
G1 X-0.928 Y-3.423
G1 X-0.904 Y-3.472
G1 X-0.883 Y-3.538
G1 X-0.865 Y-3.618
G1 X-0.847 Y-3.709
G1 X-0.830 Y-3.809
G1 X-0.812 Y-3.914
G1 X-0.792 Y-4.020
G1 X-0.770 Y-4.122
G1 X-0.744 Y-4.218
G1 X-0.715 Y-4.304
G1 X-0.682 Y-4.376
G1 X-0.645 Y-4.431
G1 X-0.605 Y-4.468
G1 X-0.562 Y-4.486
G1 X-0.516 Y-4.483
G1 X-0.468 Y-4.460
G1 X-0.419 Y-4.419
G1 X-0.370 Y-4.360
G1 X-0.320 Y-4.286
G1 X-0.272 Y-4.201
G1 X-0.225 Y-4.108
G1 X-0.179 Y-4.011
G1 X-0.136 Y-3.913
G1 X-0.094 Y-3.820
G1 X-0.055 Y-3.733
G1 X-0.017 Y-3.658
G1 X0.019 Y-3.597
G1 X0.055 Y-3.552
G1 X0.089 Y-3.526
G1 X0.125 Y-3.519
G1 X0.160 Y-3.532
G1 X0.197 Y-3.563
G1 X0.236 Y-3.612
G1 X0.278 Y-3.677
G1 X0.321 Y-3.754
G1 X0.367 Y-3.841
G1 X0.416 Y-3.934
G1 X0.467 Y-4.029
G1 X0.519 Y-4.122
G1 X0.573 Y-4.208
G1 X0.627 Y-4.286
G1 X0.681 Y-4.350
G1 X0.734 Y-4.399
G1 X0.785 Y-4.429
G1 X0.833 Y-4.441
G1 X0.877 Y-4.432
G1 X0.917 Y-4.404
G1 X0.953 Y-4.357
G1 X0.984 Y-4.292
G1 X1.010 Y-4.213
G1 X1.032 Y-4.121
G1 X1.050 Y-4.020
G1 X1.064 Y-3.915
G1 X1.076 Y-3.808
G1 X1.087 Y-3.703
G1 X1.097 Y-3.606
G1 X1.109 Y-3.517
G1 X1.123 Y-3.442
G1 X1.141 Y-3.382
G1 X1.164 Y-3.338
G1 X1.192 Y-3.313
G1 X1.227 Y-3.307
G1 X1.269 Y-3.318
G1 X1.319 Y-3.346
G1 X1.375 Y-3.389
G1 X1.438 Y-3.445
G1 X1.506 Y-3.510
G1 X1.580 Y-3.582
G1 X1.657 Y-3.657
G1 X1.735 Y-3.730
G1 X1.813 Y-3.799
G1 X1.890 Y-3.860
G1 X1.963 Y-3.910
G1 X2.031 Y-3.946
G1 X2.092 Y-3.966
G1 X2.145 Y-3.970
G1 X2.189 Y-3.956
G1 X2.222 Y-3.924
G1 X2.246 Y-3.874
G1 X2.259 Y-3.809
G1 X2.263 Y-3.730
G1 X2.259 Y-3.640
G1 X2.247 Y-3.542
G1 X2.230 Y-3.438
G1 X2.209 Y-3.333
G1 X2.187 Y-3.229
G1 X2.166 Y-3.129
G1 X2.148 Y-3.038
G1 X2.135 Y-2.957
G1 X2.130 Y-2.888
G1 X2.134 Y-2.834
G1 X2.148 Y-2.795
G1 X2.174 Y-2.771
G1 X2.213 Y-2.763
G1 X2.264 Y-2.769
G1 X2.326 Y-2.787
G1 X2.399 Y-2.817
G1 X2.481 Y-2.855
G1 X2.571 Y-2.899
G1 X2.665 Y-2.946
G1 X2.762 Y-2.993
G1 X2.859 Y-3.036
G1 X2.953 Y-3.074
G1 X3.041 Y-3.103
G1 X3.121 Y-3.121
G1 X3.190 Y-3.127
G1 X3.247 Y-3.120
G1 X3.290 Y-3.099
G1 X3.319 Y-3.063
G1 X3.332 Y-3.015
G1 X3.331 Y-2.953
G1 X3.316 Y-2.881
G1 X3.288 Y-2.800
G1 X3.250 Y-2.712
G1 X3.204 Y-2.620
G1 X3.153 Y-2.526
G1 X3.100 Y-2.433
G1 X3.047 Y-2.343
G1 X2.999 Y-2.258
G1 X2.958 Y-2.182
G1 X2.927 Y-2.114
G1 X2.908 Y-2.056
G1 X2.904 Y-2.010
G1 X2.915 Y-1.975
G1 X2.942 Y-1.950
G1 X2.986 Y-1.937
G1 X3.045 Y-1.932
G1 X3.118 Y-1.935
G1 X3.203 Y-1.944
G1 X3.299 Y-1.957
G1 X3.401 Y-1.972
G1 X3.507 Y-1.987
G1 X3.614 Y-2.000
G1 X3.717 Y-2.009
G1 X3.813 Y-2.012
G1 X3.900 Y-2.008
G1 X3.974 Y-1.996
G1 X4.033 Y-1.975
G1 X4.075 Y-1.945
G1 X4.098 Y-1.907
G1 X4.104 Y-1.859
G1 X4.091 Y-1.804
G1 X4.061 Y-1.743
G1 X4.015 Y-1.676
G1 X3.957 Y-1.605
G1 X3.888 Y-1.532
G1 X3.812 Y-1.458
G1 X3.733 Y-1.386
G1 X3.654 Y-1.315
G1 X3.579 Y-1.248
G1 X3.512 Y-1.185
G1 X3.456 Y-1.128
G1 X3.414 Y-1.077
G1 X3.389 Y-1.031
G1 X3.380 Y-0.992
G1 X3.391 Y-0.958
G1 X3.420 Y-0.930
G1 X3.468 Y-0.906
G1 X3.532 Y-0.885
G1 X3.611 Y-0.866
G1 X3.702 Y-0.849
G1 X3.801 Y-0.832
G1 X3.906 Y-0.814
G1 X4.011 Y-0.794
G1 X4.115 Y-0.772
G1 X4.211 Y-0.746
G1 X4.297 Y-0.717
G1 X4.370 Y-0.685
G1 X4.427 Y-0.648
G1 X4.466 Y-0.609
G1 X4.485 Y-0.566
G1 X4.484 Y-0.520
G1 X4.463 Y-0.472
G1 X4.423 Y-0.423
G1 X4.365 Y-0.374
G1 X4.293 Y-0.324
G1 X4.209 Y-0.276
G1 X4.116 Y-0.228
G1 X4.019 Y-0.183
G1 X3.921 Y-0.139
G1 X3.827 Y-0.097
G1 X3.740 Y-0.058
G1 X3.664 Y-0.020
G1 X3.601 Y0.016
G1 X3.555 Y0.052
G1 X3.527 Y0.087
G1 X3.519 Y0.122
G1 X3.530 Y0.157
G1 X3.560 Y0.194
G1 X3.608 Y0.233
G1 X3.671 Y0.274
G1 X3.748 Y0.318
G1 X3.834 Y0.364
G1 X3.927 Y0.412
G1 X4.021 Y0.463
G0 Z0.6
G0 X4.675 Y0.764
Z0.6
Z0.2
Z0.01
G1 Z-0.125 F400
G1 X4.675 Y0.764
G1 X4.762 Y0.827
G1 X4.841 Y0.891
G1 X4.910 Y0.955
G1 X4.963 Y1.017
G1 X5.001 Y1.076
G1 X5.019 Y1.133
G1 X5.018 Y1.186
G1 X4.997 Y1.234
G1 X4.957 Y1.276
G1 X4.898 Y1.314
G1 X4.824 Y1.345
G1 X4.735 Y1.372
G1 X4.637 Y1.394
G1 X4.531 Y1.412
G1 X4.422 Y1.426
G1 X4.313 Y1.439
G1 X4.209 Y1.451
G1 X4.113 Y1.464
G1 X4.027 Y1.479
G1 X3.956 Y1.498
G1 X3.900 Y1.522
G1 X3.862 Y1.552
G1 X3.842 Y1.588
G1 X3.839 Y1.632
G1 X3.854 Y1.684
G1 X3.884 Y1.744
G1 X3.929 Y1.811
G1 X3.984 Y1.885
G1 X4.047 Y1.965
G1 X4.114 Y2.049
G1 X4.182 Y2.135
G1 X4.248 Y2.222
G1 X4.307 Y2.308
G1 X4.357 Y2.392
G1 X4.395 Y2.470
G1 X4.418 Y2.542
G1 X4.425 Y2.605
G1 X4.415 Y2.659
G1 X4.388 Y2.702
G1 X4.343 Y2.735
G1 X4.282 Y2.757
G1 X4.207 Y2.768
G1 X4.119 Y2.770
G1 X4.022 Y2.763
G1 X3.917 Y2.750
G1 X3.810 Y2.731
G1 X3.702 Y2.710
G1 X3.597 Y2.689
G1 X3.498 Y2.670
G1 X3.407 Y2.656
G1 X3.328 Y2.648
G1 X3.262 Y2.649
G1 X3.211 Y2.661
G1 X3.174 Y2.684
G1 X3.152 Y2.720
G1 X3.144 Y2.769
G1 X3.150 Y2.830
G1 X3.167 Y2.903
G1 X3.193 Y2.987
G1 X3.226 Y3.079
G1 X3.264 Y3.177
G1 X3.302 Y3.280
G1 X3.339 Y3.383
G1 X3.371 Y3.485
G1 X3.397 Y3.583
G1 X3.413 Y3.672
G1 X3.418 Y3.753
G1 X3.411 Y3.821
G1 X3.390 Y3.875
G1 X3.356 Y3.914
G1 X3.309 Y3.938
G1 X3.249 Y3.946
G1 X3.178 Y3.940
G1 X3.097 Y3.919
G1 X3.009 Y3.887
G1 X2.916 Y3.845
G1 X2.819 Y3.797
G1 X2.723 Y3.744
G1 X2.628 Y3.691
G1 X2.537 Y3.640
G1 X2.453 Y3.595
G1 X2.376 Y3.559
G1 X2.309 Y3.534
G1 X2.252 Y3.523
G1 X2.205 Y3.527
G1 X2.169 Y3.547
G1 X2.143 Y3.585
G1 X2.126 Y3.638
G1 X2.116 Y3.707
G1 X2.114 Y3.789
G1 X2.115 Y3.883
G1 X2.120 Y3.986
G1 X2.125 Y4.094
G1 X2.129 Y4.204
G1 X2.130 Y4.313
G1 X2.127 Y4.416
G1 X2.117 Y4.511
G1 X2.100 Y4.594
G1 X2.076 Y4.664
G1 X2.043 Y4.716
G1 X2.002 Y4.751
G1 X1.953 Y4.767
G1 X1.896 Y4.764
G1 X1.833 Y4.743
G1 X1.764 Y4.705
G1 X1.692 Y4.652
G1 X1.617 Y4.588
G1 X1.540 Y4.514
G1 X1.464 Y4.436
G1 X1.389 Y4.355
G1 X1.317 Y4.277
G1 X1.249 Y4.204
G1 X1.185 Y4.142
G1 X1.127 Y4.091
G1 X1.074 Y4.056
G1 X1.026 Y4.038
G1 X0.983 Y4.038
G1 X0.945 Y4.058
G1 X0.911 Y4.096
G1 X0.880 Y4.151
G1 X0.851 Y4.223
G1 X0.823 Y4.308
G1 X0.796 Y4.404
G1 X0.768 Y4.506
G1 X0.738 Y4.612
G1 X0.707 Y4.717
G1 X0.673 Y4.818
G1 X0.636 Y4.910
G1 X0.595 Y4.990
G1 X0.552 Y5.055
G1 X0.506 Y5.102
G1 X0.457 Y5.131
G1 X0.406 Y5.139
G1 X0.353 Y5.127
G1 X0.300 Y5.096
G1 X0.246 Y5.046
G1 X0.193 Y4.979
G1 X0.141 Y4.899
G1 X0.090 Y4.809
G1 X0.041 Y4.712
G1 X-0.006 Y4.612
G1 X-0.051 Y4.514
G1 X-0.094 Y4.421
G1 X-0.135 Y4.337
G1 X-0.176 Y4.265
G1 X-0.216 Y4.208
G1 X-0.256 Y4.168
G1 X-0.296 Y4.147
G1 X-0.338 Y4.146
G1 X-0.381 Y4.164
G1 X-0.427 Y4.200
G1 X-0.475 Y4.253
G1 X-0.526 Y4.320
G1 X-0.581 Y4.399
G1 X-0.638 Y4.486
G1 X-0.697 Y4.576
G1 X-0.759 Y4.668
G1 X-0.822 Y4.755
G1 X-0.886 Y4.835
G1 X-0.949 Y4.905
G1 X-1.012 Y4.960
G1 X-1.072 Y4.998
G1 X-1.129 Y5.018
G1 X-1.182 Y5.019
G1 X-1.230 Y5.000
G1 X-1.273 Y4.961
G1 X-1.311 Y4.904
G1 X-1.343 Y4.830
G1 X-1.370 Y4.743
G1 X-1.392 Y4.645
G1 X-1.410 Y4.539
G1 X-1.425 Y4.430
G1 X-1.438 Y4.322
G1 X-1.450 Y4.217
G1 X-1.463 Y4.120
G1 X-1.478 Y4.034
G1 X-1.497 Y3.961
G1 X-1.520 Y3.904
G1 X-1.549 Y3.864
G1 X-1.585 Y3.842
G1 X-1.629 Y3.839
G1 X-1.680 Y3.852
G1 X-1.739 Y3.882
G1 X-1.806 Y3.925
G1 X-1.879 Y3.979
G1 X-1.958 Y4.041
G1 X-2.042 Y4.109
G1 X-2.128 Y4.177
G1 X-2.215 Y4.243
G1 X-2.302 Y4.303
G1 X-2.385 Y4.353
G1 X-2.464 Y4.392
G1 X-2.536 Y4.417
G1 X-2.600 Y4.425
G1 X-2.655 Y4.417
G1 X-2.699 Y4.391
G1 X-2.733 Y4.347
G1 X-2.756 Y4.288
G1 X-2.768 Y4.213
G1 X-2.770 Y4.126
G1 X-2.764 Y4.030
G1 X-2.751 Y3.926
G1 X-2.733 Y3.818
G1 X-2.712 Y3.710
G1 X-2.691 Y3.605
G1 X-2.672 Y3.505
G1 X-2.657 Y3.414
G1 X-2.648 Y3.334
G1 X-2.649 Y3.267
G1 X-2.659 Y3.214
G1 X-2.682 Y3.176
G1 X-2.717 Y3.153
G1 X-2.764 Y3.144
G1 X-2.825 Y3.149
G1 X-2.897 Y3.165
G1 X-2.980 Y3.191
G1 X-3.071 Y3.223
G1 X-3.169 Y3.260
G1 X-3.272 Y3.299
G1 X-3.375 Y3.336
G1 X-3.477 Y3.369
G1 X-3.575 Y3.395
G1 X-3.666 Y3.412
G1 X-3.747 Y3.418
G1 X-3.816 Y3.412
G1 X-3.871 Y3.392
G1 X-3.912 Y3.359
G1 X-3.937 Y3.313
G1 X-3.946 Y3.254
G1 X-3.941 Y3.184
G1 X-3.922 Y3.104
G1 X-3.890 Y3.016
G1 X-3.849 Y2.923
G1 X-3.801 Y2.827
G1 X-3.748 Y2.730
G1 X-3.695 Y2.635
G1 X-3.644 Y2.544
G1 X-3.598 Y2.459
G1 X-3.561 Y2.382
G1 X-3.535 Y2.314
G1 X-3.523 Y2.256
G1 X-3.526 Y2.209
G1 X-3.545 Y2.171
G1 X-3.581 Y2.144
G1 X-3.633 Y2.127
G1 X-3.701 Y2.117
G1 X-3.782 Y2.114
G1 X-3.875 Y2.115
G1 X-3.977 Y2.119
G1 X-4.085 Y2.125
G1 X-4.195 Y2.129
G1 X-4.304 Y2.130
G1 X-4.408 Y2.127
G1 X-4.504 Y2.118
G1 X-4.588 Y2.102
G1 X-4.659 Y2.078
G1 X-4.713 Y2.046
G1 X-4.749 Y2.005
G1 X-4.766 Y1.957
G1 X-4.765 Y1.901
G1 X-4.745 Y1.838
G1 X-4.709 Y1.770
G1 X-4.657 Y1.698
G1 X-4.593 Y1.623
G1 X-4.520 Y1.546
G1 X-4.442 Y1.470
G1 X-4.361 Y1.395
G1 X-4.283 Y1.323
G1 X-4.210 Y1.254
G1 X-4.146 Y1.190
G1 X-4.095 Y1.131
G1 X-4.058 Y1.078
G1 X-4.039 Y1.029
G1 X-4.038 Y0.986
G1 X-4.055 Y0.948
G1 X-4.092 Y0.913
G1 X-4.146 Y0.882
G1 X-4.217 Y0.853
G1 X-4.301 Y0.825
G1 X-4.396 Y0.798
G1 X-4.498 Y0.770
G1 X-4.604 Y0.741
G1 X-4.709 Y0.710
G1 X-4.810 Y0.676
G1 X-4.903 Y0.639
G1 X-4.984 Y0.599
G1 X-5.050 Y0.556
G1 X-5.099 Y0.509
G1 X-5.129 Y0.461
G1 X-5.139 Y0.410
G1 X-5.129 Y0.357
G1 X-5.099 Y0.304
G1 X-5.050 Y0.251
G1 X-4.985 Y0.197
G1 X-4.906 Y0.145
G1 X-4.817 Y0.094
G1 X-4.720 Y0.045
G1 X-4.620 Y-0.002
G1 X-4.522 Y-0.047
G1 X-4.428 Y-0.090
G1 X-4.343 Y-0.132
G1 X-4.270 Y-0.173
G1 X-4.212 Y-0.213
G1 X-4.171 Y-0.252
G1 X-4.148 Y-0.293
G1 X-4.145 Y-0.334
G1 X-4.162 Y-0.377
G1 X-4.196 Y-0.423
G1 X-4.248 Y-0.471
G1 X-4.314 Y-0.522
G1 X-4.392 Y-0.576
G1 X-4.478 Y-0.633
G1 X-4.569 Y-0.693
G1 X-4.661 Y-0.754
G1 X-4.749 Y-0.817
G1 X-4.829 Y-0.881
G1 X-4.900 Y-0.944
G1 X-4.956 Y-1.007
G1 X-4.996 Y-1.067
G1 X-5.017 Y-1.124
G1 X-5.020 Y-1.178
G1 X-5.002 Y-1.226
G1 X-4.964 Y-1.270
G1 X-4.909 Y-1.308
G1 X-4.836 Y-1.341
G1 X-4.750 Y-1.368
G1 X-4.653 Y-1.391
G1 X-4.548 Y-1.409
G1 X-4.439 Y-1.424
G1 X-4.330 Y-1.437
G1 X-4.225 Y-1.449
G1 X-4.127 Y-1.462
G1 X-4.040 Y-1.477
G1 X-3.966 Y-1.495
G1 X-3.908 Y-1.518
G1 X-3.867 Y-1.546
G1 X-3.844 Y-1.582
G1 X-3.838 Y-1.625
G1 X-3.850 Y-1.676
G1 X-3.879 Y-1.734
G1 X-3.921 Y-1.800
G1 X-3.974 Y-1.873
G1 X-4.036 Y-1.952
G1 X-4.103 Y-2.035
G1 X-4.171 Y-2.121
G1 X-4.238 Y-2.208
G1 X-4.298 Y-2.295
G1 X-4.350 Y-2.379
G1 X-4.390 Y-2.458
G1 X-4.415 Y-2.531
G1 X-4.425 Y-2.595
G1 X-4.418 Y-2.651
G1 X-4.393 Y-2.696
G1 X-4.351 Y-2.731
G1 X-4.293 Y-2.754
G1 X-4.220 Y-2.767
G1 X-4.134 Y-2.770
G1 X-4.038 Y-2.765
G1 X-3.934 Y-2.752
G1 X-3.827 Y-2.735
G1 X-3.719 Y-2.714
G1 X-3.613 Y-2.692
G1 X-3.513 Y-2.673
G1 X-3.421 Y-2.658
G1 X-3.340 Y-2.649
G1 X-3.272 Y-2.648
G1 X-3.218 Y-2.658
G1 X-3.179 Y-2.680
G1 X-3.154 Y-2.713
G1 X-3.144 Y-2.760
G1 X-3.148 Y-2.820
G1 X-3.163 Y-2.891
G1 X-3.188 Y-2.973
G1 X-3.221 Y-3.064
G1 X-3.257 Y-3.161
G1 X-3.296 Y-3.263
G1 X-3.333 Y-3.367
G1 X-3.366 Y-3.469
G1 X-3.393 Y-3.567
G1 X-3.411 Y-3.659
G1 X-3.418 Y-3.741
G1 X-3.413 Y-3.811
G1 X-3.394 Y-3.867
G1 X-3.362 Y-3.909
G1 X-3.317 Y-3.935
G1 X-3.259 Y-3.946
G1 X-3.190 Y-3.942
G1 X-3.111 Y-3.924
G1 X-3.024 Y-3.893
G1 X-2.931 Y-3.853
G1 X-2.835 Y-3.805
G1 X-2.738 Y-3.752
G1 X-2.643 Y-3.699
G1 X-2.551 Y-3.648
G1 X-2.466 Y-3.602
G1 X-2.388 Y-3.564
G1 X-2.319 Y-3.537
G1 X-2.260 Y-3.524
G1 X-2.212 Y-3.525
G1 X-2.174 Y-3.543
G1 X-2.146 Y-3.578
G1 X-2.128 Y-3.628
G1 X-2.117 Y-3.695
G1 X-2.114 Y-3.775
G1 X-2.115 Y-3.868
G1 X-2.119 Y-3.969
G1 X-2.124 Y-4.076
G1 X-2.129 Y-4.186
G1 X-2.130 Y-4.296
G1 X-2.127 Y-4.400
G1 X-2.119 Y-4.497
G1 X-2.103 Y-4.582
G1 X-2.080 Y-4.654
G1 X-2.049 Y-4.709
G1 X-2.009 Y-4.747
G1 X-1.961 Y-4.766
G1 X-1.905 Y-4.766
G1 X-1.843 Y-4.747
G1 X-1.776 Y-4.712
G1 X-1.704 Y-4.662
G1 X-1.629 Y-4.599
G1 X-1.552 Y-4.526
G1 X-1.476 Y-4.448
G1 X-1.401 Y-4.368
G1 X-1.328 Y-4.289
G1 X-1.260 Y-4.215
G1 X-1.195 Y-4.151
G1 X-1.136 Y-4.098
G1 X-1.082 Y-4.061
G1 X-1.033 Y-4.040
G1 X-0.989 Y-4.037
G1 X-0.951 Y-4.053
G1 X-0.916 Y-4.088
G1 X-0.884 Y-4.141
G1 X-0.855 Y-4.211
G1 X-0.827 Y-4.294
G1 X-0.800 Y-4.388
G1 X-0.772 Y-4.490
G1 X-0.743 Y-4.595
G1 X-0.712 Y-4.701
G1 X-0.678 Y-4.802
G1 X-0.642 Y-4.896
G1 X-0.602 Y-4.978
G1 X-0.559 Y-5.045
G1 X-0.513 Y-5.096
G1 X-0.465 Y-5.128
G1 X-0.414 Y-5.139
G1 X-0.362 Y-5.131
G1 X-0.308 Y-5.102
G1 X-0.255 Y-5.055
G1 X-0.202 Y-4.991
G1 X-0.149 Y-4.913
G1 X-0.098 Y-4.824
G1 X-0.049 Y-4.728
G1 X-0.002 Y-4.628
G1 X0.044 Y-4.530
G1 X0.087 Y-4.435
G1 X0.129 Y-4.349
G1 X0.170 Y-4.275
G1 X0.209 Y-4.216
G1 X0.249 Y-4.173
G1 X0.289 Y-4.149
G1 X0.331 Y-4.145
G1 X0.374 Y-4.160
G1 X0.419 Y-4.193
G1 X0.467 Y-4.243
G1 X0.518 Y-4.309
G1 X0.572 Y-4.386
G1 X0.628 Y-4.471
G1 X0.688 Y-4.562
G1 X0.749 Y-4.653
G1 X0.812 Y-4.742
G1 X0.876 Y-4.823
G1 X0.939 Y-4.894
G1 X1.002 Y-4.952
G1 X1.062 Y-4.993
G1 X1.120 Y-5.016
G1 X1.174 Y-5.020
G1 X1.223 Y-5.004
G1 X1.267 Y-4.968
G1 X1.305 Y-4.914
G1 X1.338 Y-4.843
G1 X1.366 Y-4.757
G1 X1.389 Y-4.661
G1 X1.408 Y-4.556
G1 X1.423 Y-4.448
G1 X1.436 Y-4.339
G1 X1.448 Y-4.233
G1 X1.461 Y-4.135
G1 X1.475 Y-4.047
G1 X1.493 Y-3.972
G1 X1.516 Y-3.912
G1 X1.544 Y-3.869
G1 X1.579 Y-3.845
G1 X1.621 Y-3.838
G1 X1.671 Y-3.849
G1 X1.729 Y-3.876
G1 X1.795 Y-3.917
G1 X1.867 Y-3.970
G1 X1.945 Y-4.031
G1 X2.028 Y-4.098
G1 X2.114 Y-4.166
G1 X2.201 Y-4.232
G1 X2.288 Y-4.294
G1 X2.372 Y-4.346
G1 X2.452 Y-4.387
G1 X2.525 Y-4.414
G1 X2.591 Y-4.425
G1 X2.647 Y-4.419
G1 X2.693 Y-4.396
G1 X2.728 Y-4.355
G1 X2.753 Y-4.298
G1 X2.767 Y-4.226
G1 X2.770 Y-4.141
G1 X2.766 Y-4.046
G1 X2.754 Y-3.943
G1 X2.736 Y-3.836
G1 X2.716 Y-3.727
G1 X2.694 Y-3.621
G1 X2.674 Y-3.521
G1 X2.659 Y-3.428
G1 X2.649 Y-3.346
G1 X2.648 Y-3.277
G1 X2.657 Y-3.222
G1 X2.677 Y-3.181
G1 X2.710 Y-3.156
G1 X2.756 Y-3.145
G1 X2.814 Y-3.147
G1 X2.885 Y-3.162
G1 X2.966 Y-3.186
G1 X3.056 Y-3.218
G1 X3.153 Y-3.254
G1 X3.255 Y-3.293
G1 X3.359 Y-3.330
G1 X3.461 Y-3.364
G1 X3.560 Y-3.391
G1 X3.652 Y-3.410
G1 X3.734 Y-3.418
G1 X3.806 Y-3.414
G1 X3.863 Y-3.396
G1 X3.906 Y-3.365
G1 X3.934 Y-3.321
G1 X3.946 Y-3.264
G1 X3.943 Y-3.196
G1 X3.925 Y-3.117
G1 X3.896 Y-3.031
G1 X3.856 Y-2.938
G1 X3.809 Y-2.843
G1 X3.757 Y-2.746
G1 X3.703 Y-2.650
G1 X3.652 Y-2.558
G1 X3.605 Y-2.472
G1 X3.566 Y-2.394
G1 X3.539 Y-2.324
G1 X3.524 Y-2.265
G1 X3.525 Y-2.215
G1 X3.541 Y-2.177
G1 X3.574 Y-2.148
G1 X3.624 Y-2.129
G1 X3.689 Y-2.118
G1 X3.769 Y-2.114
G1 X3.860 Y-2.115
G1 X3.961 Y-2.119
G1 X4.068 Y-2.124
G1 X4.178 Y-2.128
G1 X4.287 Y-2.130
G1 X4.392 Y-2.128
G1 X4.489 Y-2.120
G1 X4.576 Y-2.105
G1 X4.648 Y-2.082
G1 X4.705 Y-2.052
G1 X4.744 Y-2.012
G1 X4.765 Y-1.965
G1 X4.766 Y-1.910
G1 X4.749 Y-1.848
G1 X4.715 Y-1.781
G1 X4.666 Y-1.709
G1 X4.604 Y-1.635
G1 X4.533 Y-1.558
G1 X4.455 Y-1.482
G1 X4.374 Y-1.407
G1 X4.295 Y-1.334
G1 X4.221 Y-1.265
G1 X4.156 Y-1.200
G1 X4.102 Y-1.140
G1 X4.063 Y-1.086
G1 X4.041 Y-1.037
G1 X4.037 Y-0.993
G1 X4.051 Y-0.954
G1 X4.085 Y-0.918
G1 X4.137 Y-0.887
G1 X4.205 Y-0.857
G1 X4.287 Y-0.830
G1 X4.380 Y-0.802
G1 X4.481 Y-0.775
G1 X4.587 Y-0.746
G1 X4.692 Y-0.715
G1 X4.794 Y-0.681
G1 X4.889 Y-0.645
G1 X4.972 Y-0.605
G1 X5.041 Y-0.563
G1 X5.093 Y-0.517
G1 X5.126 Y-0.469
G1 X5.139 Y-0.418
G1 X5.132 Y-0.366
G1 X5.105 Y-0.313
G1 X5.059 Y-0.259
G1 X4.997 Y-0.206
G1 X4.919 Y-0.153
G1 X4.831 Y-0.102
G1 X4.736 Y-0.053
G1 X4.636 Y-0.005
G1 X4.537 Y0.040
G1 X4.443 Y0.084
G1 X4.356 Y0.126
G1 X4.281 Y0.166
G1 X4.220 Y0.206
G1 X4.176 Y0.246
G1 X4.151 Y0.286
G1 X4.145 Y0.327
G1 X4.158 Y0.370
G1 X4.190 Y0.415
G1 X4.239 Y0.463
G1 X4.303 Y0.514
G1 X4.379 Y0.567
G1 X4.464 Y0.624
G1 X4.555 Y0.683
G1 X4.646 Y0.744
G0 Z0.6
G0 X5.289 Y1.019
Z0.6
Z0.2
Z0.01
G1 Z-0.125 F400
G1 X5.289 Y1.019
G1 X5.372 Y1.091
G1 X5.447 Y1.163
G1 X5.510 Y1.234
G1 X5.559 Y1.304
G1 X5.590 Y1.370
G1 X5.603 Y1.433
G1 X5.596 Y1.491
G1 X5.570 Y1.544
G1 X5.524 Y1.591
G1 X5.460 Y1.632
G1 X5.381 Y1.667
G1 X5.288 Y1.696
G1 X5.186 Y1.721
G1 X5.077 Y1.741
G1 X4.965 Y1.758
G1 X4.855 Y1.774
G1 X4.749 Y1.789
G1 X4.651 Y1.806
G1 X4.565 Y1.825
G1 X4.493 Y1.849
G1 X4.436 Y1.878
G1 X4.397 Y1.913
G1 X4.376 Y1.956
G1 X4.372 Y2.007
G1 X4.385 Y2.066
G1 X4.413 Y2.134
G1 X4.455 Y2.209
G1 X4.506 Y2.291
G1 X4.565 Y2.379
G1 X4.627 Y2.470
G1 X4.690 Y2.564
G1 X4.749 Y2.659
G1 X4.802 Y2.752
G1 X4.845 Y2.841
G1 X4.875 Y2.925
G1 X4.891 Y3.001
G1 X4.891 Y3.069
G1 X4.874 Y3.127
G1 X4.839 Y3.173
G1 X4.788 Y3.208
G1 X4.721 Y3.232
G1 X4.640 Y3.245
G1 X4.547 Y3.249
G1 X4.445 Y3.243
G1 X4.336 Y3.231
G1 X4.225 Y3.214
G1 X4.114 Y3.195
G1 X4.006 Y3.177
G1 X3.905 Y3.160
G1 X3.813 Y3.149
G1 X3.732 Y3.145
G1 X3.663 Y3.151
G1 X3.609 Y3.168
G1 X3.569 Y3.197
G1 X3.544 Y3.239
G1 X3.533 Y3.294
G1 X3.534 Y3.362
G1 X3.546 Y3.441
G1 X3.567 Y3.531
G1 X3.594 Y3.630
G1 X3.624 Y3.735
G1 X3.655 Y3.843
G1 X3.684 Y3.952
G1 X3.709 Y4.058
G1 X3.725 Y4.159
G1 X3.733 Y4.253
G1 X3.730 Y4.335
G1 X3.714 Y4.405
G1 X3.685 Y4.461
G1 X3.643 Y4.501
G1 X3.589 Y4.526
G1 X3.522 Y4.534
G1 X3.445 Y4.527
G1 X3.358 Y4.507
G1 X3.265 Y4.474
G1 X3.167 Y4.432
G1 X3.067 Y4.384
G1 X2.967 Y4.332
G1 X2.868 Y4.280
G1 X2.775 Y4.231
G1 X2.687 Y4.188
G1 X2.608 Y4.155
G1 X2.537 Y4.134
G1 X2.476 Y4.127
G1 X2.425 Y4.135
G1 X2.384 Y4.160
G1 X2.353 Y4.202
G1 X2.330 Y4.260
G1 X2.314 Y4.334
G1 X2.304 Y4.421
G1 X2.298 Y4.519
G1 X2.294 Y4.626
G1 X2.291 Y4.737
G1 X2.286 Y4.850
G1 X2.278 Y4.961
G1 X2.265 Y5.066
G1 X2.246 Y5.162
G1 X2.220 Y5.245
G1 X2.187 Y5.314
G1 X2.146 Y5.365
G1 X2.097 Y5.399
G1 X2.040 Y5.413
G1 X1.977 Y5.408
G1 X1.907 Y5.385
G1 X1.833 Y5.345
G1 X1.756 Y5.291
G1 X1.676 Y5.224
G1 X1.595 Y5.150
G1 X1.515 Y5.070
G1 X1.437 Y4.990
G1 X1.362 Y4.912
G1 X1.290 Y4.841
G1 X1.223 Y4.779
G1 X1.160 Y4.731
G1 X1.102 Y4.698
G1 X1.049 Y4.683
G1 X1.001 Y4.686
G1 X0.957 Y4.708
G1 X0.916 Y4.749
G1 X0.877 Y4.808
G1 X0.840 Y4.882
G1 X0.804 Y4.969
G1 X0.768 Y5.066
G1 X0.731 Y5.169
G1 X0.692 Y5.275
G1 X0.651 Y5.380
G1 X0.608 Y5.479
G1 X0.561 Y5.569
G1 X0.512 Y5.647
G1 X0.460 Y5.709
G1 X0.406 Y5.753
G1 X0.350 Y5.778
G1 X0.292 Y5.782
G1 X0.233 Y5.767
G1 X0.174 Y5.731
G1 X0.116 Y5.677
G1 X0.058 Y5.607
G1 X0.002 Y5.524
G1 X-0.052 Y5.432
G1 X-0.104 Y5.333
G1 X-0.155 Y5.231
G1 X-0.203 Y5.132
G1 X-0.250 Y5.039
G1 X-0.295 Y4.955
G1 X-0.340 Y4.883
G1 X-0.385 Y4.827
G1 X-0.430 Y4.789
G1 X-0.476 Y4.769
G1 X-0.525 Y4.768
G1 X-0.575 Y4.787
G1 X-0.628 Y4.823
G1 X-0.685 Y4.876
G1 X-0.745 Y4.943
G1 X-0.808 Y5.021
G1 X-0.874 Y5.106
G1 X-0.943 Y5.194
G1 X-1.013 Y5.282
G1 X-1.085 Y5.366
G1 X-1.157 Y5.442
G1 X-1.229 Y5.506
G1 X-1.298 Y5.556
G1 X-1.365 Y5.589
G1 X-1.428 Y5.603
G1 X-1.487 Y5.598
G1 X-1.540 Y5.573
G1 X-1.587 Y5.528
G1 X-1.629 Y5.466
G1 X-1.664 Y5.388
G1 X-1.694 Y5.296
G1 X-1.719 Y5.194
G1 X-1.739 Y5.086
G1 X-1.757 Y4.974
G1 X-1.773 Y4.863
G1 X-1.788 Y4.757
G1 X-1.805 Y4.659
G1 X-1.824 Y4.571
G1 X-1.847 Y4.498
G1 X-1.875 Y4.440
G1 X-1.910 Y4.400
G1 X-1.952 Y4.377
G1 X-2.003 Y4.372
G1 X-2.061 Y4.384
G1 X-2.128 Y4.411
G1 X-2.203 Y4.451
G1 X-2.284 Y4.502
G1 X-2.371 Y4.560
G1 X-2.463 Y4.622
G1 X-2.557 Y4.685
G1 X-2.651 Y4.745
G1 X-2.744 Y4.798
G1 X-2.834 Y4.842
G1 X-2.919 Y4.874
G1 X-2.996 Y4.891
G1 X-3.064 Y4.892
G1 X-3.122 Y4.876
G1 X-3.170 Y4.843
G1 X-3.206 Y4.793
G1 X-3.231 Y4.727
G1 X-3.245 Y4.647
G1 X-3.249 Y4.555
G1 X-3.244 Y4.453
G1 X-3.232 Y4.345
G1 X-3.216 Y4.234
G1 X-3.197 Y4.123
G1 X-3.178 Y4.015
G1 X-3.161 Y3.913
G1 X-3.150 Y3.820
G1 X-3.145 Y3.738
G1 X-3.150 Y3.668
G1 X-3.166 Y3.613
G1 X-3.194 Y3.572
G1 X-3.235 Y3.546
G1 X-3.289 Y3.533
G1 X-3.356 Y3.534
G1 X-3.434 Y3.545
G1 X-3.524 Y3.565
G1 X-3.622 Y3.592
G1 X-3.726 Y3.622
G1 X-3.834 Y3.653
G1 X-3.943 Y3.682
G1 X-4.050 Y3.707
G1 X-4.152 Y3.724
G1 X-4.245 Y3.733
G1 X-4.329 Y3.730
G1 X-4.400 Y3.716
G1 X-4.457 Y3.688
G1 X-4.499 Y3.647
G1 X-4.524 Y3.593
G1 X-4.534 Y3.528
G1 X-4.528 Y3.451
G1 X-4.509 Y3.366
G1 X-4.477 Y3.273
G1 X-4.436 Y3.175
G1 X-4.388 Y3.075
G1 X-4.336 Y2.974
G1 X-4.284 Y2.876
G1 X-4.235 Y2.782
G1 X-4.192 Y2.694
G1 X-4.157 Y2.614
G1 X-4.135 Y2.542
G1 X-4.127 Y2.480
G1 X-4.134 Y2.429
G1 X-4.157 Y2.387
G1 X-4.198 Y2.355
G1 X-4.255 Y2.331
G1 X-4.328 Y2.315
G1 X-4.414 Y2.305
G1 X-4.511 Y2.298
G1 X-4.617 Y2.295
G1 X-4.728 Y2.291
G1 X-4.841 Y2.286
G1 X-4.952 Y2.279
G1 X-5.058 Y2.266
G1 X-5.154 Y2.248
G1 X-5.239 Y2.223
G1 X-5.309 Y2.190
G1 X-5.362 Y2.149
G1 X-5.397 Y2.101
G1 X-5.412 Y2.045
G1 X-5.409 Y1.982
G1 X-5.387 Y1.913
G1 X-5.349 Y1.839
G1 X-5.295 Y1.762
G1 X-5.230 Y1.682
G1 X-5.156 Y1.602
G1 X-5.077 Y1.522
G1 X-4.996 Y1.443
G1 X-4.918 Y1.368
G1 X-4.846 Y1.296
G1 X-4.784 Y1.228
G1 X-4.734 Y1.165
G1 X-4.700 Y1.107
G1 X-4.683 Y1.053
G1 X-4.685 Y1.005
G1 X-4.706 Y0.960
G1 X-4.745 Y0.919
G1 X-4.803 Y0.880
G1 X-4.875 Y0.843
G1 X-4.962 Y0.807
G1 X-5.058 Y0.771
G1 X-5.161 Y0.734
G1 X-5.267 Y0.695
G1 X-5.372 Y0.654
G1 X-5.471 Y0.611
G1 X-5.562 Y0.565
G1 X-5.641 Y0.516
G1 X-5.704 Y0.464
G1 X-5.750 Y0.410
G1 X-5.777 Y0.354
G1 X-5.783 Y0.296
G1 X-5.769 Y0.238
G1 X-5.734 Y0.179
G1 X-5.682 Y0.121
G1 X-5.613 Y0.063
G1 X-5.531 Y0.007
G1 X-5.439 Y-0.048
G1 X-5.341 Y-0.100
G1 X-5.240 Y-0.151
G1 X-5.140 Y-0.199
G1 X-5.046 Y-0.246
G1 X-4.961 Y-0.292
G1 X-4.888 Y-0.337
G1 X-4.831 Y-0.381
G1 X-4.791 Y-0.426
G1 X-4.770 Y-0.473
G1 X-4.767 Y-0.521
G1 X-4.785 Y-0.571
G1 X-4.820 Y-0.624
G1 X-4.872 Y-0.680
G1 X-4.937 Y-0.740
G1 X-5.014 Y-0.803
G1 X-5.099 Y-0.869
G1 X-5.187 Y-0.937
G1 X-5.275 Y-1.008
G1 X-5.359 Y-1.080
G1 X-5.436 Y-1.152
G1 X-5.501 Y-1.223
G1 X-5.552 Y-1.293
G1 X-5.587 Y-1.360
G1 X-5.602 Y-1.423
G1 X-5.599 Y-1.482
G1 X-5.575 Y-1.536
G1 X-5.532 Y-1.584
G1 X-5.471 Y-1.625
G1 X-5.394 Y-1.661
G1 X-5.304 Y-1.692
G1 X-5.203 Y-1.717
G1 X-5.094 Y-1.738
G1 X-4.983 Y-1.756
G1 X-4.872 Y-1.772
G1 X-4.765 Y-1.787
G1 X-4.666 Y-1.803
G1 X-4.578 Y-1.822
G1 X-4.503 Y-1.845
G1 X-4.444 Y-1.873
G1 X-4.402 Y-1.907
G1 X-4.378 Y-1.949
G1 X-4.372 Y-1.998
G1 X-4.382 Y-2.056
G1 X-4.408 Y-2.123
G1 X-4.447 Y-2.197
G1 X-4.497 Y-2.278
G1 X-4.555 Y-2.364
G1 X-4.617 Y-2.455
G1 X-4.680 Y-2.549
G1 X-4.740 Y-2.644
G1 X-4.794 Y-2.737
G1 X-4.839 Y-2.827
G1 X-4.872 Y-2.912
G1 X-4.890 Y-2.990
G1 X-4.892 Y-3.059
G1 X-4.878 Y-3.118
G1 X-4.846 Y-3.167
G1 X-4.797 Y-3.204
G1 X-4.733 Y-3.229
G1 X-4.654 Y-3.244
G1 X-4.562 Y-3.249
G1 X-4.461 Y-3.245
G1 X-4.354 Y-3.233
G1 X-4.243 Y-3.217
G1 X-4.132 Y-3.198
G1 X-4.023 Y-3.179
G1 X-3.921 Y-3.163
G1 X-3.827 Y-3.151
G1 X-3.744 Y-3.145
G1 X-3.673 Y-3.150
G1 X-3.617 Y-3.164
G1 X-3.575 Y-3.191
G1 X-3.547 Y-3.231
G1 X-3.534 Y-3.284
G1 X-3.533 Y-3.350
G1 X-3.544 Y-3.428
G1 X-3.563 Y-3.516
G1 X-3.589 Y-3.614
G1 X-3.619 Y-3.718
G1 X-3.651 Y-3.825
G1 X-3.680 Y-3.934
G1 X-3.705 Y-4.041
G1 X-3.723 Y-4.144
G1 X-3.733 Y-4.238
G1 X-3.731 Y-4.323
G1 X-3.717 Y-4.395
G1 X-3.691 Y-4.453
G1 X-3.651 Y-4.496
G1 X-3.598 Y-4.523
G1 X-3.533 Y-4.534
G1 X-3.458 Y-4.529
G1 X-3.373 Y-4.511
G1 X-3.280 Y-4.480
G1 X-3.183 Y-4.440
G1 X-3.083 Y-4.392
G1 X-2.982 Y-4.341
G1 X-2.884 Y-4.288
G1 X-2.789 Y-4.239
G1 X-2.701 Y-4.195
G1 X-2.620 Y-4.160
G1 X-2.547 Y-4.136
G1 X-2.485 Y-4.127
G1 X-2.433 Y-4.132
G1 X-2.390 Y-4.155
G1 X-2.357 Y-4.194
G1 X-2.333 Y-4.250
G1 X-2.316 Y-4.321
G1 X-2.305 Y-4.406
G1 X-2.299 Y-4.503
G1 X-2.295 Y-4.608
G1 X-2.291 Y-4.719
G1 X-2.287 Y-4.832
G1 X-2.279 Y-4.944
G1 X-2.267 Y-5.050
G1 X-2.249 Y-5.147
G1 X-2.225 Y-5.233
G1 X-2.193 Y-5.304
G1 X-2.153 Y-5.358
G1 X-2.105 Y-5.395
G1 X-2.050 Y-5.412
G1 X-1.987 Y-5.410
G1 X-1.919 Y-5.390
G1 X-1.845 Y-5.352
G1 X-1.768 Y-5.300
G1 X-1.689 Y-5.236
G1 X-1.608 Y-5.162
G1 X-1.528 Y-5.083
G1 X-1.449 Y-5.003
G1 X-1.374 Y-4.924
G1 X-1.301 Y-4.852
G1 X-1.233 Y-4.788
G1 X-1.170 Y-4.738
G1 X-1.111 Y-4.702
G1 X-1.057 Y-4.684
G1 X-1.008 Y-4.684
G1 X-0.963 Y-4.704
G1 X-0.922 Y-4.742
G1 X-0.883 Y-4.797
G1 X-0.846 Y-4.869
G1 X-0.810 Y-4.954
G1 X-0.774 Y-5.050
G1 X-0.737 Y-5.153
G1 X-0.698 Y-5.258
G1 X-0.658 Y-5.363
G1 X-0.615 Y-5.464
G1 X-0.569 Y-5.555
G1 X-0.520 Y-5.635
G1 X-0.469 Y-5.700
G1 X-0.415 Y-5.747
G1 X-0.359 Y-5.775
G1 X-0.301 Y-5.783
G1 X-0.243 Y-5.770
G1 X-0.184 Y-5.738
G1 X-0.125 Y-5.687
G1 X-0.068 Y-5.619
G1 X-0.011 Y-5.538
G1 X0.043 Y-5.447
G1 X0.096 Y-5.349
G1 X0.147 Y-5.248
G1 X0.196 Y-5.148
G1 X0.243 Y-5.053
G1 X0.288 Y-4.967
G1 X0.333 Y-4.894
G1 X0.378 Y-4.835
G1 X0.423 Y-4.793
G1 X0.469 Y-4.771
G1 X0.517 Y-4.767
G1 X0.567 Y-4.783
G1 X0.620 Y-4.816
G1 X0.676 Y-4.867
G1 X0.735 Y-4.932
G1 X0.798 Y-5.008
G1 X0.863 Y-5.092
G1 X0.932 Y-5.180
G1 X1.002 Y-5.268
G1 X1.074 Y-5.353
G1 X1.146 Y-5.430
G1 X1.217 Y-5.497
G1 X1.287 Y-5.549
G1 X1.355 Y-5.585
G1 X1.418 Y-5.602
G1 X1.478 Y-5.600
G1 X1.532 Y-5.578
G1 X1.580 Y-5.536
G1 X1.622 Y-5.477
G1 X1.659 Y-5.401
G1 X1.690 Y-5.311
G1 X1.715 Y-5.211
G1 X1.736 Y-5.103
G1 X1.754 Y-4.992
G1 X1.770 Y-4.881
G1 X1.786 Y-4.773
G1 X1.802 Y-4.674
G1 X1.820 Y-4.584
G1 X1.843 Y-4.509
G1 X1.870 Y-4.448
G1 X1.904 Y-4.405
G1 X1.945 Y-4.379
G1 X1.994 Y-4.371
G1 X2.052 Y-4.381
G1 X2.117 Y-4.405
G1 X2.190 Y-4.444
G1 X2.271 Y-4.493
G1 X2.357 Y-4.550
G1 X2.448 Y-4.612
G1 X2.542 Y-4.675
G1 X2.636 Y-4.736
G1 X2.730 Y-4.790
G1 X2.820 Y-4.836
G1 X2.906 Y-4.869
G1 X2.984 Y-4.889
G1 X3.054 Y-4.893
G1 X3.114 Y-4.880
G1 X3.163 Y-4.849
G1 X3.201 Y-4.802
G1 X3.228 Y-4.738
G1 X3.243 Y-4.660
G1 X3.249 Y-4.570
G1 X3.245 Y-4.470
G1 X3.234 Y-4.363
G1 X3.219 Y-4.252
G1 X3.200 Y-4.140
G1 X3.181 Y-4.032
G1 X3.164 Y-3.929
G1 X3.151 Y-3.834
G1 X3.146 Y-3.750
G1 X3.149 Y-3.678
G1 X3.163 Y-3.621
G1 X3.189 Y-3.578
G1 X3.227 Y-3.549
G1 X3.279 Y-3.534
G1 X3.344 Y-3.533
G1 X3.421 Y-3.542
G1 X3.509 Y-3.561
G1 X3.606 Y-3.587
G1 X3.709 Y-3.617
G1 X3.817 Y-3.648
G1 X3.926 Y-3.678
G1 X4.033 Y-3.703
G1 X4.136 Y-3.722
G1 X4.231 Y-3.732
G1 X4.317 Y-3.731
G1 X4.390 Y-3.719
G1 X4.449 Y-3.693
G1 X4.493 Y-3.654
G1 X4.521 Y-3.603
G1 X4.533 Y-3.539
G1 X4.530 Y-3.464
G1 X4.513 Y-3.380
G1 X4.483 Y-3.288
G1 X4.443 Y-3.191
G1 X4.396 Y-3.091
G1 X4.345 Y-2.990
G1 X4.292 Y-2.892
G1 X4.242 Y-2.797
G1 X4.198 Y-2.707
G1 X4.162 Y-2.626
G1 X4.138 Y-2.553
G1 X4.127 Y-2.490
G1 X4.131 Y-2.436
G1 X4.152 Y-2.393
G1 X4.190 Y-2.359
G1 X4.245 Y-2.335
G1 X4.315 Y-2.317
G1 X4.399 Y-2.306
G1 X4.495 Y-2.299
G1 X4.600 Y-2.295
G1 X4.710 Y-2.292
G1 X4.823 Y-2.287
G1 X4.935 Y-2.280
G1 X5.041 Y-2.268
G1 X5.140 Y-2.251
G1 X5.226 Y-2.227
G1 X5.299 Y-2.196
G1 X5.355 Y-2.156
G1 X5.392 Y-2.109
G1 X5.411 Y-2.054
G1 X5.411 Y-1.992
G1 X5.392 Y-1.924
G1 X5.356 Y-1.851
G1 X5.305 Y-1.775
G1 X5.241 Y-1.695
G1 X5.168 Y-1.615
G1 X5.090 Y-1.534
G1 X5.009 Y-1.456
G1 X4.930 Y-1.379
G1 X4.857 Y-1.307
G1 X4.793 Y-1.238
G1 X4.741 Y-1.174
G1 X4.705 Y-1.116
G1 X4.685 Y-1.062
G1 X4.684 Y-1.012
G1 X4.701 Y-0.967
G1 X4.738 Y-0.925
G1 X4.792 Y-0.886
G1 X4.863 Y-0.849
G1 X4.947 Y-0.813
G1 X5.042 Y-0.777
G1 X5.144 Y-0.740
G1 X5.250 Y-0.701
G1 X5.355 Y-0.661
G1 X5.456 Y-0.618
G1 X5.549 Y-0.573
G1 X5.629 Y-0.524
G1 X5.695 Y-0.473
G1 X5.744 Y-0.419
G1 X5.774 Y-0.363
G1 X5.783 Y-0.306
G1 X5.772 Y-0.247
G1 X5.741 Y-0.188
G1 X5.692 Y-0.130
G1 X5.625 Y-0.072
G1 X5.545 Y-0.016
G1 X5.454 Y0.039
G1 X5.357 Y0.092
G1 X5.256 Y0.143
G1 X5.156 Y0.192
G1 X5.060 Y0.239
G1 X4.974 Y0.285
G1 X4.899 Y0.330
G1 X4.839 Y0.374
G1 X4.796 Y0.419
G1 X4.772 Y0.465
G1 X4.767 Y0.513
G1 X4.781 Y0.563
G1 X4.813 Y0.615
G1 X4.862 Y0.671
G1 X4.926 Y0.730
G1 X5.001 Y0.793
G1 X5.085 Y0.858
G1 X5.173 Y0.926
G1 X5.261 Y0.996
G0 Z0.6
G0 X5.906 Y1.197
Z0.6
Z0.2
Z0.01
G1 Z-0.125 F400
G1 X5.906 Y1.197
G1 X5.987 Y1.276
G1 X6.060 Y1.355
G1 X6.120 Y1.433
G1 X6.166 Y1.509
G1 X6.194 Y1.582
G1 X6.204 Y1.650
G1 X6.194 Y1.714
G1 X6.164 Y1.773
G1 X6.115 Y1.825
G1 X6.049 Y1.871
G1 X5.966 Y1.911
G1 X5.871 Y1.946
G1 X5.766 Y1.975
G1 X5.654 Y2.000
G1 X5.540 Y2.022
G1 X5.428 Y2.043
G1 X5.320 Y2.063
G1 X5.220 Y2.085
G1 X5.132 Y2.110
G1 X5.058 Y2.138
G1 X4.999 Y2.173
G1 X4.958 Y2.214
G1 X4.935 Y2.263
G1 X4.929 Y2.320
G1 X4.939 Y2.386
G1 X4.965 Y2.460
G1 X5.003 Y2.541
G1 X5.051 Y2.630
G1 X5.106 Y2.724
G1 X5.165 Y2.822
G1 X5.224 Y2.922
G1 X5.279 Y3.022
G1 X5.327 Y3.121
G1 X5.365 Y3.216
G1 X5.391 Y3.305
G1 X5.402 Y3.387
G1 X5.397 Y3.460
G1 X5.375 Y3.522
G1 X5.336 Y3.573
G1 X5.280 Y3.612
G1 X5.208 Y3.640
G1 X5.123 Y3.657
G1 X5.026 Y3.664
G1 X4.919 Y3.663
G1 X4.807 Y3.654
G1 X4.692 Y3.642
G1 X4.577 Y3.627
G1 X4.466 Y3.612
G1 X4.361 Y3.600
G1 X4.266 Y3.593
G1 X4.181 Y3.594
G1 X4.109 Y3.604
G1 X4.051 Y3.626
G1 X4.008 Y3.659
G1 X3.979 Y3.706
G1 X3.963 Y3.767
G1 X3.960 Y3.840
G1 X3.967 Y3.925
G1 X3.983 Y4.020
G1 X4.005 Y4.123
G1 X4.030 Y4.233
G1 X4.055 Y4.346
G1 X4.078 Y4.459
G1 X4.096 Y4.570
G1 X4.107 Y4.675
G1 X4.109 Y4.772
G1 X4.099 Y4.859
G1 X4.077 Y4.932
G1 X4.042 Y4.991
G1 X3.995 Y5.034
G1 X3.934 Y5.061
G1 X3.862 Y5.072
G1 X3.779 Y5.067
G1 X3.687 Y5.049
G1 X3.589 Y5.019
G1 X3.486 Y4.980
G1 X3.381 Y4.934
G1 X3.276 Y4.884
G1 X3.173 Y4.835
G1 X3.075 Y4.789
G1 X2.983 Y4.749
G1 X2.898 Y4.719
G1 X2.823 Y4.701
G1 X2.757 Y4.697
G1 X2.701 Y4.709
G1 X2.655 Y4.738
G1 X2.618 Y4.783
G1 X2.589 Y4.845
G1 X2.568 Y4.922
G1 X2.551 Y5.013
G1 X2.539 Y5.114
G1 X2.529 Y5.224
G1 X2.518 Y5.338
G1 X2.506 Y5.454
G1 X2.491 Y5.567
G1 X2.471 Y5.674
G1 X2.446 Y5.771
G1 X2.413 Y5.856
G1 X2.373 Y5.926
G1 X2.325 Y5.979
G1 X2.269 Y6.013
G1 X2.206 Y6.028
G1 X2.136 Y6.024
G1 X2.061 Y6.001
G1 X1.981 Y5.962
G1 X1.898 Y5.908
G1 X1.813 Y5.843
G1 X1.727 Y5.769
G1 X1.641 Y5.691
G1 X1.558 Y5.611
G1 X1.477 Y5.535
G1 X1.400 Y5.465
G1 X1.327 Y5.405
G1 X1.259 Y5.358
G1 X1.196 Y5.327
G1 X1.137 Y5.313
G1 X1.083 Y5.318
G1 X1.032 Y5.342
G1 X0.984 Y5.385
G1 X0.939 Y5.445
G1 X0.895 Y5.520
G1 X0.852 Y5.609
G1 X0.809 Y5.707
G1 X0.764 Y5.811
G1 X0.718 Y5.917
G1 X0.670 Y6.022
G1 X0.619 Y6.121
G1 X0.565 Y6.211
G1 X0.509 Y6.288
G1 X0.450 Y6.349
G1 X0.389 Y6.392
G1 X0.326 Y6.416
G1 X0.262 Y6.419
G1 X0.197 Y6.402
G1 X0.132 Y6.365
G1 X0.068 Y6.310
G1 X0.005 Y6.239
G1 X-0.057 Y6.155
G1 X-0.116 Y6.061
G1 X-0.174 Y5.962
G1 X-0.230 Y5.860
G1 X-0.284 Y5.760
G1 X-0.336 Y5.666
G1 X-0.387 Y5.582
G1 X-0.437 Y5.510
G1 X-0.488 Y5.454
G1 X-0.539 Y5.415
G1 X-0.592 Y5.395
G1 X-0.646 Y5.395
G1 X-0.703 Y5.413
G1 X-0.763 Y5.449
G1 X-0.827 Y5.501
G1 X-0.894 Y5.567
G1 X-0.964 Y5.643
G1 X-1.037 Y5.727
G1 X-1.113 Y5.813
G1 X-1.191 Y5.900
G1 X-1.270 Y5.981
G1 X-1.349 Y6.054
G1 X-1.427 Y6.116
G1 X-1.503 Y6.163
G1 X-1.576 Y6.193
G1 X-1.645 Y6.204
G1 X-1.709 Y6.196
G1 X-1.768 Y6.167
G1 X-1.821 Y6.120
G1 X-1.868 Y6.054
G1 X-1.908 Y5.973
G1 X-1.943 Y5.879
G1 X-1.973 Y5.774
G1 X-1.998 Y5.663
G1 X-2.021 Y5.549
G1 X-2.041 Y5.436
G1 X-2.062 Y5.328
G1 X-2.083 Y5.228
G1 X-2.107 Y5.139
G1 X-2.136 Y5.063
G1 X-2.170 Y5.004
G1 X-2.211 Y4.961
G1 X-2.259 Y4.936
G1 X-2.315 Y4.929
G1 X-2.380 Y4.938
G1 X-2.454 Y4.962
G1 X-2.535 Y5.000
G1 X-2.622 Y5.047
G1 X-2.716 Y5.102
G1 X-2.814 Y5.160
G1 X-2.914 Y5.219
G1 X-3.014 Y5.275
G1 X-3.113 Y5.324
G1 X-3.209 Y5.363
G1 X-3.299 Y5.390
G1 X-3.381 Y5.402
G1 X-3.454 Y5.398
G1 X-3.517 Y5.378
G1 X-3.569 Y5.340
G1 X-3.610 Y5.285
G1 X-3.638 Y5.215
G1 X-3.656 Y5.130
G1 X-3.664 Y5.034
G1 X-3.663 Y4.928
G1 X-3.655 Y4.816
G1 X-3.643 Y4.701
G1 X-3.628 Y4.587
G1 X-3.613 Y4.475
G1 X-3.600 Y4.370
G1 X-3.593 Y4.273
G1 X-3.593 Y4.187
G1 X-3.603 Y4.114
G1 X-3.623 Y4.055
G1 X-3.656 Y4.011
G1 X-3.702 Y3.980
G1 X-3.761 Y3.964
G1 X-3.833 Y3.960
G1 X-3.917 Y3.966
G1 X-4.012 Y3.981
G1 X-4.115 Y4.003
G1 X-4.224 Y4.028
G1 X-4.337 Y4.053
G1 X-4.450 Y4.076
G1 X-4.561 Y4.095
G1 X-4.667 Y4.107
G1 X-4.765 Y4.109
G1 X-4.852 Y4.100
G1 X-4.927 Y4.079
G1 X-4.987 Y4.046
G1 X-5.031 Y3.999
G1 X-5.059 Y3.939
G1 X-5.071 Y3.868
G1 X-5.068 Y3.786
G1 X-5.051 Y3.695
G1 X-5.022 Y3.597
G1 X-4.983 Y3.495
G1 X-4.937 Y3.389
G1 X-4.888 Y3.284
G1 X-4.839 Y3.181
G1 X-4.792 Y3.082
G1 X-4.752 Y2.990
G1 X-4.721 Y2.905
G1 X-4.702 Y2.829
G1 X-4.697 Y2.762
G1 X-4.707 Y2.705
G1 X-4.735 Y2.658
G1 X-4.779 Y2.621
G1 X-4.840 Y2.591
G1 X-4.916 Y2.569
G1 X-5.005 Y2.552
G1 X-5.106 Y2.540
G1 X-5.215 Y2.529
G1 X-5.329 Y2.519
G1 X-5.444 Y2.507
G1 X-5.558 Y2.493
G1 X-5.666 Y2.473
G1 X-5.764 Y2.448
G1 X-5.850 Y2.416
G1 X-5.921 Y2.376
G1 X-5.975 Y2.329
G1 X-6.011 Y2.274
G1 X-6.028 Y2.211
G1 X-6.025 Y2.142
G1 X-6.004 Y2.067
G1 X-5.966 Y1.988
G1 X-5.913 Y1.905
G1 X-5.849 Y1.819
G1 X-5.775 Y1.733
G1 X-5.697 Y1.648
G1 X-5.617 Y1.564
G1 X-5.541 Y1.483
G1 X-5.470 Y1.406
G1 X-5.409 Y1.333
G1 X-5.361 Y1.264
G1 X-5.329 Y1.201
G1 X-5.314 Y1.141
G1 X-5.317 Y1.087
G1 X-5.340 Y1.036
G1 X-5.381 Y0.988
G1 X-5.440 Y0.943
G1 X-5.514 Y0.899
G1 X-5.601 Y0.856
G1 X-5.699 Y0.812
G1 X-5.802 Y0.768
G1 X-5.909 Y0.722
G1 X-6.014 Y0.674
G1 X-6.113 Y0.623
G1 X-6.204 Y0.570
G1 X-6.282 Y0.514
G1 X-6.345 Y0.455
G1 X-6.390 Y0.394
G1 X-6.415 Y0.331
G1 X-6.420 Y0.267
G1 X-6.404 Y0.202
G1 X-6.369 Y0.138
G1 X-6.315 Y0.073
G1 X-6.245 Y0.010
G1 X-6.162 Y-0.052
G1 X-6.069 Y-0.112
G1 X-5.970 Y-0.170
G1 X-5.868 Y-0.225
G1 X-5.768 Y-0.279
G1 X-5.673 Y-0.332
G1 X-5.588 Y-0.383
G1 X-5.515 Y-0.433
G1 X-5.458 Y-0.484
G1 X-5.418 Y-0.535
G1 X-5.396 Y-0.587
G1 X-5.394 Y-0.642
G1 X-5.411 Y-0.699
G1 X-5.445 Y-0.759
G1 X-5.496 Y-0.822
G1 X-5.561 Y-0.888
G1 X-5.637 Y-0.958
G1 X-5.720 Y-1.031
G1 X-5.807 Y-1.107
G1 X-5.893 Y-1.185
G1 X-5.975 Y-1.264
G1 X-6.049 Y-1.343
G1 X-6.112 Y-1.421
G1 X-6.160 Y-1.497
G1 X-6.191 Y-1.570
G1 X-6.204 Y-1.640
G1 X-6.197 Y-1.704
G1 X-6.170 Y-1.764
G1 X-6.124 Y-1.817
G1 X-6.060 Y-1.864
G1 X-5.980 Y-1.905
G1 X-5.887 Y-1.940
G1 X-5.783 Y-1.971
G1 X-5.672 Y-1.996
G1 X-5.558 Y-2.019
G1 X-5.445 Y-2.040
G1 X-5.336 Y-2.060
G1 X-5.235 Y-2.081
G1 X-5.145 Y-2.105
G1 X-5.069 Y-2.133
G1 X-5.008 Y-2.167
G1 X-4.964 Y-2.207
G1 X-4.937 Y-2.255
G1 X-4.929 Y-2.311
G1 X-4.937 Y-2.375
G1 X-4.960 Y-2.447
G1 X-4.996 Y-2.528
G1 X-5.043 Y-2.615
G1 X-5.097 Y-2.708
G1 X-5.156 Y-2.806
G1 X-5.214 Y-2.906
G1 X-5.270 Y-3.006
G1 X-5.320 Y-3.106
G1 X-5.360 Y-3.201
G1 X-5.388 Y-3.292
G1 X-5.402 Y-3.375
G1 X-5.399 Y-3.449
G1 X-5.380 Y-3.513
G1 X-5.344 Y-3.565
G1 X-5.290 Y-3.607
G1 X-5.221 Y-3.637
G1 X-5.137 Y-3.655
G1 X-5.042 Y-3.664
G1 X-4.937 Y-3.663
G1 X-4.825 Y-3.656
G1 X-4.711 Y-3.644
G1 X-4.596 Y-3.629
G1 X-4.484 Y-3.614
G1 X-4.378 Y-3.601
G1 X-4.280 Y-3.594
G1 X-4.194 Y-3.593
G1 X-4.120 Y-3.602
G1 X-4.059 Y-3.621
G1 X-4.014 Y-3.653
G1 X-3.982 Y-3.698
G1 X-3.965 Y-3.756
G1 X-3.960 Y-3.827
G1 X-3.965 Y-3.910
G1 X-3.980 Y-4.004
G1 X-4.001 Y-4.106
G1 X-4.026 Y-4.215
G1 X-4.051 Y-4.328
G1 X-4.075 Y-4.441
G1 X-4.094 Y-4.553
G1 X-4.106 Y-4.659
G1 X-4.109 Y-4.758
G1 X-4.101 Y-4.846
G1 X-4.081 Y-4.921
G1 X-4.049 Y-4.982
G1 X-4.003 Y-5.028
G1 X-3.945 Y-5.057
G1 X-3.874 Y-5.071
G1 X-3.793 Y-5.069
G1 X-3.703 Y-5.053
G1 X-3.605 Y-5.024
G1 X-3.503 Y-4.986
G1 X-3.398 Y-4.941
G1 X-3.293 Y-4.892
G1 X-3.189 Y-4.843
G1 X-3.090 Y-4.796
G1 X-2.997 Y-4.755
G1 X-2.911 Y-4.723
G1 X-2.834 Y-4.703
G1 X-2.767 Y-4.697
G1 X-2.709 Y-4.706
G1 X-2.662 Y-4.732
G1 X-2.623 Y-4.775
G1 X-2.593 Y-4.834
G1 X-2.571 Y-4.909
G1 X-2.554 Y-4.998
G1 X-2.541 Y-5.097
G1 X-2.530 Y-5.206
G1 X-2.520 Y-5.320
G1 X-2.508 Y-5.435
G1 X-2.494 Y-5.549
G1 X-2.475 Y-5.657
G1 X-2.450 Y-5.757
G1 X-2.418 Y-5.844
G1 X-2.379 Y-5.916
G1 X-2.333 Y-5.972
G1 X-2.278 Y-6.009
G1 X-2.216 Y-6.027
G1 X-2.148 Y-6.026
G1 X-2.073 Y-6.006
G1 X-1.994 Y-5.969
G1 X-1.911 Y-5.918
G1 X-1.826 Y-5.854
G1 X-1.740 Y-5.781
G1 X-1.655 Y-5.703
G1 X-1.571 Y-5.624
G1 X-1.490 Y-5.546
G1 X-1.412 Y-5.475
G1 X-1.338 Y-5.413
G1 X-1.270 Y-5.364
G1 X-1.205 Y-5.331
G1 X-1.146 Y-5.314
G1 X-1.091 Y-5.316
G1 X-1.040 Y-5.337
G1 X-0.992 Y-5.377
G1 X-0.946 Y-5.434
G1 X-0.902 Y-5.508
G1 X-0.859 Y-5.594
G1 X-0.816 Y-5.691
G1 X-0.772 Y-5.794
G1 X-0.726 Y-5.900
G1 X-0.678 Y-6.006
G1 X-0.627 Y-6.106
G1 X-0.574 Y-6.197
G1 X-0.518 Y-6.277
G1 X-0.460 Y-6.340
G1 X-0.399 Y-6.387
G1 X-0.336 Y-6.414
G1 X-0.272 Y-6.420
G1 X-0.208 Y-6.406
G1 X-0.143 Y-6.372
G1 X-0.078 Y-6.320
G1 X-0.015 Y-6.252
G1 X0.047 Y-6.169
G1 X0.107 Y-6.077
G1 X0.165 Y-5.978
G1 X0.221 Y-5.876
G1 X0.275 Y-5.776
G1 X0.328 Y-5.681
G1 X0.379 Y-5.595
G1 X0.429 Y-5.521
G1 X0.480 Y-5.462
G1 X0.531 Y-5.420
G1 X0.583 Y-5.397
G1 X0.637 Y-5.393
G1 X0.694 Y-5.409
G1 X0.754 Y-5.442
G1 X0.817 Y-5.492
G1 X0.883 Y-5.556
G1 X0.953 Y-5.631
G1 X1.026 Y-5.713
G1 X1.101 Y-5.800
G1 X1.179 Y-5.886
G1 X1.257 Y-5.969
G1 X1.336 Y-6.043
G1 X1.415 Y-6.107
G1 X1.491 Y-6.156
G1 X1.565 Y-6.189
G1 X1.634 Y-6.203
G1 X1.699 Y-6.198
G1 X1.759 Y-6.173
G1 X1.813 Y-6.129
G1 X1.861 Y-6.066
G1 X1.902 Y-5.987
G1 X1.938 Y-5.895
G1 X1.968 Y-5.792
G1 X1.994 Y-5.681
G1 X2.017 Y-5.568
G1 X2.038 Y-5.454
G1 X2.058 Y-5.345
G1 X2.080 Y-5.243
G1 X2.103 Y-5.152
G1 X2.131 Y-5.074
G1 X2.164 Y-5.012
G1 X2.204 Y-4.967
G1 X2.251 Y-4.939
G1 X2.306 Y-4.929
G1 X2.370 Y-4.935
G1 X2.441 Y-4.957
G1 X2.521 Y-4.993
G1 X2.608 Y-5.039
G1 X2.701 Y-5.093
G1 X2.798 Y-5.151
G1 X2.898 Y-5.210
G1 X2.999 Y-5.266
G1 X3.098 Y-5.316
G1 X3.194 Y-5.357
G1 X3.285 Y-5.386
G1 X3.368 Y-5.401
G1 X3.443 Y-5.400
G1 X3.508 Y-5.382
G1 X3.562 Y-5.347
G1 X3.604 Y-5.295
G1 X3.635 Y-5.227
G1 X3.654 Y-5.144
G1 X3.663 Y-5.050
G1 X3.664 Y-4.945
G1 X3.657 Y-4.834
G1 X3.645 Y-4.720
G1 X3.630 Y-4.605
G1 X3.615 Y-4.492
G1 X3.602 Y-4.386
G1 X3.594 Y-4.288
G1 X3.593 Y-4.200
G1 X3.601 Y-4.125
G1 X3.619 Y-4.064
G1 X3.650 Y-4.017
G1 X3.694 Y-3.984
G1 X3.751 Y-3.966
G1 X3.821 Y-3.959
G1 X3.903 Y-3.965
G1 X3.996 Y-3.979
G1 X4.098 Y-3.999
G1 X4.206 Y-4.024
G1 X4.319 Y-4.049
G1 X4.432 Y-4.073
G1 X4.544 Y-4.093
G1 X4.651 Y-4.105
G1 X4.750 Y-4.109
G1 X4.839 Y-4.102
G1 X4.916 Y-4.083
G1 X4.978 Y-4.052
G1 X5.025 Y-4.007
G1 X5.056 Y-3.950
G1 X5.070 Y-3.880
G1 X5.070 Y-3.800
G1 X5.055 Y-3.710
G1 X5.027 Y-3.613
G1 X4.990 Y-3.511
G1 X4.945 Y-3.406
G1 X4.896 Y-3.301
G1 X4.846 Y-3.197
G1 X4.799 Y-3.098
G1 X4.758 Y-3.004
G1 X4.725 Y-2.918
G1 X4.704 Y-2.840
G1 X4.697 Y-2.772
G1 X4.705 Y-2.714
G1 X4.729 Y-2.665
G1 X4.771 Y-2.626
G1 X4.829 Y-2.595
G1 X4.902 Y-2.572
G1 X4.990 Y-2.555
G1 X5.089 Y-2.542
G1 X5.197 Y-2.531
G1 X5.311 Y-2.521
G1 X5.426 Y-2.509
G1 X5.540 Y-2.495
G1 X5.649 Y-2.477
G1 X5.749 Y-2.452
G1 X5.837 Y-2.421
G1 X5.911 Y-2.383
G1 X5.968 Y-2.337
G1 X6.007 Y-2.283
G1 X6.026 Y-2.222
G1 X6.027 Y-2.153
G1 X6.008 Y-2.079
G1 X5.973 Y-2.001
G1 X5.922 Y-1.918
G1 X5.860 Y-1.833
G1 X5.787 Y-1.747
G1 X5.710 Y-1.662
G1 X5.630 Y-1.577
G1 X5.552 Y-1.496
G1 X5.481 Y-1.418
G1 X5.418 Y-1.344
G1 X5.368 Y-1.275
G1 X5.333 Y-1.210
G1 X5.315 Y-1.151
G1 X5.315 Y-1.095
G1 X5.335 Y-1.044
G1 X5.373 Y-0.995
G1 X5.429 Y-0.950
G1 X5.501 Y-0.906
G1 X5.587 Y-0.863
G1 X5.683 Y-0.819
G1 X5.786 Y-0.775
G1 X5.892 Y-0.729
G1 X5.997 Y-0.682
G1 X6.098 Y-0.631
G1 X6.190 Y-0.579
G1 X6.271 Y-0.523
G1 X6.336 Y-0.465
G1 X6.384 Y-0.404
G1 X6.412 Y-0.341
G1 X6.420 Y-0.277
G1 X6.408 Y-0.213
G1 X6.376 Y-0.148
G1 X6.325 Y-0.083
G1 X6.258 Y-0.020
G1 X6.176 Y0.042
G1 X6.085 Y0.102
G1 X5.986 Y0.161
G1 X5.884 Y0.217
G1 X5.784 Y0.271
G1 X5.688 Y0.324
G1 X5.601 Y0.375
G1 X5.526 Y0.425
G1 X5.466 Y0.476
G1 X5.423 Y0.527
G1 X5.398 Y0.579
G1 X5.393 Y0.633
G1 X5.407 Y0.689
G1 X5.439 Y0.749
G1 X5.487 Y0.811
G1 X5.550 Y0.878
G1 X5.624 Y0.947
G1 X5.706 Y1.020
G1 X5.793 Y1.095
G1 X5.879 Y1.172
G0 Z0.6
G0 X6.537 Y1.257
Z0.6
Z0.2
Z0.01
G1 Z-0.125 F400
G1 X6.537 Y1.257
G1 X6.618 Y1.341
G1 X6.690 Y1.426
G1 X6.751 Y1.509
G1 X6.797 Y1.591
G1 X6.825 Y1.670
G1 X6.835 Y1.745
G1 X6.825 Y1.815
G1 X6.795 Y1.880
G1 X6.746 Y1.940
G1 X6.679 Y1.993
G1 X6.596 Y2.040
G1 X6.499 Y2.082
G1 X6.393 Y2.118
G1 X6.280 Y2.151
G1 X6.164 Y2.180
G1 X6.049 Y2.208
G1 X5.939 Y2.235
G1 X5.837 Y2.264
G1 X5.746 Y2.295
G1 X5.669 Y2.330
G1 X5.608 Y2.371
G1 X5.564 Y2.418
G1 X5.537 Y2.473
G1 X5.528 Y2.535
G1 X5.536 Y2.606
G1 X5.558 Y2.685
G1 X5.594 Y2.771
G1 X5.640 Y2.865
G1 X5.693 Y2.964
G1 X5.749 Y3.066
G1 X5.806 Y3.172
G1 X5.859 Y3.277
G1 X5.906 Y3.381
G1 X5.942 Y3.482
G1 X5.967 Y3.576
G1 X5.976 Y3.664
G1 X5.969 Y3.742
G1 X5.945 Y3.810
G1 X5.904 Y3.868
G1 X5.845 Y3.914
G1 X5.771 Y3.948
G1 X5.683 Y3.972
G1 X5.582 Y3.985
G1 X5.473 Y3.990
G1 X5.357 Y3.988
G1 X5.238 Y3.982
G1 X5.119 Y3.973
G1 X5.004 Y3.964
G1 X4.895 Y3.958
G1 X4.794 Y3.957
G1 X4.705 Y3.963
G1 X4.628 Y3.978
G1 X4.566 Y4.004
G1 X4.518 Y4.043
G1 X4.484 Y4.094
G1 X4.464 Y4.158
G1 X4.457 Y4.236
G1 X4.460 Y4.324
G1 X4.472 Y4.424
G1 X4.490 Y4.531
G1 X4.511 Y4.645
G1 X4.533 Y4.762
G1 X4.553 Y4.879
G1 X4.568 Y4.994
G1 X4.575 Y5.104
G1 X4.573 Y5.206
G1 X4.560 Y5.297
G1 X4.535 Y5.375
G1 X4.497 Y5.439
G1 X4.445 Y5.487
G1 X4.380 Y5.520
G1 X4.304 Y5.536
G1 X4.216 Y5.537
G1 X4.120 Y5.524
G1 X4.017 Y5.499
G1 X3.908 Y5.465
G1 X3.798 Y5.424
G1 X3.687 Y5.379
G1 X3.578 Y5.334
G1 X3.474 Y5.293
G1 X3.376 Y5.257
G1 X3.285 Y5.230
G1 X3.204 Y5.216
G1 X3.132 Y5.215
G1 X3.070 Y5.230
G1 X3.018 Y5.261
G1 X2.976 Y5.310
G1 X2.942 Y5.374
G1 X2.915 Y5.454
G1 X2.893 Y5.547
G1 X2.876 Y5.651
G1 X2.861 Y5.763
G1 X2.846 Y5.880
G1 X2.830 Y5.998
G1 X2.810 Y6.115
G1 X2.786 Y6.225
G1 X2.756 Y6.326
G1 X2.718 Y6.414
G1 X2.673 Y6.488
G1 X2.620 Y6.544
G1 X2.559 Y6.582
G1 X2.491 Y6.601
G1 X2.416 Y6.601
G1 X2.334 Y6.582
G1 X2.248 Y6.546
G1 X2.159 Y6.496
G1 X2.067 Y6.434
G1 X1.974 Y6.363
G1 X1.882 Y6.287
G1 X1.791 Y6.211
G1 X1.704 Y6.136
G1 X1.620 Y6.068
G1 X1.540 Y6.010
G1 X1.465 Y5.965
G1 X1.395 Y5.935
G1 X1.329 Y5.922
G1 X1.269 Y5.928
G1 X1.212 Y5.953
G1 X1.158 Y5.997
G1 X1.107 Y6.058
G1 X1.058 Y6.134
G1 X1.009 Y6.223
G1 X0.961 Y6.322
G1 X0.911 Y6.427
G1 X0.860 Y6.535
G1 X0.806 Y6.641
G1 X0.750 Y6.742
G1 X0.691 Y6.833
G1 X0.629 Y6.912
G1 X0.565 Y6.975
G1 X0.498 Y7.020
G1 X0.429 Y7.046
G1 X0.359 Y7.052
G1 X0.287 Y7.036
G1 X0.216 Y7.001
G1 X0.145 Y6.948
G1 X0.074 Y6.878
G1 X0.006 Y6.795
G1 X-0.062 Y6.702
G1 X-0.127 Y6.603
G1 X-0.190 Y6.502
G1 X-0.251 Y6.402
G1 X-0.310 Y6.308
G1 X-0.369 Y6.224
G1 X-0.426 Y6.151
G1 X-0.484 Y6.094
G1 X-0.541 Y6.055
G1 X-0.600 Y6.033
G1 X-0.661 Y6.032
G1 X-0.724 Y6.049
G1 X-0.790 Y6.084
G1 X-0.859 Y6.135
G1 X-0.932 Y6.200
G1 X-1.007 Y6.276
G1 X-1.086 Y6.358
G1 X-1.167 Y6.445
G1 X-1.250 Y6.530
G1 X-1.335 Y6.612
G1 X-1.419 Y6.685
G1 X-1.503 Y6.747
G1 X-1.585 Y6.794
G1 X-1.664 Y6.824
G1 X-1.739 Y6.835
G1 X-1.810 Y6.827
G1 X-1.875 Y6.798
G1 X-1.935 Y6.750
G1 X-1.989 Y6.685
G1 X-2.037 Y6.603
G1 X-2.079 Y6.507
G1 X-2.116 Y6.402
G1 X-2.148 Y6.289
G1 X-2.178 Y6.173
G1 X-2.206 Y6.058
G1 X-2.233 Y5.948
G1 X-2.261 Y5.845
G1 X-2.292 Y5.753
G1 X-2.327 Y5.675
G1 X-2.367 Y5.612
G1 X-2.414 Y5.566
G1 X-2.468 Y5.538
G1 X-2.530 Y5.528
G1 X-2.600 Y5.535
G1 X-2.678 Y5.556
G1 X-2.764 Y5.591
G1 X-2.857 Y5.636
G1 X-2.956 Y5.688
G1 X-3.058 Y5.745
G1 X-3.163 Y5.802
G1 X-3.269 Y5.855
G1 X-3.373 Y5.902
G1 X-3.474 Y5.940
G1 X-3.569 Y5.965
G1 X-3.657 Y5.976
G1 X-3.736 Y5.970
G1 X-3.805 Y5.948
G1 X-3.864 Y5.908
G1 X-3.910 Y5.851
G1 X-3.946 Y5.778
G1 X-3.970 Y5.690
G1 X-3.984 Y5.591
G1 X-3.990 Y5.482
G1 X-3.989 Y5.367
G1 X-3.983 Y5.248
G1 X-3.974 Y5.129
G1 X-3.965 Y5.013
G1 X-3.958 Y4.903
G1 X-3.957 Y4.802
G1 X-3.962 Y4.712
G1 X-3.976 Y4.634
G1 X-4.002 Y4.570
G1 X-4.039 Y4.521
G1 X-4.090 Y4.486
G1 X-4.153 Y4.465
G1 X-4.229 Y4.457
G1 X-4.317 Y4.459
G1 X-4.415 Y4.471
G1 X-4.522 Y4.488
G1 X-4.635 Y4.509
G1 X-4.752 Y4.531
G1 X-4.870 Y4.551
G1 X-4.985 Y4.567
G1 X-5.096 Y4.575
G1 X-5.198 Y4.574
G1 X-5.290 Y4.562
G1 X-5.369 Y4.537
G1 X-5.435 Y4.500
G1 X-5.484 Y4.450
G1 X-5.518 Y4.386
G1 X-5.535 Y4.310
G1 X-5.537 Y4.224
G1 X-5.526 Y4.128
G1 X-5.502 Y4.025
G1 X-5.468 Y3.917
G1 X-5.428 Y3.806
G1 X-5.383 Y3.696
G1 X-5.338 Y3.587
G1 X-5.296 Y3.482
G1 X-5.259 Y3.383
G1 X-5.232 Y3.292
G1 X-5.216 Y3.210
G1 X-5.215 Y3.137
G1 X-5.228 Y3.075
G1 X-5.258 Y3.022
G1 X-5.305 Y2.979
G1 X-5.368 Y2.944
G1 X-5.447 Y2.917
G1 X-5.539 Y2.895
G1 X-5.642 Y2.878
G1 X-5.754 Y2.862
G1 X-5.871 Y2.848
G1 X-5.989 Y2.831
G1 X-6.105 Y2.812
G1 X-6.216 Y2.788
G1 X-6.318 Y2.758
G1 X-6.408 Y2.721
G1 X-6.483 Y2.677
G1 X-6.540 Y2.625
G1 X-6.580 Y2.564
G1 X-6.600 Y2.497
G1 X-6.601 Y2.422
G1 X-6.584 Y2.341
G1 X-6.550 Y2.255
G1 X-6.501 Y2.166
G1 X-6.439 Y2.074
G1 X-6.369 Y1.981
G1 X-6.294 Y1.889
G1 X-6.217 Y1.799
G1 X-6.142 Y1.711
G1 X-6.073 Y1.626
G1 X-6.014 Y1.546
G1 X-5.968 Y1.471
G1 X-5.937 Y1.400
G1 X-5.923 Y1.335
G1 X-5.927 Y1.273
G1 X-5.951 Y1.216
G1 X-5.993 Y1.163
G1 X-6.052 Y1.111
G1 X-6.127 Y1.062
G1 X-6.215 Y1.013
G1 X-6.314 Y0.965
G1 X-6.419 Y0.915
G1 X-6.526 Y0.864
G1 X-6.633 Y0.811
G1 X-6.734 Y0.755
G1 X-6.826 Y0.696
G1 X-6.906 Y0.634
G1 X-6.971 Y0.570
G1 X-7.018 Y0.503
G1 X-7.045 Y0.435
G1 X-7.052 Y0.364
G1 X-7.038 Y0.293
G1 X-7.005 Y0.222
G1 X-6.953 Y0.150
G1 X-6.884 Y0.080
G1 X-6.802 Y0.011
G1 X-6.710 Y-0.056
G1 X-6.611 Y-0.122
G1 X-6.510 Y-0.185
G1 X-6.410 Y-0.246
G1 X-6.316 Y-0.306
G1 X-6.230 Y-0.364
G1 X-6.157 Y-0.422
G1 X-6.098 Y-0.479
G1 X-6.057 Y-0.537
G1 X-6.034 Y-0.596
G1 X-6.031 Y-0.656
G1 X-6.047 Y-0.719
G1 X-6.080 Y-0.785
G1 X-6.130 Y-0.854
G1 X-6.194 Y-0.926
G1 X-6.269 Y-1.001
G1 X-6.352 Y-1.080
G1 X-6.438 Y-1.161
G1 X-6.524 Y-1.244
G1 X-6.606 Y-1.328
G1 X-6.680 Y-1.412
G1 X-6.742 Y-1.496
G1 X-6.791 Y-1.578
G1 X-6.822 Y-1.658
G1 X-6.835 Y-1.733
G1 X-6.828 Y-1.805
G1 X-6.801 Y-1.870
G1 X-6.755 Y-1.931
G1 X-6.691 Y-1.985
G1 X-6.610 Y-2.033
G1 X-6.515 Y-2.075
G1 X-6.410 Y-2.113
G1 X-6.298 Y-2.146
G1 X-6.183 Y-2.176
G1 X-6.067 Y-2.204
G1 X-5.956 Y-2.231
G1 X-5.853 Y-2.259
G1 X-5.760 Y-2.290
G1 X-5.680 Y-2.324
G1 X-5.616 Y-2.364
G1 X-5.569 Y-2.410
G1 X-5.540 Y-2.463
G1 X-5.528 Y-2.525
G1 X-5.533 Y-2.594
G1 X-5.554 Y-2.672
G1 X-5.588 Y-2.757
G1 X-5.632 Y-2.849
G1 X-5.684 Y-2.948
G1 X-5.740 Y-3.050
G1 X-5.797 Y-3.155
G1 X-5.851 Y-3.260
G1 X-5.899 Y-3.365
G1 X-5.937 Y-3.466
G1 X-5.964 Y-3.562
G1 X-5.976 Y-3.650
G1 X-5.971 Y-3.730
G1 X-5.950 Y-3.800
G1 X-5.911 Y-3.859
G1 X-5.856 Y-3.907
G1 X-5.784 Y-3.943
G1 X-5.698 Y-3.969
G1 X-5.599 Y-3.984
G1 X-5.491 Y-3.990
G1 X-5.376 Y-3.989
G1 X-5.257 Y-3.983
G1 X-5.138 Y-3.975
G1 X-5.022 Y-3.966
G1 X-4.912 Y-3.959
G1 X-4.810 Y-3.956
G1 X-4.718 Y-3.961
G1 X-4.640 Y-3.975
G1 X-4.575 Y-3.999
G1 X-4.524 Y-4.036
G1 X-4.488 Y-4.085
G1 X-4.466 Y-4.147
G1 X-4.457 Y-4.222
G1 X-4.459 Y-4.310
G1 X-4.469 Y-4.407
G1 X-4.487 Y-4.513
G1 X-4.508 Y-4.626
G1 X-4.530 Y-4.743
G1 X-4.550 Y-4.860
G1 X-4.566 Y-4.976
G1 X-4.575 Y-5.087
G1 X-4.574 Y-5.190
G1 X-4.563 Y-5.283
G1 X-4.540 Y-5.364
G1 X-4.504 Y-5.430
G1 X-4.454 Y-5.481
G1 X-4.391 Y-5.516
G1 X-4.317 Y-5.534
G1 X-4.231 Y-5.538
G1 X-4.136 Y-5.527
G1 X-4.033 Y-5.504
G1 X-3.926 Y-5.471
G1 X-3.815 Y-5.431
G1 X-3.704 Y-5.387
G1 X-3.595 Y-5.342
G1 X-3.490 Y-5.299
G1 X-3.391 Y-5.262
G1 X-3.299 Y-5.234
G1 X-3.216 Y-5.217
G1 X-3.143 Y-5.214
G1 X-3.079 Y-5.226
G1 X-3.026 Y-5.255
G1 X-2.982 Y-5.301
G1 X-2.946 Y-5.363
G1 X-2.919 Y-5.440
G1 X-2.897 Y-5.531
G1 X-2.879 Y-5.634
G1 X-2.863 Y-5.745
G1 X-2.849 Y-5.861
G1 X-2.833 Y-5.980
G1 X-2.814 Y-6.096
G1 X-2.790 Y-6.208
G1 X-2.761 Y-6.310
G1 X-2.725 Y-6.401
G1 X-2.681 Y-6.477
G1 X-2.629 Y-6.536
G1 X-2.569 Y-6.577
G1 X-2.502 Y-6.599
G1 X-2.428 Y-6.602
G1 X-2.348 Y-6.586
G1 X-2.262 Y-6.553
G1 X-2.173 Y-6.505
G1 X-2.082 Y-6.444
G1 X-1.989 Y-6.375
G1 X-1.896 Y-6.300
G1 X-1.806 Y-6.223
G1 X-1.717 Y-6.148
G1 X-1.633 Y-6.078
G1 X-1.552 Y-6.019
G1 X-1.476 Y-5.971
G1 X-1.406 Y-5.939
G1 X-1.340 Y-5.923
G1 X-1.278 Y-5.926
G1 X-1.221 Y-5.948
G1 X-1.167 Y-5.989
G1 X-1.115 Y-6.047
G1 X-1.066 Y-6.121
G1 X-1.017 Y-6.208
G1 X-0.969 Y-6.306
G1 X-0.919 Y-6.410
G1 X-0.868 Y-6.518
G1 X-0.815 Y-6.624
G1 X-0.759 Y-6.726
G1 X-0.701 Y-6.819
G1 X-0.639 Y-6.900
G1 X-0.575 Y-6.966
G1 X-0.509 Y-7.015
G1 X-0.440 Y-7.043
G1 X-0.370 Y-7.052
G1 X-0.299 Y-7.040
G1 X-0.227 Y-7.008
G1 X-0.156 Y-6.957
G1 X-0.086 Y-6.890
G1 X-0.016 Y-6.809
G1 X0.051 Y-6.718
G1 X0.116 Y-6.619
G1 X0.180 Y-6.518
G1 X0.241 Y-6.418
G1 X0.301 Y-6.323
G1 X0.360 Y-6.236
G1 X0.417 Y-6.162
G1 X0.474 Y-6.102
G1 X0.532 Y-6.060
G1 X0.591 Y-6.036
G1 X0.651 Y-6.031
G1 X0.714 Y-6.045
G1 X0.780 Y-6.077
G1 X0.848 Y-6.126
G1 X0.920 Y-6.189
G1 X0.995 Y-6.263
G1 X1.073 Y-6.345
G1 X1.154 Y-6.431
G1 X1.237 Y-6.517
G1 X1.321 Y-6.599
G1 X1.406 Y-6.674
G1 X1.490 Y-6.738
G1 X1.572 Y-6.787
G1 X1.652 Y-6.820
G1 X1.728 Y-6.835
G1 X1.799 Y-6.829
G1 X1.865 Y-6.804
G1 X1.926 Y-6.759
G1 X1.981 Y-6.696
G1 X2.029 Y-6.617
G1 X2.072 Y-6.523
G1 X2.110 Y-6.419
G1 X2.143 Y-6.307
G1 X2.173 Y-6.192
G1 X2.201 Y-6.076
G1 X2.229 Y-5.965
G1 X2.257 Y-5.860
G1 X2.287 Y-5.767
G1 X2.321 Y-5.686
G1 X2.360 Y-5.621
G1 X2.406 Y-5.572
G1 X2.459 Y-5.542
G1 X2.519 Y-5.529
G1 X2.588 Y-5.532
G1 X2.665 Y-5.552
G1 X2.750 Y-5.585
G1 X2.842 Y-5.628
G1 X2.940 Y-5.680
G1 X3.042 Y-5.736
G1 X3.146 Y-5.793
G1 X3.252 Y-5.847
G1 X3.357 Y-5.895
G1 X3.458 Y-5.935
G1 X3.554 Y-5.962
G1 X3.644 Y-5.975
G1 X3.724 Y-5.972
G1 X3.795 Y-5.952
G1 X3.855 Y-5.915
G1 X3.904 Y-5.861
G1 X3.941 Y-5.790
G1 X3.967 Y-5.705
G1 X3.983 Y-5.607
G1 X3.990 Y-5.500
G1 X3.989 Y-5.385
G1 X3.984 Y-5.267
G1 X3.975 Y-5.148
G1 X3.966 Y-5.031
G1 X3.959 Y-4.920
G1 X3.956 Y-4.817
G1 X3.961 Y-4.725
G1 X3.973 Y-4.645
G1 X3.997 Y-4.579
G1 X4.032 Y-4.528
G1 X4.081 Y-4.491
G1 X4.142 Y-4.468
G1 X4.216 Y-4.457
G1 X4.302 Y-4.458
G1 X4.399 Y-4.468
G1 X4.505 Y-4.485
G1 X4.617 Y-4.506
G1 X4.733 Y-4.528
G1 X4.851 Y-4.548
G1 X4.967 Y-4.565
G1 X5.078 Y-4.574
G1 X5.182 Y-4.575
G1 X5.276 Y-4.565
G1 X5.358 Y-4.542
G1 X5.425 Y-4.507
G1 X5.477 Y-4.458
G1 X5.513 Y-4.397
G1 X5.534 Y-4.323
G1 X5.538 Y-4.238
G1 X5.528 Y-4.144
G1 X5.506 Y-4.042
G1 X5.474 Y-3.935
G1 X5.434 Y-3.824
G1 X5.390 Y-3.713
G1 X5.345 Y-3.604
G1 X5.302 Y-3.498
G1 X5.265 Y-3.398
G1 X5.236 Y-3.306
G1 X5.218 Y-3.222
G1 X5.214 Y-3.148
G1 X5.225 Y-3.084
G1 X5.252 Y-3.030
G1 X5.297 Y-2.985
G1 X5.357 Y-2.949
G1 X5.433 Y-2.921
G1 X5.523 Y-2.898
G1 X5.625 Y-2.880
G1 X5.736 Y-2.865
G1 X5.852 Y-2.850
G1 X5.970 Y-2.834
G1 X6.087 Y-2.815
G1 X6.199 Y-2.792
G1 X6.303 Y-2.763
G1 X6.394 Y-2.728
G1 X6.472 Y-2.685
G1 X6.532 Y-2.633
G1 X6.575 Y-2.574
G1 X6.598 Y-2.508
G1 X6.602 Y-2.434
G1 X6.588 Y-2.354
G1 X6.556 Y-2.269
G1 X6.509 Y-2.180
G1 X6.450 Y-2.089
G1 X6.381 Y-1.996
G1 X6.306 Y-1.904
G1 X6.229 Y-1.813
G1 X6.154 Y-1.724
G1 X6.084 Y-1.639
G1 X6.023 Y-1.559
G1 X5.974 Y-1.482
G1 X5.941 Y-1.411
G1 X5.924 Y-1.345
G1 X5.925 Y-1.283
G1 X5.946 Y-1.225
G1 X5.985 Y-1.171
G1 X6.042 Y-1.119
G1 X6.114 Y-1.070
G1 X6.201 Y-1.021
G1 X6.298 Y-0.972
G1 X6.402 Y-0.923
G1 X6.509 Y-0.872
G1 X6.616 Y-0.819
G1 X6.718 Y-0.764
G1 X6.812 Y-0.706
G1 X6.894 Y-0.644
G1 X6.962 Y-0.581
G1 X7.011 Y-0.514
G1 X7.042 Y-0.446
G1 X7.052 Y-0.376
G1 X7.042 Y-0.304
G1 X7.011 Y-0.233
G1 X6.962 Y-0.162
G1 X6.896 Y-0.091
G1 X6.816 Y-0.022
G1 X6.725 Y0.046
G1 X6.627 Y0.111
G1 X6.526 Y0.175
G1 X6.426 Y0.237
G1 X6.330 Y0.296
G1 X6.243 Y0.355
G1 X6.167 Y0.413
G1 X6.106 Y0.470
G1 X6.062 Y0.527
G1 X6.037 Y0.586
G1 X6.030 Y0.646
G1 X6.043 Y0.709
G1 X6.074 Y0.774
G1 X6.121 Y0.843
G1 X6.183 Y0.914
G1 X6.257 Y0.989
G1 X6.338 Y1.067
G1 X6.424 Y1.148
G1 X6.510 Y1.230
G0 Z0.6
G0 X7.184 Y1.169
Z0.6
Z0.2
Z0.01
G1 Z-0.125 F400
G1 X7.184 Y1.169
G1 X7.267 Y1.257
G1 X7.342 Y1.346
G1 X7.405 Y1.434
G1 X7.454 Y1.521
G1 X7.486 Y1.606
G1 X7.500 Y1.687
G1 X7.493 Y1.765
G1 X7.466 Y1.837
G1 X7.420 Y1.905
G1 X7.355 Y1.967
G1 X7.274 Y2.023
G1 X7.178 Y2.074
G1 X7.072 Y2.120
G1 X6.959 Y2.163
G1 X6.843 Y2.202
G1 X6.726 Y2.239
G1 X6.614 Y2.275
G1 X6.509 Y2.312
G1 X6.415 Y2.351
G1 X6.335 Y2.394
G1 X6.270 Y2.441
G1 X6.222 Y2.494
G1 X6.192 Y2.555
G1 X6.180 Y2.622
G1 X6.185 Y2.698
G1 X6.205 Y2.781
G1 X6.239 Y2.871
G1 X6.283 Y2.968
G1 X6.335 Y3.070
G1 X6.391 Y3.177
G1 X6.448 Y3.286
G1 X6.502 Y3.396
G1 X6.549 Y3.504
G1 X6.587 Y3.610
G1 X6.613 Y3.710
G1 X6.624 Y3.804
G1 X6.618 Y3.889
G1 X6.596 Y3.965
G1 X6.555 Y4.031
G1 X6.497 Y4.085
G1 X6.423 Y4.128
G1 X6.333 Y4.161
G1 X6.232 Y4.184
G1 X6.120 Y4.198
G1 X6.001 Y4.206
G1 X5.879 Y4.208
G1 X5.756 Y4.208
G1 X5.636 Y4.207
G1 X5.521 Y4.209
G1 X5.416 Y4.214
G1 X5.321 Y4.227
G1 X5.239 Y4.248
G1 X5.171 Y4.279
G1 X5.118 Y4.322
G1 X5.079 Y4.377
G1 X5.055 Y4.445
G1 X5.043 Y4.525
G1 X5.043 Y4.617
G1 X5.052 Y4.719
G1 X5.068 Y4.830
G1 X5.088 Y4.946
G1 X5.109 Y5.067
G1 X5.128 Y5.188
G1 X5.142 Y5.308
G1 X5.149 Y5.423
G1 X5.147 Y5.530
G1 X5.133 Y5.628
G1 X5.107 Y5.713
G1 X5.068 Y5.784
G1 X5.015 Y5.840
G1 X4.948 Y5.881
G1 X4.869 Y5.905
G1 X4.778 Y5.915
G1 X4.678 Y5.910
G1 X4.570 Y5.894
G1 X4.456 Y5.868
G1 X4.339 Y5.834
G1 X4.222 Y5.797
G1 X4.107 Y5.758
G1 X3.995 Y5.722
G1 X3.890 Y5.692
G1 X3.792 Y5.670
G1 X3.704 Y5.659
G1 X3.625 Y5.662
G1 X3.557 Y5.679
G1 X3.499 Y5.713
G1 X3.451 Y5.764
G1 X3.412 Y5.830
G1 X3.381 Y5.911
G1 X3.356 Y6.006
G1 X3.335 Y6.113
G1 X3.318 Y6.227
G1 X3.300 Y6.347
G1 X3.282 Y6.469
G1 X3.260 Y6.589
G1 X3.234 Y6.703
G1 X3.202 Y6.809
G1 X3.162 Y6.903
G1 X3.114 Y6.983
G1 X3.058 Y7.046
G1 X2.994 Y7.091
G1 X2.921 Y7.117
G1 X2.841 Y7.123
G1 X2.754 Y7.112
G1 X2.662 Y7.083
G1 X2.566 Y7.039
G1 X2.466 Y6.984
G1 X2.366 Y6.918
G1 X2.266 Y6.848
G1 X2.167 Y6.775
G1 X2.070 Y6.705
G1 X1.978 Y6.640
G1 X1.890 Y6.584
G1 X1.807 Y6.540
G1 X1.729 Y6.512
G1 X1.656 Y6.500
G1 X1.589 Y6.507
G1 X1.526 Y6.532
G1 X1.467 Y6.576
G1 X1.411 Y6.637
G1 X1.357 Y6.713
G1 X1.305 Y6.803
G1 X1.253 Y6.904
G1 X1.200 Y7.011
G1 X1.146 Y7.121
G1 X1.089 Y7.230
G1 X1.030 Y7.334
G1 X0.968 Y7.429
G1 X0.902 Y7.512
G1 X0.833 Y7.581
G1 X0.762 Y7.631
G1 X0.688 Y7.662
G1 X0.611 Y7.673
G1 X0.534 Y7.663
G1 X0.455 Y7.633
G1 X0.376 Y7.584
G1 X0.297 Y7.519
G1 X0.220 Y7.440
G1 X0.143 Y7.350
G1 X0.069 Y7.254
G1 X-0.003 Y7.154
G1 X-0.074 Y7.056
G1 X-0.143 Y6.962
G1 X-0.210 Y6.878
G1 X-0.276 Y6.805
G1 X-0.341 Y6.747
G1 X-0.406 Y6.706
G1 X-0.472 Y6.683
G1 X-0.539 Y6.680
G1 X-0.607 Y6.695
G1 X-0.678 Y6.729
G1 X-0.752 Y6.779
G1 X-0.829 Y6.844
G1 X-0.908 Y6.919
G1 X-0.990 Y7.002
G1 X-1.075 Y7.090
G1 X-1.162 Y7.177
G1 X-1.250 Y7.260
G1 X-1.339 Y7.336
G1 X-1.427 Y7.401
G1 X-1.514 Y7.451
G1 X-1.599 Y7.484
G1 X-1.681 Y7.499
G1 X-1.759 Y7.494
G1 X-1.832 Y7.469
G1 X-1.900 Y7.424
G1 X-1.962 Y7.361
G1 X-2.019 Y7.281
G1 X-2.070 Y7.186
G1 X-2.117 Y7.081
G1 X-2.159 Y6.969
G1 X-2.199 Y6.852
G1 X-2.236 Y6.735
G1 X-2.272 Y6.623
G1 X-2.309 Y6.517
G1 X-2.348 Y6.422
G1 X-2.390 Y6.341
G1 X-2.437 Y6.275
G1 X-2.490 Y6.225
G1 X-2.550 Y6.194
G1 X-2.617 Y6.180
G1 X-2.691 Y6.184
G1 X-2.774 Y6.203
G1 X-2.863 Y6.236
G1 X-2.960 Y6.279
G1 X-3.062 Y6.331
G1 X-3.168 Y6.387
G1 X-3.277 Y6.444
G1 X-3.387 Y6.498
G1 X-3.496 Y6.546
G1 X-3.601 Y6.585
G1 X-3.702 Y6.611
G1 X-3.797 Y6.624
G1 X-3.883 Y6.620
G1 X-3.959 Y6.598
G1 X-4.026 Y6.559
G1 X-4.081 Y6.502
G1 X-4.125 Y6.429
G1 X-4.159 Y6.341
G1 X-4.182 Y6.240
G1 X-4.197 Y6.129
G1 X-4.205 Y6.011
G1 X-4.208 Y5.888
G1 X-4.208 Y5.765
G1 X-4.207 Y5.645
G1 X-4.208 Y5.530
G1 X-4.214 Y5.424
G1 X-4.225 Y5.328
G1 X-4.245 Y5.245
G1 X-4.276 Y5.176
G1 X-4.318 Y5.121
G1 X-4.372 Y5.082
G1 X-4.439 Y5.056
G1 X-4.518 Y5.044
G1 X-4.609 Y5.043
G1 X-4.711 Y5.051
G1 X-4.820 Y5.067
G1 X-4.937 Y5.086
G1 X-5.057 Y5.107
G1 X-5.179 Y5.126
G1 X-5.299 Y5.141
G1 X-5.414 Y5.149
G1 X-5.522 Y5.148
G1 X-5.620 Y5.135
G1 X-5.706 Y5.110
G1 X-5.779 Y5.072
G1 X-5.836 Y5.020
G1 X-5.878 Y4.954
G1 X-5.904 Y4.876
G1 X-5.914 Y4.786
G1 X-5.911 Y4.686
G1 X-5.896 Y4.579
G1 X-5.870 Y4.465
G1 X-5.837 Y4.349
G1 X-5.800 Y4.231
G1 X-5.761 Y4.116
G1 X-5.725 Y4.004
G1 X-5.694 Y3.898
G1 X-5.671 Y3.800
G1 X-5.660 Y3.710
G1 X-5.661 Y3.631
G1 X-5.678 Y3.562
G1 X-5.710 Y3.503
G1 X-5.759 Y3.455
G1 X-5.824 Y3.415
G1 X-5.904 Y3.383
G1 X-5.998 Y3.358
G1 X-6.104 Y3.337
G1 X-6.218 Y3.319
G1 X-6.337 Y3.302
G1 X-6.459 Y3.283
G1 X-6.579 Y3.262
G1 X-6.695 Y3.236
G1 X-6.801 Y3.204
G1 X-6.897 Y3.165
G1 X-6.977 Y3.118
G1 X-7.042 Y3.063
G1 X-7.088 Y2.999
G1 X-7.115 Y2.927
G1 X-7.124 Y2.848
G1 X-7.113 Y2.762
G1 X-7.086 Y2.670
G1 X-7.043 Y2.574
G1 X-6.988 Y2.474
G1 X-6.924 Y2.374
G1 X-6.854 Y2.274
G1 X-6.781 Y2.174
G1 X-6.710 Y2.078
G1 X-6.645 Y1.985
G1 X-6.588 Y1.897
G1 X-6.543 Y1.813
G1 X-6.514 Y1.735
G1 X-6.501 Y1.662
G1 X-6.506 Y1.594
G1 X-6.529 Y1.531
G1 X-6.571 Y1.472
G1 X-6.631 Y1.416
G1 X-6.707 Y1.362
G1 X-6.796 Y1.309
G1 X-6.895 Y1.257
G1 X-7.002 Y1.204
G1 X-7.112 Y1.150
G1 X-7.221 Y1.094
G1 X-7.326 Y1.035
G1 X-7.422 Y0.973
G1 X-7.506 Y0.907
G1 X-7.576 Y0.839
G1 X-7.628 Y0.768
G1 X-7.660 Y0.694
G1 X-7.673 Y0.618
G1 X-7.664 Y0.540
G1 X-7.636 Y0.461
G1 X-7.589 Y0.382
G1 X-7.525 Y0.303
G1 X-7.447 Y0.226
G1 X-7.358 Y0.149
G1 X-7.262 Y0.075
G1 X-7.162 Y0.002
G1 X-7.064 Y-0.068
G1 X-6.970 Y-0.137
G1 X-6.884 Y-0.204
G1 X-6.810 Y-0.270
G1 X-6.751 Y-0.336
G1 X-6.708 Y-0.401
G1 X-6.684 Y-0.467
G1 X-6.679 Y-0.533
G1 X-6.693 Y-0.602
G1 X-6.726 Y-0.673
G1 X-6.775 Y-0.746
G1 X-6.838 Y-0.822
G1 X-6.913 Y-0.902
G1 X-6.995 Y-0.984
G1 X-7.083 Y-1.068
G1 X-7.170 Y-1.155
G1 X-7.254 Y-1.243
G1 X-7.330 Y-1.332
G1 X-7.396 Y-1.420
G1 X-7.448 Y-1.507
G1 X-7.482 Y-1.592
G1 X-7.499 Y-1.674
G1 X-7.495 Y-1.753
G1 X-7.472 Y-1.826
G1 X-7.428 Y-1.894
G1 X-7.366 Y-1.957
G1 X-7.288 Y-2.014
G1 X-7.194 Y-2.066
G1 X-7.090 Y-2.113
G1 X-6.978 Y-2.156
G1 X-6.861 Y-2.196
G1 X-6.745 Y-2.233
G1 X-6.631 Y-2.269
G1 X-6.525 Y-2.306
G1 X-6.429 Y-2.345
G1 X-6.347 Y-2.387
G1 X-6.279 Y-2.433
G1 X-6.229 Y-2.486
G1 X-6.196 Y-2.545
G1 X-6.181 Y-2.611
G1 X-6.183 Y-2.685
G1 X-6.201 Y-2.767
G1 X-6.233 Y-2.856
G1 X-6.275 Y-2.952
G1 X-6.326 Y-3.054
G1 X-6.382 Y-3.160
G1 X-6.439 Y-3.268
G1 X-6.494 Y-3.378
G1 X-6.542 Y-3.487
G1 X-6.582 Y-3.593
G1 X-6.610 Y-3.695
G1 X-6.623 Y-3.789
G1 X-6.620 Y-3.876
G1 X-6.600 Y-3.954
G1 X-6.563 Y-4.021
G1 X-6.507 Y-4.077
G1 X-6.435 Y-4.122
G1 X-6.348 Y-4.157
G1 X-6.249 Y-4.181
G1 X-6.138 Y-4.197
G1 X-6.020 Y-4.205
G1 X-5.898 Y-4.208
G1 X-5.775 Y-4.208
G1 X-5.654 Y-4.207
G1 X-5.539 Y-4.208
G1 X-5.432 Y-4.213
G1 X-5.335 Y-4.224
G1 X-5.251 Y-4.244
G1 X-5.181 Y-4.273
G1 X-5.125 Y-4.314
G1 X-5.084 Y-4.367
G1 X-5.058 Y-4.433
G1 X-5.044 Y-4.511
G1 X-5.043 Y-4.602
G1 X-5.051 Y-4.702
G1 X-5.065 Y-4.811
G1 X-5.085 Y-4.927
G1 X-5.106 Y-5.048
G1 X-5.125 Y-5.169
G1 X-5.140 Y-5.289
G1 X-5.149 Y-5.405
G1 X-5.148 Y-5.514
G1 X-5.136 Y-5.613
G1 X-5.112 Y-5.700
G1 X-5.075 Y-5.774
G1 X-5.024 Y-5.832
G1 X-4.960 Y-5.875
G1 X-4.882 Y-5.902
G1 X-4.793 Y-5.914
G1 X-4.694 Y-5.912
G1 X-4.587 Y-5.897
G1 X-4.474 Y-5.872
G1 X-4.358 Y-5.840
G1 X-4.241 Y-5.803
G1 X-4.125 Y-5.764
G1 X-4.013 Y-5.728
G1 X-3.906 Y-5.696
G1 X-3.807 Y-5.673
G1 X-3.717 Y-5.660
G1 X-3.637 Y-5.660
G1 X-3.567 Y-5.676
G1 X-3.508 Y-5.707
G1 X-3.458 Y-5.754
G1 X-3.418 Y-5.818
G1 X-3.385 Y-5.898
G1 X-3.360 Y-5.990
G1 X-3.338 Y-6.095
G1 X-3.320 Y-6.208
G1 X-3.303 Y-6.328
G1 X-3.285 Y-6.449
G1 X-3.264 Y-6.570
G1 X-3.239 Y-6.686
G1 X-3.207 Y-6.793
G1 X-3.169 Y-6.889
G1 X-3.123 Y-6.972
G1 X-3.068 Y-7.037
G1 X-3.005 Y-7.085
G1 X-2.933 Y-7.114
G1 X-2.854 Y-7.124
G1 X-2.769 Y-7.115
G1 X-2.677 Y-7.089
G1 X-2.581 Y-7.047
G1 X-2.482 Y-6.993
G1 X-2.382 Y-6.929
G1 X-2.282 Y-6.859
G1 X-2.182 Y-6.787
G1 X-2.086 Y-6.716
G1 X-1.992 Y-6.650
G1 X-1.903 Y-6.592
G1 X-1.820 Y-6.546
G1 X-1.741 Y-6.515
G1 X-1.668 Y-6.501
G1 X-1.599 Y-6.504
G1 X-1.536 Y-6.527
G1 X-1.476 Y-6.567
G1 X-1.420 Y-6.626
G1 X-1.366 Y-6.700
G1 X-1.313 Y-6.788
G1 X-1.261 Y-6.887
G1 X-1.208 Y-6.993
G1 X-1.154 Y-7.103
G1 X-1.098 Y-7.212
G1 X-1.039 Y-7.318
G1 X-0.978 Y-7.415
G1 X-0.913 Y-7.500
G1 X-0.845 Y-7.571
G1 X-0.773 Y-7.624
G1 X-0.700 Y-7.658
G1 X-0.624 Y-7.672
G1 X-0.546 Y-7.666
G1 X-0.467 Y-7.639
G1 X-0.388 Y-7.593
G1 X-0.310 Y-7.531
G1 X-0.232 Y-7.453
G1 X-0.155 Y-7.365
G1 X-0.081 Y-7.270
G1 X-0.008 Y-7.170
G1 X0.063 Y-7.071
G1 X0.132 Y-6.977
G1 X0.199 Y-6.890
G1 X0.265 Y-6.815
G1 X0.331 Y-6.755
G1 X0.396 Y-6.711
G1 X0.461 Y-6.685
G1 X0.528 Y-6.679
G1 X0.596 Y-6.691
G1 X0.667 Y-6.722
G1 X0.740 Y-6.770
G1 X0.816 Y-6.832
G1 X0.895 Y-6.906
G1 X0.977 Y-6.989
G1 X1.061 Y-7.076
G1 X1.148 Y-7.163
G1 X1.236 Y-7.248
G1 X1.325 Y-7.325
G1 X1.413 Y-7.391
G1 X1.500 Y-7.444
G1 X1.586 Y-7.480
G1 X1.668 Y-7.498
G1 X1.746 Y-7.496
G1 X1.820 Y-7.474
G1 X1.889 Y-7.433
G1 X1.952 Y-7.372
G1 X2.010 Y-7.294
G1 X2.062 Y-7.202
G1 X2.110 Y-7.099
G1 X2.153 Y-6.987
G1 X2.192 Y-6.871
G1 X2.230 Y-6.754
G1 X2.266 Y-6.640
G1 X2.303 Y-6.533
G1 X2.341 Y-6.437
G1 X2.383 Y-6.353
G1 X2.429 Y-6.284
G1 X2.481 Y-6.232
G1 X2.540 Y-6.198
G1 X2.605 Y-6.181
G1 X2.679 Y-6.182
G1 X2.760 Y-6.199
G1 X2.849 Y-6.230
G1 X2.944 Y-6.272
G1 X3.045 Y-6.322
G1 X3.151 Y-6.378
G1 X3.260 Y-6.435
G1 X3.369 Y-6.489
G1 X3.478 Y-6.539
G1 X3.585 Y-6.579
G1 X3.687 Y-6.608
G1 X3.782 Y-6.623
G1 X3.870 Y-6.621
G1 X3.948 Y-6.603
G1 X4.016 Y-6.566
G1 X4.073 Y-6.512
G1 X4.119 Y-6.442
G1 X4.154 Y-6.356
G1 X4.179 Y-6.257
G1 X4.196 Y-6.147
G1 X4.205 Y-6.030
G1 X4.208 Y-5.908
G1 X4.208 Y-5.785
G1 X4.207 Y-5.664
G1 X4.208 Y-5.548
G1 X4.212 Y-5.440
G1 X4.223 Y-5.342
G1 X4.242 Y-5.257
G1 X4.270 Y-5.186
G1 X4.310 Y-5.129
G1 X4.363 Y-5.087
G1 X4.427 Y-5.059
G1 X4.505 Y-5.045
G1 X4.594 Y-5.042
G1 X4.694 Y-5.050
G1 X4.802 Y-5.064
G1 X4.918 Y-5.083
G1 X5.038 Y-5.104
G1 X5.159 Y-5.124
G1 X5.280 Y-5.139
G1 X5.396 Y-5.148
G1 X5.505 Y-5.148
G1 X5.605 Y-5.138
G1 X5.694 Y-5.115
G1 X5.768 Y-5.079
G1 X5.828 Y-5.029
G1 X5.872 Y-4.965
G1 X5.901 Y-4.889
G1 X5.914 Y-4.801
G1 X5.913 Y-4.703
G1 X5.899 Y-4.596
G1 X5.875 Y-4.484
G1 X5.843 Y-4.367
G1 X5.806 Y-4.250
G1 X5.767 Y-4.134
G1 X5.730 Y-4.021
G1 X5.698 Y-3.914
G1 X5.674 Y-3.815
G1 X5.661 Y-3.724
G1 X5.660 Y-3.643
G1 X5.674 Y-3.572
G1 X5.704 Y-3.512
G1 X5.750 Y-3.462
G1 X5.813 Y-3.421
G1 X5.891 Y-3.388
G1 X5.983 Y-3.361
G1 X6.086 Y-3.340
G1 X6.199 Y-3.322
G1 X6.318 Y-3.305
G1 X6.440 Y-3.287
G1 X6.560 Y-3.266
G1 X6.677 Y-3.241
G1 X6.785 Y-3.210
G1 X6.882 Y-3.172
G1 X6.966 Y-3.127
G1 X7.033 Y-3.073
G1 X7.082 Y-3.010
G1 X7.112 Y-2.939
G1 X7.124 Y-2.861
G1 X7.116 Y-2.776
G1 X7.091 Y-2.685
G1 X7.051 Y-2.589
G1 X6.998 Y-2.490
G1 X6.935 Y-2.390
G1 X6.865 Y-2.289
G1 X6.793 Y-2.190
G1 X6.721 Y-2.093
G1 X6.655 Y-2.000
G1 X6.596 Y-1.910
G1 X6.550 Y-1.826
G1 X6.517 Y-1.747
G1 X6.501 Y-1.673
G1 X6.503 Y-1.605
G1 X6.524 Y-1.541
G1 X6.564 Y-1.481
G1 X6.621 Y-1.424
G1 X6.694 Y-1.370
G1 X6.781 Y-1.317
G1 X6.879 Y-1.265
G1 X6.985 Y-1.213
G1 X7.094 Y-1.159
G1 X7.204 Y-1.103
G1 X7.310 Y-1.044
G1 X7.407 Y-0.983
G1 X7.494 Y-0.918
G1 X7.566 Y-0.850
G1 X7.621 Y-0.779
G1 X7.656 Y-0.706
G1 X7.672 Y-0.630
G1 X7.667 Y-0.552
G1 X7.642 Y-0.474
G1 X7.598 Y-0.395
G1 X7.536 Y-0.316
G1 X7.460 Y-0.238
G1 X7.373 Y-0.161
G1 X7.277 Y-0.087
G1 X7.178 Y-0.014
G1 X7.079 Y0.057
G1 X6.984 Y0.126
G1 X6.897 Y0.194
G1 X6.821 Y0.260
G1 X6.759 Y0.325
G1 X6.714 Y0.391
G1 X6.687 Y0.456
G1 X6.679 Y0.523
G1 X6.690 Y0.591
G1 X6.719 Y0.661
G1 X6.766 Y0.734
G1 X6.827 Y0.810
G1 X6.900 Y0.889
G1 X6.982 Y0.970
G1 X7.069 Y1.055
G1 X7.156 Y1.141
G0 Z0.6
G0 X7.838 Y0.919
Z0.6
Z0.2
Z0.01
G1 Z-0.125 F400
G1 X7.838 Y0.919
G1 X7.925 Y1.010
G1 X8.005 Y1.101
G1 X8.074 Y1.193
G1 X8.129 Y1.285
G1 X8.168 Y1.375
G1 X8.188 Y1.462
G1 X8.188 Y1.547
G1 X8.167 Y1.628
G1 X8.127 Y1.705
G1 X8.067 Y1.776
G1 X7.991 Y1.844
G1 X7.899 Y1.906
G1 X7.796 Y1.964
G1 X7.684 Y2.017
G1 X7.568 Y2.068
G1 X7.451 Y2.116
G1 X7.338 Y2.164
G1 X7.231 Y2.211
G1 X7.134 Y2.260
G1 X7.050 Y2.311
G1 X6.982 Y2.366
G1 X6.930 Y2.426
G1 X6.897 Y2.492
G1 X6.881 Y2.565
G1 X6.883 Y2.644
G1 X6.901 Y2.730
G1 X6.934 Y2.824
G1 X6.977 Y2.923
G1 X7.030 Y3.028
G1 X7.087 Y3.137
G1 X7.146 Y3.249
G1 X7.203 Y3.362
G1 X7.254 Y3.475
G1 X7.296 Y3.585
G1 X7.326 Y3.691
G1 X7.342 Y3.792
G1 X7.341 Y3.885
G1 X7.322 Y3.969
G1 X7.285 Y4.044
G1 X7.230 Y4.109
G1 X7.158 Y4.163
G1 X7.071 Y4.207
G1 X6.969 Y4.242
G1 X6.857 Y4.268
G1 X6.737 Y4.287
G1 X6.611 Y4.301
G1 X6.485 Y4.312
G1 X6.360 Y4.321
G1 X6.241 Y4.332
G1 X6.130 Y4.346
G1 X6.029 Y4.366
G1 X5.941 Y4.394
G1 X5.868 Y4.431
G1 X5.809 Y4.478
G1 X5.766 Y4.537
G1 X5.737 Y4.609
G1 X5.722 Y4.692
G1 X5.720 Y4.786
G1 X5.727 Y4.890
G1 X5.742 Y5.003
G1 X5.762 Y5.123
G1 X5.783 Y5.246
G1 X5.804 Y5.372
G1 X5.820 Y5.496
G1 X5.830 Y5.616
G1 X5.830 Y5.730
G1 X5.819 Y5.834
G1 X5.795 Y5.928
G1 X5.757 Y6.008
G1 X5.705 Y6.074
G1 X5.639 Y6.125
G1 X5.559 Y6.161
G1 X5.466 Y6.182
G1 X5.363 Y6.188
G1 X5.251 Y6.183
G1 X5.133 Y6.168
G1 X5.010 Y6.145
G1 X4.887 Y6.117
G1 X4.764 Y6.087
G1 X4.645 Y6.059
G1 X4.532 Y6.035
G1 X4.426 Y6.019
G1 X4.330 Y6.014
G1 X4.244 Y6.020
G1 X4.169 Y6.041
G1 X4.105 Y6.077
G1 X4.051 Y6.129
G1 X4.008 Y6.197
G1 X3.973 Y6.280
G1 X3.945 Y6.377
G1 X3.923 Y6.485
G1 X3.904 Y6.602
G1 X3.887 Y6.725
G1 X3.868 Y6.850
G1 X3.847 Y6.975
G1 X3.821 Y7.095
G1 X3.789 Y7.207
G1 X3.750 Y7.309
G1 X3.702 Y7.397
G1 X3.645 Y7.468
G1 X3.579 Y7.523
G1 X3.504 Y7.558
G1 X3.420 Y7.575
G1 X3.328 Y7.574
G1 X3.230 Y7.555
G1 X3.127 Y7.521
G1 X3.021 Y7.474
G1 X2.912 Y7.418
G1 X2.802 Y7.355
G1 X2.694 Y7.289
G1 X2.588 Y7.224
G1 X2.486 Y7.163
G1 X2.389 Y7.111
G1 X2.296 Y7.070
G1 X2.210 Y7.043
G1 X2.130 Y7.033
G1 X2.055 Y7.040
G1 X1.986 Y7.065
G1 X1.922 Y7.109
G1 X1.862 Y7.171
G1 X1.805 Y7.248
G1 X1.750 Y7.339
G1 X1.696 Y7.441
G1 X1.641 Y7.550
G1 X1.586 Y7.663
G1 X1.528 Y7.776
G1 X1.468 Y7.885
G1 X1.404 Y7.986
G1 X1.337 Y8.076
G1 X1.266 Y8.152
G1 X1.191 Y8.210
G1 X1.113 Y8.250
G1 X1.031 Y8.269
G1 X0.947 Y8.268
G1 X0.861 Y8.246
G1 X0.774 Y8.206
G1 X0.687 Y8.148
G1 X0.599 Y8.076
G1 X0.513 Y7.992
G1 X0.427 Y7.900
G1 X0.344 Y7.805
G1 X0.263 Y7.709
G1 X0.183 Y7.617
G1 X0.106 Y7.533
G1 X0.030 Y7.460
G1 X-0.044 Y7.401
G1 X-0.117 Y7.359
G1 X-0.190 Y7.335
G1 X-0.264 Y7.330
G1 X-0.338 Y7.344
G1 X-0.413 Y7.376
G1 X-0.490 Y7.426
G1 X-0.570 Y7.490
G1 X-0.652 Y7.566
G1 X-0.736 Y7.651
G1 X-0.823 Y7.740
G1 X-0.912 Y7.831
G1 X-1.003 Y7.918
G1 X-1.094 Y7.999
G1 X-1.186 Y8.069
G1 X-1.277 Y8.125
G1 X-1.368 Y8.165
G1 X-1.455 Y8.187
G1 X-1.540 Y8.188
G1 X-1.622 Y8.170
G1 X-1.699 Y8.131
G1 X-1.771 Y8.073
G1 X-1.838 Y7.997
G1 X-1.901 Y7.907
G1 X-1.959 Y7.805
G1 X-2.013 Y7.694
G1 X-2.064 Y7.578
G1 X-2.113 Y7.461
G1 X-2.160 Y7.347
G1 X-2.207 Y7.239
G1 X-2.256 Y7.141
G1 X-2.307 Y7.057
G1 X-2.362 Y6.987
G1 X-2.421 Y6.934
G1 X-2.487 Y6.899
G1 X-2.559 Y6.882
G1 X-2.637 Y6.883
G1 X-2.723 Y6.899
G1 X-2.816 Y6.931
G1 X-2.915 Y6.974
G1 X-3.020 Y7.025
G1 X-3.128 Y7.082
G1 X-3.240 Y7.141
G1 X-3.353 Y7.199
G1 X-3.466 Y7.250
G1 X-3.577 Y7.293
G1 X-3.683 Y7.324
G1 X-3.784 Y7.341
G1 X-3.878 Y7.341
G1 X-3.963 Y7.324
G1 X-4.038 Y7.289
G1 X-4.104 Y7.235
G1 X-4.159 Y7.165
G1 X-4.204 Y7.078
G1 X-4.239 Y6.978
G1 X-4.266 Y6.866
G1 X-4.286 Y6.746
G1 X-4.300 Y6.621
G1 X-4.311 Y6.495
G1 X-4.320 Y6.370
G1 X-4.331 Y6.250
G1 X-4.345 Y6.138
G1 X-4.364 Y6.037
G1 X-4.391 Y5.948
G1 X-4.427 Y5.873
G1 X-4.474 Y5.813
G1 X-4.532 Y5.769
G1 X-4.602 Y5.739
G1 X-4.685 Y5.723
G1 X-4.778 Y5.719
G1 X-4.882 Y5.726
G1 X-4.994 Y5.741
G1 X-5.113 Y5.760
G1 X-5.236 Y5.782
G1 X-5.362 Y5.802
G1 X-5.486 Y5.819
G1 X-5.607 Y5.829
G1 X-5.721 Y5.830
G1 X-5.827 Y5.820
G1 X-5.921 Y5.797
G1 X-6.002 Y5.761
G1 X-6.070 Y5.710
G1 X-6.122 Y5.644
G1 X-6.158 Y5.565
G1 X-6.180 Y5.474
G1 X-6.188 Y5.372
G1 X-6.184 Y5.260
G1 X-6.169 Y5.142
G1 X-6.147 Y5.020
G1 X-6.119 Y4.896
G1 X-6.089 Y4.774
G1 X-6.061 Y4.654
G1 X-6.037 Y4.541
G1 X-6.020 Y4.434
G1 X-6.014 Y4.337
G1 X-6.019 Y4.250
G1 X-6.039 Y4.175
G1 X-6.074 Y4.110
G1 X-6.125 Y4.055
G1 X-6.191 Y4.011
G1 X-6.273 Y3.976
G1 X-6.369 Y3.947
G1 X-6.476 Y3.925
G1 X-6.592 Y3.906
G1 X-6.715 Y3.888
G1 X-6.840 Y3.870
G1 X-6.965 Y3.849
G1 X-7.086 Y3.824
G1 X-7.199 Y3.792
G1 X-7.301 Y3.753
G1 X-7.390 Y3.706
G1 X-7.463 Y3.650
G1 X-7.519 Y3.585
G1 X-7.556 Y3.510
G1 X-7.575 Y3.427
G1 X-7.575 Y3.336
G1 X-7.557 Y3.238
G1 X-7.524 Y3.136
G1 X-7.479 Y3.029
G1 X-7.423 Y2.920
G1 X-7.360 Y2.811
G1 X-7.294 Y2.703
G1 X-7.229 Y2.597
G1 X-7.168 Y2.494
G1 X-7.115 Y2.396
G1 X-7.073 Y2.304
G1 X-7.045 Y2.217
G1 X-7.033 Y2.136
G1 X-7.039 Y2.061
G1 X-7.063 Y1.992
G1 X-7.105 Y1.927
G1 X-7.165 Y1.867
G1 X-7.241 Y1.809
G1 X-7.331 Y1.754
G1 X-7.432 Y1.700
G1 X-7.541 Y1.646
G1 X-7.654 Y1.590
G1 X-7.767 Y1.533
G1 X-7.877 Y1.473
G1 X-7.979 Y1.410
G1 X-8.070 Y1.343
G1 X-8.147 Y1.272
G1 X-8.206 Y1.197
G1 X-8.248 Y1.119
G1 X-8.268 Y1.038
G1 X-8.269 Y0.954
G1 X-8.249 Y0.868
G1 X-8.210 Y0.781
G1 X-8.153 Y0.693
G1 X-8.082 Y0.606
G1 X-7.999 Y0.519
G1 X-7.908 Y0.434
G1 X-7.812 Y0.351
G1 X-7.716 Y0.269
G1 X-7.624 Y0.190
G1 X-7.539 Y0.112
G1 X-7.465 Y0.036
G1 X-7.405 Y-0.038
G1 X-7.362 Y-0.112
G1 X-7.336 Y-0.185
G1 X-7.330 Y-0.258
G1 X-7.342 Y-0.332
G1 X-7.373 Y-0.407
G1 X-7.421 Y-0.484
G1 X-7.484 Y-0.563
G1 X-7.560 Y-0.645
G1 X-7.644 Y-0.729
G1 X-7.733 Y-0.816
G1 X-7.824 Y-0.905
G1 X-7.911 Y-0.995
G1 X-7.993 Y-1.087
G1 X-8.064 Y-1.179
G1 X-8.122 Y-1.270
G1 X-8.163 Y-1.360
G1 X-8.186 Y-1.449
G1 X-8.189 Y-1.534
G1 X-8.172 Y-1.615
G1 X-8.135 Y-1.693
G1 X-8.078 Y-1.765
G1 X-8.004 Y-1.833
G1 X-7.915 Y-1.896
G1 X-7.813 Y-1.955
G1 X-7.703 Y-2.009
G1 X-7.587 Y-2.060
G1 X-7.470 Y-2.109
G1 X-7.356 Y-2.156
G1 X-7.247 Y-2.203
G1 X-7.149 Y-2.252
G1 X-7.063 Y-2.303
G1 X-6.992 Y-2.357
G1 X-6.937 Y-2.416
G1 X-6.901 Y-2.481
G1 X-6.883 Y-2.553
G1 X-6.882 Y-2.631
G1 X-6.898 Y-2.716
G1 X-6.928 Y-2.808
G1 X-6.970 Y-2.907
G1 X-7.021 Y-3.011
G1 X-7.078 Y-3.120
G1 X-7.137 Y-3.231
G1 X-7.194 Y-3.344
G1 X-7.246 Y-3.457
G1 X-7.290 Y-3.568
G1 X-7.322 Y-3.675
G1 X-7.340 Y-3.776
G1 X-7.342 Y-3.870
G1 X-7.326 Y-3.956
G1 X-7.292 Y-4.033
G1 X-7.240 Y-4.099
G1 X-7.171 Y-4.155
G1 X-7.085 Y-4.201
G1 X-6.986 Y-4.237
G1 X-6.875 Y-4.264
G1 X-6.756 Y-4.284
G1 X-6.632 Y-4.299
G1 X-6.505 Y-4.310
G1 X-6.380 Y-4.320
G1 X-6.260 Y-4.330
G1 X-6.147 Y-4.344
G1 X-6.045 Y-4.362
G1 X-5.955 Y-4.389
G1 X-5.879 Y-4.424
G1 X-5.817 Y-4.470
G1 X-5.772 Y-4.527
G1 X-5.741 Y-4.596
G1 X-5.724 Y-4.678
G1 X-5.719 Y-4.770
G1 X-5.725 Y-4.873
G1 X-5.739 Y-4.985
G1 X-5.759 Y-5.103
G1 X-5.780 Y-5.226
G1 X-5.801 Y-5.352
G1 X-5.818 Y-5.476
G1 X-5.829 Y-5.597
G1 X-5.831 Y-5.712
G1 X-5.821 Y-5.819
G1 X-5.800 Y-5.914
G1 X-5.764 Y-5.996
G1 X-5.714 Y-6.065
G1 X-5.650 Y-6.118
G1 X-5.572 Y-6.156
G1 X-5.482 Y-6.179
G1 X-5.380 Y-6.188
G1 X-5.269 Y-6.185
G1 X-5.152 Y-6.171
G1 X-5.030 Y-6.149
G1 X-4.906 Y-6.121
G1 X-4.783 Y-6.092
G1 X-4.664 Y-6.063
G1 X-4.549 Y-6.039
G1 X-4.443 Y-6.021
G1 X-4.345 Y-6.014
G1 X-4.257 Y-6.018
G1 X-4.180 Y-6.037
G1 X-4.114 Y-6.070
G1 X-4.059 Y-6.120
G1 X-4.014 Y-6.186
G1 X-3.978 Y-6.266
G1 X-3.949 Y-6.361
G1 X-3.926 Y-6.467
G1 X-3.907 Y-6.583
G1 X-3.889 Y-6.705
G1 X-3.871 Y-6.830
G1 X-3.851 Y-6.955
G1 X-3.826 Y-7.076
G1 X-3.795 Y-7.190
G1 X-3.757 Y-7.293
G1 X-3.710 Y-7.384
G1 X-3.655 Y-7.458
G1 X-3.590 Y-7.515
G1 X-3.516 Y-7.554
G1 X-3.434 Y-7.574
G1 X-3.343 Y-7.575
G1 X-3.246 Y-7.559
G1 X-3.144 Y-7.528
G1 X-3.038 Y-7.483
G1 X-2.929 Y-7.427
G1 X-2.820 Y-7.365
G1 X-2.711 Y-7.299
G1 X-2.605 Y-7.234
G1 X-2.502 Y-7.172
G1 X-2.404 Y-7.119
G1 X-2.311 Y-7.076
G1 X-2.223 Y-7.047
G1 X-2.142 Y-7.033
G1 X-2.067 Y-7.038
G1 X-1.997 Y-7.060
G1 X-1.932 Y-7.101
G1 X-1.871 Y-7.160
G1 X-1.814 Y-7.234
G1 X-1.758 Y-7.323
G1 X-1.704 Y-7.424
G1 X-1.650 Y-7.532
G1 X-1.595 Y-7.645
G1 X-1.538 Y-7.758
G1 X-1.478 Y-7.868
G1 X-1.415 Y-7.971
G1 X-1.348 Y-8.063
G1 X-1.277 Y-8.141
G1 X-1.203 Y-8.202
G1 X-1.125 Y-8.245
G1 X-1.044 Y-8.268
G1 X-0.961 Y-8.270
G1 X-0.875 Y-8.251
G1 X-0.788 Y-8.213
G1 X-0.700 Y-8.158
G1 X-0.613 Y-8.088
G1 X-0.526 Y-8.006
G1 X-0.441 Y-7.915
G1 X-0.357 Y-7.820
G1 X-0.275 Y-7.724
G1 X-0.196 Y-7.631
G1 X-0.118 Y-7.546
G1 X-0.042 Y-7.471
G1 X0.032 Y-7.410
G1 X0.106 Y-7.365
G1 X0.179 Y-7.338
G1 X0.252 Y-7.329
G1 X0.326 Y-7.340
G1 X0.401 Y-7.370
G1 X0.478 Y-7.417
G1 X0.557 Y-7.479
G1 X0.639 Y-7.553
G1 X0.723 Y-7.637
G1 X0.809 Y-7.726
G1 X0.898 Y-7.816
G1 X0.988 Y-7.905
G1 X1.080 Y-7.987
G1 X1.171 Y-8.059
G1 X1.263 Y-8.117
G1 X1.353 Y-8.160
G1 X1.442 Y-8.185
G1 X1.527 Y-8.190
G1 X1.609 Y-8.174
G1 X1.687 Y-8.138
G1 X1.760 Y-8.083
G1 X1.828 Y-8.010
G1 X1.891 Y-7.922
G1 X1.950 Y-7.821
G1 X2.005 Y-7.712
G1 X2.056 Y-7.596
G1 X2.105 Y-7.479
