%
(guilloche)
(T801  D=0.125 CR=0 - ZMIN=-0.129 - vee)
G90
G17
G21
G28 G91 Z10
G90

(scribe)
G54
G0 X0.889 Y-18.782
Z10
Z2
G1 Z-0.125 F80
G1 X0.609 Y-18.308 F200
G1 X0.346 Y-17.825
G1 X0.098 Y-17.333
G1 X-0.133 Y-16.834
G1 X-0.348 Y-16.327
G1 X-0.546 Y-15.813
G1 X-0.727 Y-15.293
G1 X-0.890 Y-14.767
G1 X-1.036 Y-14.236
G1 X-1.165 Y-13.701
G1 X-1.275 Y-13.161
G1 X-1.368 Y-12.618
G1 X-1.443 Y-12.073
G1 X-1.500 Y-11.525
G1 X-1.539 Y-10.976
G1 X-1.559 Y-10.425
G1 X-1.561 Y-9.874
G1 X-1.546 Y-9.324
G1 X-1.512 Y-8.774
G1 X-1.459 Y-8.226
G1 X-1.389 Y-7.680
G1 X-1.301 Y-7.136
G1 X-1.195 Y-6.596
G1 X-1.071 Y-6.059
G1 X-0.930 Y-5.527
G1 X-0.771 Y-5.000
G1 X-0.594 Y-4.478
G1 X-0.401 Y-3.963
G1 X-0.191 Y-3.454
G1 X0.036 Y-2.953
G1 X0.280 Y-2.459
G1 X0.539 Y-1.974
G1 X0.815 Y-1.497
G1 X1.106 Y-1.030
G1 X1.412 Y-0.573
G1 X1.733 Y-0.126
G1 X2.069 Y0.310
G1 X2.419 Y0.734
G1 X2.782 Y1.146
G1 X3.160 Y1.547
G1 X3.550 Y1.934
G1 X3.952 Y2.309
G1 X4.367 Y2.669
G1 X4.793 Y3.016
G1 X5.231 Y3.349
G1 X5.679 Y3.666
G1 X6.137 Y3.969
G1 X6.606 Y4.257
G1 X7.083 Y4.528
G1 X7.569 Y4.784
G1 X8.063 Y5.023
G1 X8.564 Y5.246
G1 X9.073 Y5.452
G1 X9.588 Y5.641
G1 X10.109 Y5.813
G1 X10.636 Y5.967
G1 X11.167 Y6.104
G1 X11.702 Y6.224
G1 X12.241 Y6.325
G1 X12.782 Y6.408
G1 X13.327 Y6.474
G1 X13.872 Y6.521
G1 X14.420 Y6.550
G1 X14.967 Y6.561
G1 X15.515 Y6.554
G1 X16.062 Y6.529
G1 X16.607 Y6.485
G1 X17.151 Y6.423
G1 X17.693 Y6.344
G0 Z10
G0 X1.241 Y-18.798
Z10
Z2
G1 Z-0.125 F80
G1 X1.241 Y-18.798 F200
G1 X0.942 Y-18.335
G1 X0.659 Y-17.864
G1 X0.391 Y-17.383
G1 X0.139 Y-16.893
G1 X-0.096 Y-16.396
G1 X-0.315 Y-15.891
G1 X-0.518 Y-15.378
G1 X-0.703 Y-14.860
G1 X-0.871 Y-14.335
G1 X-1.021 Y-13.806
G1 X-1.154 Y-13.271
G1 X-1.270 Y-12.733
G1 X-1.367 Y-12.191
G1 X-1.447 Y-11.646
G1 X-1.508 Y-11.098
G1 X-1.552 Y-10.549
G1 X-1.577 Y-9.999
G1 X-1.584 Y-9.449
G1 X-1.573 Y-8.898
G1 X-1.544 Y-8.348
G1 X-1.496 Y-7.799
G1 X-1.431 Y-7.252
G1 X-1.347 Y-6.708
G1 X-1.246 Y-6.167
G1 X-1.126 Y-5.629
G1 X-0.989 Y-5.096
G1 X-0.835 Y-4.567
G1 X-0.663 Y-4.044
G1 X-0.474 Y-3.527
G1 X-0.268 Y-3.017
G1 X-0.045 Y-2.514
G1 X0.194 Y-2.018
G1 X0.449 Y-1.530
G1 X0.721 Y-1.052
G1 X1.008 Y-0.582
G1 X1.310 Y-0.122
G1 X1.627 Y0.327
G1 X1.959 Y0.765
G1 X2.305 Y1.193
G1 X2.665 Y1.608
G1 X3.039 Y2.012
G1 X3.426 Y2.403
G1 X3.825 Y2.780
G1 X4.237 Y3.145
G1 X4.660 Y3.495
G1 X5.095 Y3.831
G1 X5.540 Y4.153
G1 X5.996 Y4.459
G1 X6.461 Y4.750
G1 X6.936 Y5.026
G1 X7.420 Y5.286
G1 X7.912 Y5.529
G1 X8.412 Y5.756
G1 X8.919 Y5.966
G1 X9.432 Y6.160
G1 X9.951 Y6.336
G1 X10.476 Y6.495
G1 X11.006 Y6.636
G1 X11.540 Y6.760
G1 X12.078 Y6.866
G1 X12.619 Y6.954
G1 X13.163 Y7.024
G1 X13.708 Y7.076
G1 X14.255 Y7.109
G1 X14.802 Y7.125
G1 X15.350 Y7.122
G1 X15.897 Y7.102
G1 X16.443 Y7.063
G1 X16.987 Y7.006
G1 X17.529 Y6.930
G0 Z10
G0 X1.596 Y-18.798
Z10
Z2
G1 Z-0.125 F80
G1 X1.596 Y-18.798 F200
G1 X1.278 Y-18.349
G1 X0.976 Y-17.889
G1 X0.688 Y-17.420
G1 X0.416 Y-16.941
G1 X0.160 Y-16.454
G1 X-0.080 Y-15.958
G1 X-0.303 Y-15.455
G1 X-0.510 Y-14.944
G1 X-0.699 Y-14.427
G1 X-0.872 Y-13.904
G1 X-1.027 Y-13.376
G1 X-1.165 Y-12.843
G1 X-1.284 Y-12.305
G1 X-1.387 Y-11.764
G1 X-1.471 Y-11.220
G1 X-1.537 Y-10.673
G1 X-1.585 Y-10.124
G1 X-1.615 Y-9.574
G1 X-1.627 Y-9.024
G1 X-1.620 Y-8.473
G1 X-1.596 Y-7.923
G1 X-1.553 Y-7.374
G1 X-1.492 Y-6.827
G1 X-1.413 Y-6.282
G1 X-1.316 Y-5.739
G1 X-1.202 Y-5.201
G1 X-1.069 Y-4.666
G1 X-0.919 Y-4.137
G1 X-0.752 Y-3.612
G1 X-0.567 Y-3.094
G1 X-0.366 Y-2.581
G1 X-0.147 Y-2.076
G1 X0.088 Y-1.579
G1 X0.339 Y-1.089
G1 X0.606 Y-0.608
G1 X0.889 Y-0.136
G1 X1.187 Y0.326
G1 X1.501 Y0.778
G1 X1.829 Y1.219
G1 X2.171 Y1.650
G1 X2.528 Y2.068
G1 X2.898 Y2.475
G1 X3.281 Y2.869
G1 X3.677 Y3.250
G1 X4.086 Y3.617
G1 X4.506 Y3.971
G1 X4.938 Y4.311
G1 X5.381 Y4.636
G1 X5.834 Y4.947
G1 X6.297 Y5.242
G1 X6.769 Y5.521
G1 X7.251 Y5.785
G1 X7.740 Y6.033
G1 X8.238 Y6.264
G1 X8.743 Y6.478
G1 X9.255 Y6.676
G1 X9.773 Y6.857
G1 X10.296 Y7.020
G1 X10.825 Y7.166
G1 X11.358 Y7.294
G1 X11.895 Y7.404
G1 X12.435 Y7.497
G1 X12.977 Y7.571
G1 X13.522 Y7.628
G1 X14.069 Y7.666
G1 X14.616 Y7.686
G1 X15.163 Y7.688
G1 X15.710 Y7.672
G1 X16.257 Y7.638
G1 X16.801 Y7.585
G1 X17.344 Y7.514
G0 Z10
G0 X1.953 Y-18.783
Z10
Z2
G1 Z-0.125 F80
G1 X1.953 Y-18.783 F200
G1 X1.617 Y-18.348
G1 X1.295 Y-17.901
G1 X0.989 Y-17.444
G1 X0.697 Y-16.977
G1 X0.421 Y-16.501
G1 X0.161 Y-16.016
G1 X-0.083 Y-15.522
G1 X-0.311 Y-15.021
G1 X-0.522 Y-14.512
G1 X-0.716 Y-13.997
G1 X-0.893 Y-13.475
G1 X-1.053 Y-12.948
G1 X-1.195 Y-12.416
G1 X-1.319 Y-11.880
G1 X-1.426 Y-11.339
G1 X-1.515 Y-10.796
G1 X-1.586 Y-10.249
G1 X-1.638 Y-9.701
G1 X-1.673 Y-9.152
G1 X-1.689 Y-8.601
G1 X-1.688 Y-8.050
G1 X-1.668 Y-7.500
G1 X-1.630 Y-6.951
G1 X-1.574 Y-6.403
G1 X-1.499 Y-5.857
G1 X-1.407 Y-5.314
G1 X-1.297 Y-4.775
G1 X-1.169 Y-4.239
G1 X-1.024 Y-3.708
G1 X-0.861 Y-3.182
G1 X-0.681 Y-2.662
G1 X-0.484 Y-2.148
G1 X-0.270 Y-1.641
G1 X-0.039 Y-1.142
G1 X0.208 Y-0.650
G1 X0.471 Y-0.167
G1 X0.750 Y0.307
G1 X1.044 Y0.772
G1 X1.354 Y1.226
G1 X1.678 Y1.671
G1 X2.017 Y2.104
G1 X2.370 Y2.525
G1 X2.737 Y2.935
G1 X3.117 Y3.332
G1 X3.509 Y3.716
G1 X3.915 Y4.087
G1 X4.332 Y4.445
G1 X4.761 Y4.788
G1 X5.200 Y5.117
G1 X5.651 Y5.431
G1 X6.111 Y5.730
G1 X6.581 Y6.014
G1 X7.061 Y6.281
G1 X7.548 Y6.533
G1 X8.044 Y6.768
G1 X8.547 Y6.987
G1 X9.057 Y7.189
G1 X9.573 Y7.374
G1 X10.095 Y7.542
G1 X10.622 Y7.692
G1 X11.154 Y7.824
G1 X11.690 Y7.939
G1 X12.229 Y8.036
G1 X12.771 Y8.115
G1 X13.315 Y8.176
G1 X13.861 Y8.219
G1 X14.408 Y8.244
G1 X14.956 Y8.251
G1 X15.503 Y8.239
G1 X16.049 Y8.209
G1 X16.594 Y8.161
G1 X17.137 Y8.095
G0 Z10
G0 X2.312 Y-18.753
Z10
Z2
G1 Z-0.125 F80
G1 X2.312 Y-18.753 F200
G1 X1.958 Y-18.332
G1 X1.618 Y-17.899
G1 X1.292 Y-17.456
G1 X0.981 Y-17.001
G1 X0.686 Y-16.537
G1 X0.406 Y-16.063
G1 X0.141 Y-15.580
G1 X-0.107 Y-15.088
G1 X-0.339 Y-14.589
G1 X-0.554 Y-14.082
G1 X-0.753 Y-13.568
G1 X-0.934 Y-13.048
G1 X-1.098 Y-12.523
G1 X-1.245 Y-11.992
G1 X-1.374 Y-11.456
G1 X-1.485 Y-10.917
G1 X-1.579 Y-10.374
G1 X-1.654 Y-9.829
G1 X-1.712 Y-9.281
G1 X-1.751 Y-8.731
G1 X-1.772 Y-8.181
G1 X-1.775 Y-7.630
G1 X-1.760 Y-7.080
G1 X-1.727 Y-6.530
G1 X-1.675 Y-5.982
G1 X-1.606 Y-5.436
G1 X-1.518 Y-4.892
G1 X-1.413 Y-4.352
G1 X-1.289 Y-3.815
G1 X-1.148 Y-3.283
G1 X-0.990 Y-2.756
G1 X-0.814 Y-2.234
G1 X-0.622 Y-1.719
G1 X-0.412 Y-1.210
G1 X-0.186 Y-0.709
G1 X0.057 Y-0.215
G1 X0.316 Y0.271
G1 X0.591 Y0.747
G1 X0.881 Y1.214
G1 X1.187 Y1.671
G1 X1.508 Y2.118
G1 X1.843 Y2.554
G1 X2.192 Y2.978
G1 X2.555 Y3.391
G1 X2.932 Y3.791
G1 X3.321 Y4.179
G1 X3.723 Y4.553
G1 X4.137 Y4.914
G1 X4.563 Y5.261
G1 X5.000 Y5.594
G1 X5.448 Y5.912
G1 X5.905 Y6.214
G1 X6.373 Y6.502
G1 X6.850 Y6.774
G1 X7.335 Y7.029
G1 X7.829 Y7.269
G1 X8.330 Y7.492
G1 X8.838 Y7.698
G1 X9.353 Y7.887
G1 X9.873 Y8.059
G1 X10.399 Y8.214
G1 X10.930 Y8.351
G1 X11.464 Y8.470
G1 X12.003 Y8.572
G1 X12.544 Y8.655
G1 X13.087 Y8.721
G1 X13.633 Y8.768
G1 X14.180 Y8.798
G1 X14.727 Y8.809
G1 X15.274 Y8.802
G1 X15.820 Y8.776
G1 X16.366 Y8.733
G0 Z10
G0 X2.671 Y-18.708
Z10
Z2
G1 Z-0.125 F80
G1 X2.671 Y-18.708 F200
G1 X2.299 Y-18.302
G1 X1.942 Y-17.884
G1 X1.598 Y-17.454
G1 X1.269 Y-17.013
G1 X0.954 Y-16.561
G1 X0.654 Y-16.099
G1 X0.370 Y-15.628
G1 X0.102 Y-15.147
G1 X-0.151 Y-14.658
G1 X-0.387 Y-14.160
G1 X-0.606 Y-13.655
G1 X-0.809 Y-13.143
G1 X-0.995 Y-12.625
G1 X-1.164 Y-12.100
G1 X-1.315 Y-11.571
G1 X-1.449 Y-11.036
G1 X-1.565 Y-10.498
G1 X-1.663 Y-9.956
G1 X-1.743 Y-9.411
G1 X-1.805 Y-8.864
G1 X-1.849 Y-8.315
G1 X-1.875 Y-7.765
G1 X-1.883 Y-7.214
G1 X-1.872 Y-6.664
G1 X-1.843 Y-6.114
G1 X-1.797 Y-5.565
G1 X-1.732 Y-5.018
G1 X-1.649 Y-4.474
G1 X-1.548 Y-3.933
G1 X-1.429 Y-3.395
G1 X-1.293 Y-2.862
G1 X-1.139 Y-2.333
G1 X-0.968 Y-1.810
G1 X-0.780 Y-1.293
G1 X-0.574 Y-0.783
G1 X-0.352 Y-0.279
G1 X-0.114 Y0.216
G1 X0.141 Y0.704
G1 X0.412 Y1.183
G1 X0.698 Y1.652
G1 X1.000 Y2.112
G1 X1.317 Y2.561
G1 X1.648 Y3.000
G1 X1.994 Y3.427
G1 X2.353 Y3.843
G1 X2.726 Y4.246
G1 X3.112 Y4.637
G1 X3.511 Y5.015
G1 X3.922 Y5.379
G1 X4.345 Y5.730
G1 X4.779 Y6.066
G1 X5.224 Y6.388
G1 X5.679 Y6.694
G1 X6.144 Y6.985
G1 X6.619 Y7.261
G1 X7.102 Y7.521
G1 X7.593 Y7.765
G1 X8.092 Y7.992
G1 X8.599 Y8.202
G1 X9.112 Y8.396
G1 X9.631 Y8.572
G1 X10.155 Y8.731
G1 X10.684 Y8.872
G1 X11.218 Y8.996
G1 X11.755 Y9.102
G1 X12.296 Y9.190
G1 X12.839 Y9.260
G1 X13.384 Y9.312
G1 X13.930 Y9.346
G1 X14.477 Y9.362
G1 X15.024 Y9.359
G1 X15.571 Y9.339
G1 X16.116 Y9.300
G0 Z10
G0 X3.030 Y-18.648
Z10
Z2
G1 Z-0.125 F80
G1 X3.030 Y-18.648 F200
G1 X2.642 Y-18.258
G1 X2.267 Y-17.854
G1 X1.906 Y-17.439
G1 X1.558 Y-17.012
G1 X1.225 Y-16.574
G1 X0.907 Y-16.125
G1 X0.603 Y-15.665
G1 X0.315 Y-15.196
G1 X0.042 Y-14.718
G1 X-0.214 Y-14.231
G1 X-0.455 Y-13.735
G1 X-0.679 Y-13.232
G1 X-0.886 Y-12.722
G1 X-1.076 Y-12.205
G1 X-1.249 Y-11.682
G1 X-1.405 Y-11.154
G1 X-1.543 Y-10.621
G1 X-1.664 Y-10.083
G1 X-1.766 Y-9.542
G1 X-1.851 Y-8.998
G1 X-1.918 Y-8.451
G1 X-1.967 Y-7.903
G1 X-1.997 Y-7.353
G1 X-2.010 Y-6.802
G1 X-2.004 Y-6.252
G1 X-1.980 Y-5.702
G1 X-1.938 Y-5.153
G1 X-1.878 Y-4.605
G1 X-1.799 Y-4.060
G1 X-1.703 Y-3.518
G1 X-1.589 Y-2.980
G1 X-1.457 Y-2.445
G1 X-1.308 Y-1.916
G1 X-1.141 Y-1.391
G1 X-0.957 Y-0.873
G1 X-0.756 Y-0.360
G1 X-0.539 Y0.145
G1 X-0.304 Y0.642
G1 X-0.054 Y1.132
G1 X0.213 Y1.613
G1 X0.495 Y2.085
G1 X0.793 Y2.547
G1 X1.106 Y2.999
G1 X1.434 Y3.440
G1 X1.776 Y3.871
G1 X2.131 Y4.289
G1 X2.501 Y4.696
G1 X2.884 Y5.090
G1 X3.279 Y5.471
G1 X3.687 Y5.839
G1 X4.107 Y6.193
G1 X4.538 Y6.533
G1 X4.980 Y6.858
G1 X5.433 Y7.168
G1 X5.895 Y7.464
G1 X6.367 Y7.743
G1 X6.848 Y8.007
G1 X7.337 Y8.255
G1 X7.834 Y8.486
G1 X8.339 Y8.701
G1 X8.850 Y8.898
G1 X9.367 Y9.079
G1 X9.890 Y9.242
G1 X10.418 Y9.388
G1 X10.951 Y9.517
G1 X11.487 Y9.627
G1 X12.027 Y9.720
G1 X12.569 Y9.794
G1 X13.114 Y9.851
G1 X13.659 Y9.889
G1 X14.206 Y9.909
G1 X14.753 Y9.912
G1 X15.300 Y9.895
G1 X15.846 Y9.861
G0 Z10
G0 X3.388 Y-18.572
Z10
Z2
G1 Z-0.125 F80
G1 X3.388 Y-18.572 F200
G1 X2.984 Y-18.198
G1 X2.593 Y-17.811
G1 X2.215 Y-17.411
G1 X1.850 Y-16.999
G1 X1.499 Y-16.575
G1 X1.162 Y-16.139
G1 X0.840 Y-15.693
G1 X0.532 Y-15.236
G1 X0.240 Y-14.770
G1 X-0.037 Y-14.293
G1 X-0.297 Y-13.808
G1 X-0.542 Y-13.315
G1 X-0.770 Y-12.814
G1 X-0.982 Y-12.305
G1 X-1.177 Y-11.790
G1 X-1.354 Y-11.269
G1 X-1.514 Y-10.742
G1 X-1.657 Y-10.210
G1 X-1.782 Y-9.673
G1 X-1.890 Y-9.133
G1 X-1.979 Y-8.590
G1 X-2.050 Y-8.044
G1 X-2.104 Y-7.496
G1 X-2.139 Y-6.946
G1 X-2.156 Y-6.396
G1 X-2.155 Y-5.845
G1 X-2.136 Y-5.295
G1 X-2.098 Y-4.745
G1 X-2.043 Y-4.198
G1 X-1.969 Y-3.652
G1 X-1.878 Y-3.109
G1 X-1.768 Y-2.570
G1 X-1.641 Y-2.034
G1 X-1.496 Y-1.504
G1 X-1.334 Y-0.978
G1 X-1.155 Y-0.458
G1 X-0.958 Y0.056
G1 X-0.745 Y0.563
G1 X-0.514 Y1.063
G1 X-0.268 Y1.554
G1 X-0.006 Y2.038
G1 X0.273 Y2.512
G1 X0.567 Y2.976
G1 X0.875 Y3.431
G1 X1.199 Y3.875
G1 X1.537 Y4.308
G1 X1.890 Y4.730
G1 X2.256 Y5.139
G1 X2.635 Y5.537
G1 X3.027 Y5.921
G1 X3.432 Y6.292
G1 X3.849 Y6.650
G1 X4.277 Y6.993
G1 X4.716 Y7.322
G1 X5.166 Y7.636
G1 X5.626 Y7.935
G1 X6.096 Y8.219
G1 X6.574 Y8.487
G1 X7.061 Y8.738
G1 X7.556 Y8.974
G1 X8.059 Y9.193
G1 X8.568 Y9.395
G1 X9.084 Y9.580
G1 X9.606 Y9.747
G1 X10.132 Y9.898
G1 X10.664 Y10.030
G1 X11.199 Y10.145
G1 X11.738 Y10.242
G1 X12.279 Y10.322
G1 X12.823 Y10.383
G1 X13.368 Y10.426
G1 X13.915 Y10.450
G1 X14.462 Y10.457
G1 X15.009 Y10.445
G1 X15.554 Y10.416
G0 Z10
G0 X3.745 Y-18.481
Z10
Z2
G1 Z-0.125 F80
G1 X3.745 Y-18.481 F200
G1 X3.326 Y-18.124
G1 X2.919 Y-17.753
G1 X2.525 Y-17.369
G1 X2.143 Y-16.973
G1 X1.775 Y-16.564
G1 X1.420 Y-16.143
G1 X1.079 Y-15.710
G1 X0.753 Y-15.266
G1 X0.442 Y-14.812
G1 X0.146 Y-14.348
G1 X-0.135 Y-13.874
G1 X-0.400 Y-13.391
G1 X-0.649 Y-12.900
G1 X-0.881 Y-12.401
G1 X-1.097 Y-11.894
G1 X-1.296 Y-11.381
G1 X-1.478 Y-10.861
G1 X-1.643 Y-10.335
G1 X-1.790 Y-9.805
G1 X-1.920 Y-9.269
G1 X-2.032 Y-8.730
G1 X-2.126 Y-8.187
G1 X-2.202 Y-7.642
G1 X-2.260 Y-7.094
G1 X-2.300 Y-6.545
G1 X-2.322 Y-5.995
G1 X-2.326 Y-5.444
G1 X-2.311 Y-4.894
G1 X-2.278 Y-4.344
G1 X-2.228 Y-3.796
G1 X-2.159 Y-3.250
G1 X-2.072 Y-2.707
G1 X-1.967 Y-2.166
G1 X-1.844 Y-1.630
G1 X-1.704 Y-1.098
G1 X-1.546 Y-0.571
G1 X-1.371 Y-0.049
G1 X-1.179 Y0.466
G1 X-0.970 Y0.975
G1 X-0.744 Y1.477
G1 X-0.502 Y1.970
G1 X-0.244 Y2.456
G1 X0.031 Y2.932
G1 X0.320 Y3.399
G1 X0.625 Y3.856
G1 X0.945 Y4.303
G1 X1.280 Y4.739
G1 X1.629 Y5.163
G1 X1.991 Y5.576
G1 X2.367 Y5.976
G1 X2.756 Y6.364
G1 X3.157 Y6.739
G1 X3.571 Y7.099
G1 X3.996 Y7.446
G1 X4.433 Y7.779
G1 X4.880 Y8.097
G1 X5.337 Y8.400
G1 X5.804 Y8.687
G1 X6.280 Y8.959
G1 X6.765 Y9.215
G1 X7.258 Y9.454
G1 X7.759 Y9.677
G1 X8.266 Y9.884
G1 X8.781 Y10.073
G1 X9.301 Y10.245
G1 X9.826 Y10.400
G1 X10.356 Y10.537
G1 X10.890 Y10.656
G1 X11.428 Y10.758
G1 X11.969 Y10.841
G1 X12.512 Y10.907
G1 X13.057 Y10.955
G1 X13.603 Y10.984
G1 X14.150 Y10.995
G1 X14.697 Y10.988
G1 X15.243 Y10.963
G0 Z10
G0 X4.100 Y-18.374
Z10
Z2
G1 Z-0.125 F80
G1 X4.100 Y-18.374 F200
G1 X3.667 Y-18.035
G1 X3.245 Y-17.681
G1 X2.834 Y-17.314
G1 X2.437 Y-16.934
G1 X2.052 Y-16.540
G1 X1.680 Y-16.134
G1 X1.321 Y-15.716
G1 X0.977 Y-15.287
G1 X0.647 Y-14.846
G1 X0.332 Y-14.394
G1 X0.032 Y-13.933
G1 X-0.253 Y-13.461
G1 X-0.522 Y-12.981
G1 X-0.775 Y-12.492
G1 X-1.012 Y-11.994
G1 X-1.232 Y-11.489
G1 X-1.436 Y-10.978
G1 X-1.622 Y-10.459
G1 X-1.791 Y-9.935
G1 X-1.943 Y-9.406
G1 X-2.077 Y-8.872
G1 X-2.194 Y-8.333
G1 X-2.293 Y-7.792
G1 X-2.373 Y-7.247
G1 X-2.436 Y-6.700
G1 X-2.481 Y-6.151
G1 X-2.507 Y-5.601
G1 X-2.516 Y-5.051
G1 X-2.506 Y-4.500
G1 X-2.478 Y-3.950
G1 X-2.431 Y-3.402
G1 X-2.367 Y-2.855
G1 X-2.285 Y-2.311
G1 X-2.185 Y-1.770
G1 X-2.067 Y-1.232
G1 X-1.931 Y-0.699
G1 X-1.778 Y-0.171
G1 X-1.607 Y0.352
G1 X-1.419 Y0.869
G1 X-1.215 Y1.380
G1 X-0.993 Y1.883
G1 X-0.755 Y2.379
G1 X-0.501 Y2.866
G1 X-0.231 Y3.345
G1 X0.055 Y3.814
G1 X0.356 Y4.274
G1 X0.672 Y4.723
G1 X1.003 Y5.162
G1 X1.348 Y5.589
G1 X1.707 Y6.005
G1 X2.079 Y6.409
G1 X2.465 Y6.799
G1 X2.863 Y7.177
G1 X3.274 Y7.542
G1 X3.696 Y7.892
G1 X4.129 Y8.228
G1 X4.574 Y8.550
G1 X5.028 Y8.857
G1 X5.493 Y9.148
G1 X5.967 Y9.424
G1 X6.449 Y9.684
G1 X6.940 Y9.927
G1 X7.439 Y10.154
G1 X7.945 Y10.365
G1 X8.457 Y10.558
G1 X8.976 Y10.735
G1 X9.500 Y10.894
G1 X10.029 Y11.035
G1 X10.562 Y11.159
G1 X11.099 Y11.265
G1 X11.639 Y11.353
G1 X12.181 Y11.423
G1 X12.726 Y11.476
G1 X13.271 Y11.509
G1 X13.818 Y11.525
G1 X14.365 Y11.523
G1 X14.911 Y11.502
G0 Z10
G0 X4.452 Y-18.251
Z10
Z2
G1 Z-0.125 F80
G1 X4.452 Y-18.251 F200
G1 X4.005 Y-17.931
G1 X3.569 Y-17.595
G1 X3.144 Y-17.245
G1 X2.731 Y-16.882
G1 X2.330 Y-16.505
G1 X1.941 Y-16.114
G1 X1.566 Y-15.712
G1 X1.204 Y-15.297
G1 X0.856 Y-14.870
G1 X0.522 Y-14.432
G1 X0.203 Y-13.983
G1 X-0.101 Y-13.524
G1 X-0.390 Y-13.055
G1 X-0.663 Y-12.577
G1 X-0.920 Y-12.090
G1 X-1.161 Y-11.595
G1 X-1.386 Y-11.092
G1 X-1.594 Y-10.582
G1 X-1.784 Y-10.065
G1 X-1.958 Y-9.542
G1 X-2.114 Y-9.014
G1 X-2.253 Y-8.481
G1 X-2.374 Y-7.944
G1 X-2.478 Y-7.403
G1 X-2.563 Y-6.859
G1 X-2.631 Y-6.313
G1 X-2.680 Y-5.764
G1 X-2.711 Y-5.215
G1 X-2.724 Y-4.664
G1 X-2.719 Y-4.114
G1 X-2.696 Y-3.564
G1 X-2.654 Y-3.015
G1 X-2.594 Y-2.468
G1 X-2.517 Y-1.923
G1 X-2.421 Y-1.381
G1 X-2.308 Y-0.842
G1 X-2.177 Y-0.308
G1 X-2.028 Y0.221
G1 X-1.862 Y0.746
G1 X-1.678 Y1.264
G1 X-1.478 Y1.776
G1 X-1.261 Y2.282
G1 X-1.027 Y2.779
G1 X-0.777 Y3.269
G1 X-0.511 Y3.750
G1 X-0.229 Y4.221
G1 X0.068 Y4.684
G1 X0.380 Y5.136
G1 X0.707 Y5.577
G1 X1.048 Y6.007
G1 X1.404 Y6.426
G1 X1.773 Y6.832
G1 X2.155 Y7.226
G1 X2.550 Y7.607
G1 X2.957 Y7.975
G1 X3.376 Y8.329
G1 X3.807 Y8.669
G1 X4.249 Y8.994
G1 X4.701 Y9.305
G1 X5.163 Y9.600
G1 X5.634 Y9.880
G1 X6.114 Y10.143
G1 X6.603 Y10.391
G1 X7.100 Y10.623
G1 X7.604 Y10.837
G1 X8.114 Y11.035
G1 X8.631 Y11.216
G1 X9.154 Y11.379
G1 X9.681 Y11.525
G1 X10.213 Y11.653
G1 X10.749 Y11.764
G1 X11.288 Y11.856
G1 X11.830 Y11.931
G1 X12.374 Y11.988
G1 X12.920 Y12.026
G1 X13.466 Y12.046
G1 X14.013 Y12.048
G1 X14.559 Y12.032
G0 Z10
G0 X4.801 Y-18.114
Z10
Z2
G1 Z-0.125 F80
G1 X4.801 Y-18.114 F200
G1 X4.341 Y-17.812
G1 X3.891 Y-17.495
G1 X3.452 Y-17.163
G1 X3.024 Y-16.817
G1 X2.608 Y-16.457
G1 X2.203 Y-16.083
G1 X1.812 Y-15.696
G1 X1.433 Y-15.296
G1 X1.068 Y-14.885
G1 X0.716 Y-14.461
G1 X0.378 Y-14.026
G1 X0.056 Y-13.579
G1 X-0.252 Y-13.123
G1 X-0.545 Y-12.656
G1 X-0.823 Y-12.181
G1 X-1.084 Y-11.696
G1 X-1.329 Y-11.203
G1 X-1.558 Y-10.702
G1 X-1.770 Y-10.193
G1 X-1.965 Y-9.678
G1 X-2.144 Y-9.157
G1 X-2.304 Y-8.631
G1 X-2.448 Y-8.099
G1 X-2.573 Y-7.563
G1 X-2.681 Y-7.023
G1 X-2.771 Y-6.479
G1 X-2.844 Y-5.934
G1 X-2.898 Y-5.386
G1 X-2.933 Y-4.836
G1 X-2.951 Y-4.286
G1 X-2.951 Y-3.736
G1 X-2.932 Y-3.185
G1 X-2.895 Y-2.636
G1 X-2.840 Y-2.089
G1 X-2.767 Y-1.543
G1 X-2.676 Y-1.001
G1 X-2.567 Y-0.461
G1 X-2.441 Y0.074
G1 X-2.297 Y0.605
G1 X-2.135 Y1.131
G1 X-1.956 Y1.651
G1 X-1.760 Y2.164
G1 X-1.547 Y2.671
G1 X-1.318 Y3.171
G1 X-1.072 Y3.662
G1 X-0.810 Y4.145
G1 X-0.532 Y4.620
G1 X-0.239 Y5.084
G1 X0.069 Y5.539
G1 X0.392 Y5.983
G1 X0.730 Y6.416
G1 X1.082 Y6.837
G1 X1.447 Y7.247
G1 X1.826 Y7.644
G1 X2.218 Y8.028
G1 X2.622 Y8.400
G1 X3.038 Y8.757
G1 X3.466 Y9.100
G1 X3.904 Y9.429
G1 X4.354 Y9.744
G1 X4.813 Y10.043
G1 X5.282 Y10.326
G1 X5.760 Y10.594
G1 X6.247 Y10.846
G1 X6.741 Y11.081
G1 X7.243 Y11.300
G1 X7.752 Y11.502
G1 X8.268 Y11.687
G1 X8.789 Y11.855
G1 X9.315 Y12.005
G1 X9.846 Y12.138
G1 X10.381 Y12.253
G1 X10.919 Y12.350
G1 X11.460 Y12.429
G1 X12.003 Y12.490
G1 X12.548 Y12.533
G1 X13.094 Y12.558
G1 X13.641 Y12.565
G1 X14.187 Y12.553
G0 Z10
G0 X5.146 Y-17.960
Z10
Z2
G1 Z-0.125 F80
G1 X5.146 Y-17.960 F200
G1 X4.674 Y-17.678
G1 X4.211 Y-17.380
G1 X3.759 Y-17.066
G1 X3.317 Y-16.738
G1 X2.886 Y-16.396
G1 X2.466 Y-16.039
G1 X2.059 Y-15.669
G1 X1.664 Y-15.286
G1 X1.282 Y-14.889
G1 X0.913 Y-14.481
G1 X0.557 Y-14.060
G1 X0.216 Y-13.627
G1 X-0.111 Y-13.184
G1 X-0.422 Y-12.730
G1 X-0.719 Y-12.266
G1 X-1.000 Y-11.793
G1 X-1.266 Y-11.310
G1 X-1.515 Y-10.819
G1 X-1.749 Y-10.320
G1 X-1.965 Y-9.814
G1 X-2.165 Y-9.300
G1 X-2.347 Y-8.781
G1 X-2.513 Y-8.256
G1 X-2.661 Y-7.725
G1 X-2.791 Y-7.190
G1 X-2.903 Y-6.651
G1 X-2.998 Y-6.109
G1 X-3.075 Y-5.563
G1 X-3.133 Y-5.016
G1 X-3.174 Y-4.467
G1 X-3.196 Y-3.917
G1 X-3.201 Y-3.366
G1 X-3.187 Y-2.816
G1 X-3.155 Y-2.267
G1 X-3.104 Y-1.719
G1 X-3.036 Y-1.173
G1 X-2.950 Y-0.629
G1 X-2.845 Y-0.089
G1 X-2.723 Y0.447
G1 X-2.584 Y0.979
G1 X-2.427 Y1.506
G1 X-2.252 Y2.027
G1 X-2.060 Y2.543
G1 X-1.852 Y3.051
G1 X-1.627 Y3.553
G1 X-1.385 Y4.046
G1 X-1.127 Y4.532
G1 X-0.854 Y5.008
G1 X-0.565 Y5.475
G1 X-0.260 Y5.932
G1 X0.059 Y6.379
G1 X0.393 Y6.815
G1 X0.741 Y7.239
G1 X1.103 Y7.652
G1 X1.479 Y8.052
G1 X1.867 Y8.440
G1 X2.268 Y8.814
G1 X2.681 Y9.175
G1 X3.106 Y9.522
G1 X3.542 Y9.854
G1 X3.988 Y10.172
G1 X4.445 Y10.475
G1 X4.912 Y10.763
G1 X5.387 Y11.034
G1 X5.872 Y11.290
G1 X6.364 Y11.530
G1 X6.864 Y11.753
G1 X7.371 Y11.959
G1 X7.885 Y12.148
G1 X8.405 Y12.320
G1 X8.929 Y12.475
G1 X9.459 Y12.612
G1 X9.993 Y12.731
G1 X10.530 Y12.833
G1 X11.071 Y12.917
G1 X11.613 Y12.982
G1 X12.158 Y13.030
G1 X12.704 Y13.059
G1 X13.250 Y13.070
G1 X13.796 Y13.063
G0 Z10
G0 X5.487 Y-17.792
Z10
Z2
G1 Z-0.125 F80
G1 X5.487 Y-17.792 F200
G1 X5.003 Y-17.529
G1 X4.528 Y-17.251
G1 X4.063 Y-16.956
G1 X3.608 Y-16.647
G1 X3.163 Y-16.323
G1 X2.729 Y-15.984
G1 X2.307 Y-15.631
G1 X1.896 Y-15.264
G1 X1.498 Y-14.884
G1 X1.112 Y-14.491
G1 X0.740 Y-14.085
G1 X0.381 Y-13.668
G1 X0.036 Y-13.238
G1 X-0.295 Y-12.798
G1 X-0.610 Y-12.347
G1 X-0.911 Y-11.885
G1 X-1.196 Y-11.414
G1 X-1.466 Y-10.934
G1 X-1.720 Y-10.445
G1 X-1.957 Y-9.948
G1 X-2.178 Y-9.443
G1 X-2.382 Y-8.932
G1 X-2.569 Y-8.414
G1 X-2.739 Y-7.890
G1 X-2.891 Y-7.361
G1 X-3.026 Y-6.827
G1 X-3.143 Y-6.289
G1 X-3.242 Y-5.747
G1 X-3.324 Y-5.203
G1 X-3.387 Y-4.656
G1 X-3.432 Y-4.107
G1 X-3.460 Y-3.557
G1 X-3.468 Y-3.007
G1 X-3.459 Y-2.457
G1 X-3.432 Y-1.907
G1 X-3.386 Y-1.359
G1 X-3.322 Y-0.812
G1 X-3.241 Y-0.268
G1 X-3.141 Y0.273
G1 X-3.024 Y0.810
G1 X-2.889 Y1.343
G1 X-2.736 Y1.871
G1 X-2.566 Y2.394
G1 X-2.379 Y2.911
G1 X-2.175 Y3.421
G1 X-1.954 Y3.925
G1 X-1.716 Y4.420
G1 X-1.463 Y4.907
G1 X-1.193 Y5.386
G1 X-0.908 Y5.855
G1 X-0.607 Y6.315
G1 X-0.292 Y6.764
G1 X0.038 Y7.203
G1 X0.383 Y7.630
G1 X0.741 Y8.046
G1 X1.113 Y8.449
G1 X1.498 Y8.840
G1 X1.896 Y9.218
G1 X2.306 Y9.582
G1 X2.728 Y9.932
G1 X3.161 Y10.269
G1 X3.604 Y10.590
G1 X4.059 Y10.897
G1 X4.523 Y11.188
G1 X4.996 Y11.464
G1 X5.478 Y11.724
G1 X5.968 Y11.967
G1 X6.467 Y12.194
G1 X6.972 Y12.405
G1 X7.484 Y12.598
G1 X8.002 Y12.775
G1 X8.525 Y12.934
G1 X9.054 Y13.075
G1 X9.586 Y13.199
G1 X10.123 Y13.305
G1 X10.662 Y13.393
G1 X11.205 Y13.463
G1 X11.749 Y13.515
G1 X12.294 Y13.549
G1 X12.840 Y13.565
G0 Z10
G0 X6.323 Y-17.834
Z10
Z2
G1 Z-0.125 F80
G1 X6.323 Y-17.834 F200
G1 X5.821 Y-17.608
G1 X5.327 Y-17.366
G1 X4.842 Y-17.107
G1 X4.365 Y-16.833
G1 X3.897 Y-16.543
G1 X3.439 Y-16.237
G1 X2.991 Y-15.917
G1 X2.555 Y-15.581
G1 X2.129 Y-15.232
G1 X1.715 Y-14.869
G1 X1.314 Y-14.492
G1 X0.925 Y-14.102
G1 X0.549 Y-13.700
G1 X0.186 Y-13.285
G1 X-0.162 Y-12.859
G1 X-0.496 Y-12.421
G1 X-0.816 Y-11.973
G1 X-1.121 Y-11.514
G1 X-1.410 Y-11.045
G1 X-1.684 Y-10.567
G1 X-1.942 Y-10.080
G1 X-2.183 Y-9.585
G1 X-2.408 Y-9.083
G1 X-2.617 Y-8.573
G1 X-2.808 Y-8.057
G1 X-2.982 Y-7.534
G1 X-3.139 Y-7.007
G1 X-3.279 Y-6.474
G1 X-3.400 Y-5.937
G1 X-3.504 Y-5.396
G1 X-3.590 Y-4.852
G1 X-3.658 Y-4.306
G1 X-3.708 Y-3.758
G1 X-3.740 Y-3.208
G1 X-3.754 Y-2.658
G1 X-3.749 Y-2.108
G1 X-3.726 Y-1.558
G1 X-3.685 Y-1.009
G1 X-3.626 Y-0.463
G1 X-3.549 Y0.082
G1 X-3.454 Y0.624
G1 X-3.342 Y1.162
G1 X-3.211 Y1.696
G1 X-3.063 Y2.226
G1 X-2.897 Y2.750
G1 X-2.714 Y3.268
G1 X-2.515 Y3.780
G1 X-2.298 Y4.285
G1 X-2.065 Y4.783
G1 X-1.816 Y5.272
G1 X-1.550 Y5.753
G1 X-1.269 Y6.225
G1 X-0.972 Y6.687
G1 X-0.661 Y7.139
G1 X-0.334 Y7.580
G1 X0.007 Y8.010
G1 X0.362 Y8.429
G1 X0.730 Y8.835
G1 X1.112 Y9.229
G1 X1.506 Y9.610
G1 X1.913 Y9.978
G1 X2.332 Y10.332
G1 X2.762 Y10.671
G1 X3.203 Y10.997
G1 X3.654 Y11.307
G1 X4.116 Y11.602
G1 X4.587 Y11.882
G1 X5.066 Y12.146
G1 X5.555 Y12.393
G1 X6.051 Y12.625
G1 X6.554 Y12.839
G1 X7.065 Y13.037
G1 X7.581 Y13.218
G1 X8.103 Y13.381
G1 X8.630 Y13.527
G1 X9.162 Y13.655
G1 X9.697 Y13.766
G1 X10.236 Y13.858
G1 X10.777 Y13.933
G1 X11.321 Y13.989
G1 X11.866 Y14.028
G1 X12.412 Y14.048
G0 Z10
G0 X6.661 Y-17.615
Z10
Z2
G1 Z-0.125 F80
G1 X6.661 Y-17.615 F200
G1 X6.150 Y-17.410
G1 X5.647 Y-17.188
G1 X5.151 Y-16.950
G1 X4.663 Y-16.695
G1 X4.183 Y-16.425
G1 X3.713 Y-16.139
G1 X3.252 Y-15.837
G1 X2.802 Y-15.520
G1 X2.362 Y-15.189
G1 X1.934 Y-14.843
G1 X1.517 Y-14.484
G1 X1.112 Y-14.110
G1 X0.720 Y-13.724
G1 X0.341 Y-13.325
G1 X-0.025 Y-12.913
G1 X-0.378 Y-12.490
G1 X-0.716 Y-12.055
G1 X-1.039 Y-11.609
G1 X-1.348 Y-11.153
G1 X-1.641 Y-10.687
G1 X-1.919 Y-10.211
G1 X-2.181 Y-9.727
G1 X-2.427 Y-9.234
G1 X-2.656 Y-8.733
G1 X-2.869 Y-8.225
G1 X-3.064 Y-7.710
G1 X-3.243 Y-7.190
G1 X-3.405 Y-6.663
G1 X-3.549 Y-6.132
G1 X-3.675 Y-5.596
G1 X-3.783 Y-5.056
G1 X-3.874 Y-4.513
G1 X-3.947 Y-3.967
G1 X-4.001 Y-3.420
G1 X-4.038 Y-2.870
G1 X-4.056 Y-2.320
G1 X-4.056 Y-1.770
G1 X-4.038 Y-1.220
G1 X-4.002 Y-0.671
G1 X-3.947 Y-0.124
G1 X-3.875 Y0.421
G1 X-3.785 Y0.964
G1 X-3.676 Y1.503
G1 X-3.550 Y2.038
G1 X-3.407 Y2.569
G1 X-3.246 Y3.094
G1 X-3.067 Y3.614
G1 X-2.872 Y4.128
G1 X-2.660 Y4.634
G1 X-2.431 Y5.134
G1 X-2.185 Y5.625
G1 X-1.924 Y6.108
G1 X-1.647 Y6.582
G1 X-1.354 Y7.047
G1 X-1.047 Y7.501
G1 X-0.724 Y7.945
G1 X-0.387 Y8.378
G1 X-0.035 Y8.799
G1 X0.329 Y9.209
G1 X0.708 Y9.606
G1 X1.099 Y9.990
G1 X1.502 Y10.361
G1 X1.918 Y10.719
G1 X2.345 Y11.062
G1 X2.783 Y11.391
G1 X3.232 Y11.705
G1 X3.691 Y12.004
G1 X4.160 Y12.287
G1 X4.637 Y12.555
G1 X5.123 Y12.807
G1 X5.618 Y13.042
G1 X6.119 Y13.261
G1 X6.628 Y13.463
G1 X7.142 Y13.648
G1 X7.663 Y13.816
G1 X8.189 Y13.966
G1 X8.719 Y14.099
G1 X9.254 Y14.214
G1 X9.792 Y14.311
G1 X10.332 Y14.390
G1 X10.875 Y14.451
G1 X11.420 Y14.494
G1 X11.965 Y14.519
G0 Z10
G0 X6.991 Y-17.380
Z10
Z2
G1 Z-0.125 F80
G1 X6.991 Y-17.380 F200
G1 X6.473 Y-17.197
G1 X5.960 Y-16.996
G1 X5.455 Y-16.779
G1 X4.956 Y-16.545
G1 X4.466 Y-16.294
G1 X3.984 Y-16.028
G1 X3.512 Y-15.746
G1 X3.049 Y-15.448
G1 X2.596 Y-15.135
G1 X2.153 Y-14.807
G1 X1.722 Y-14.465
G1 X1.302 Y-14.109
G1 X0.894 Y-13.739
G1 X0.498 Y-13.356
G1 X0.115 Y-12.960
G1 X-0.254 Y-12.552
G1 X-0.610 Y-12.131
G1 X-0.952 Y-11.699
G1 X-1.279 Y-11.256
G1 X-1.591 Y-10.803
G1 X-1.889 Y-10.339
G1 X-2.171 Y-9.866
G1 X-2.437 Y-9.384
G1 X-2.687 Y-8.893
G1 X-2.920 Y-8.394
G1 X-3.137 Y-7.888
G1 X-3.338 Y-7.375
G1 X-3.521 Y-6.856
G1 X-3.687 Y-6.331
G1 X-3.835 Y-5.801
G1 X-3.966 Y-5.266
G1 X-4.079 Y-4.727
G1 X-4.174 Y-4.185
G1 X-4.252 Y-3.640
G1 X-4.311 Y-3.093
G1 X-4.352 Y-2.544
G1 X-4.375 Y-1.994
G1 X-4.380 Y-1.444
G1 X-4.366 Y-0.894
G1 X-4.335 Y-0.345
G1 X-4.285 Y0.203
G1 X-4.217 Y0.748
G1 X-4.132 Y1.292
G1 X-4.028 Y1.832
G1 X-3.906 Y2.368
G1 X-3.767 Y2.899
G1 X-3.611 Y3.426
G1 X-3.437 Y3.948
G1 X-3.246 Y4.463
G1 X-3.038 Y4.971
G1 X-2.813 Y5.472
G1 X-2.572 Y5.966
G1 X-2.315 Y6.451
G1 X-2.042 Y6.927
G1 X-1.753 Y7.394
G1 X-1.449 Y7.851
G1 X-1.130 Y8.298
G1 X-0.797 Y8.733
G1 X-0.449 Y9.158
G1 X-0.088 Y9.570
G1 X0.287 Y9.970
G1 X0.675 Y10.358
G1 X1.075 Y10.732
G1 X1.488 Y11.093
G1 X1.912 Y11.440
G1 X2.347 Y11.772
G1 X2.793 Y12.090
G1 X3.250 Y12.393
G1 X3.716 Y12.680
G1 X4.191 Y12.952
G1 X4.675 Y13.208
G1 X5.167 Y13.447
G1 X5.667 Y13.670
G1 X6.173 Y13.876
G1 X6.686 Y14.065
G1 X7.206 Y14.237
G1 X7.730 Y14.392
G1 X8.259 Y14.529
G1 X8.793 Y14.648
G1 X9.330 Y14.750
G1 X9.870 Y14.834
G1 X10.412 Y14.899
G1 X10.956 Y14.947
G1 X11.501 Y14.976
G0 Z10
G0 X7.844 Y-17.275
Z10
Z2
G1 Z-0.125 F80
G1 X7.844 Y-17.275 F200
G1 X7.313 Y-17.130
G1 X6.787 Y-16.969
G1 X6.267 Y-16.790
G1 X5.753 Y-16.593
G1 X5.245 Y-16.380
G1 X4.745 Y-16.151
G1 X4.253 Y-15.904
G1 X3.769 Y-15.642
G1 X3.294 Y-15.364
G1 X2.828 Y-15.070
G1 X2.372 Y-14.761
G1 X1.927 Y-14.437
G1 X1.493 Y-14.099
G1 X1.070 Y-13.746
G1 X0.658 Y-13.380
G1 X0.260 Y-13.000
G1 X-0.126 Y-12.607
G1 X-0.499 Y-12.202
G1 X-0.859 Y-11.785
G1 X-1.204 Y-11.356
G1 X-1.535 Y-10.916
G1 X-1.852 Y-10.465
G1 X-2.153 Y-10.004
G1 X-2.439 Y-9.533
G1 X-2.709 Y-9.053
G1 X-2.963 Y-8.565
G1 X-3.201 Y-8.068
G1 X-3.422 Y-7.564
G1 X-3.627 Y-7.052
G1 X-3.814 Y-6.535
G1 X-3.985 Y-6.011
G1 X-4.138 Y-5.482
G1 X-4.273 Y-4.949
G1 X-4.391 Y-4.411
G1 X-4.491 Y-3.870
G1 X-4.573 Y-3.325
G1 X-4.637 Y-2.779
G1 X-4.682 Y-2.230
G1 X-4.710 Y-1.681
G1 X-4.719 Y-1.131
G1 X-4.711 Y-0.581
G1 X-4.684 Y-0.031
G1 X-4.639 Y0.517
G1 X-4.576 Y1.063
G1 X-4.495 Y1.607
G1 X-4.396 Y2.147
G1 X-4.279 Y2.685
G1 X-4.144 Y3.217
G1 X-3.992 Y3.746
G1 X-3.823 Y4.268
G1 X-3.636 Y4.785
G1 X-3.432 Y5.295
G1 X-3.212 Y5.798
G1 X-2.975 Y6.293
G1 X-2.722 Y6.781
G1 X-2.453 Y7.259
G1 X-2.168 Y7.728
G1 X-1.868 Y8.188
G1 X-1.553 Y8.637
G1 X-1.224 Y9.075
G1 X-0.880 Y9.502
G1 X-0.522 Y9.918
G1 X-0.150 Y10.321
G1 X0.234 Y10.712
G1 X0.631 Y11.089
G1 X1.041 Y11.454
G1 X1.462 Y11.804
G1 X1.894 Y12.140
G1 X2.338 Y12.462
G1 X2.791 Y12.768
G1 X3.255 Y13.059
G1 X3.728 Y13.335
G1 X4.210 Y13.595
G1 X4.700 Y13.838
G1 X5.197 Y14.065
G1 X5.702 Y14.276
G1 X6.214 Y14.469
G1 X6.731 Y14.645
G1 X7.254 Y14.804
G1 X7.782 Y14.946
G1 X8.315 Y15.070
G1 X8.851 Y15.175
G1 X9.390 Y15.264
G1 X9.931 Y15.334
G1 X10.475 Y15.386
G1 X11.020 Y15.419
G0 Z10
G0 X8.163 Y-16.988
Z10
Z2
G1 Z-0.125 F80
G1 X8.163 Y-16.988 F200
G1 X7.626 Y-16.866
G1 X7.094 Y-16.727
G1 X6.567 Y-16.569
G1 X6.045 Y-16.395
G1 X5.529 Y-16.203
G1 X5.020 Y-15.994
G1 X4.518 Y-15.769
G1 X4.023 Y-15.527
G1 X3.537 Y-15.268
G1 X3.060 Y-14.994
G1 X2.591 Y-14.704
G1 X2.133 Y-14.399
G1 X1.685 Y-14.079
G1 X1.248 Y-13.745
G1 X0.822 Y-13.396
G1 X0.407 Y-13.033
G1 X0.005 Y-12.656
G1 X-0.384 Y-12.267
G1 X-0.761 Y-11.865
G1 X-1.124 Y-11.451
G1 X-1.473 Y-11.025
G1 X-1.807 Y-10.587
G1 X-2.128 Y-10.139
G1 X-2.433 Y-9.681
G1 X-2.723 Y-9.212
G1 X-2.997 Y-8.735
G1 X-3.255 Y-8.249
G1 X-3.497 Y-7.754
G1 X-3.723 Y-7.252
G1 X-3.932 Y-6.742
G1 X-4.124 Y-6.226
G1 X-4.299 Y-5.704
G1 X-4.456 Y-5.177
G1 X-4.596 Y-4.644
G1 X-4.718 Y-4.108
G1 X-4.823 Y-3.567
G1 X-4.909 Y-3.024
G1 X-4.978 Y-2.478
G1 X-5.028 Y-1.930
G1 X-5.061 Y-1.381
G1 X-5.075 Y-0.831
G1 X-5.071 Y-0.281
G1 X-5.049 Y0.269
G1 X-5.008 Y0.817
G1 X-4.950 Y1.364
G1 X-4.873 Y1.908
G1 X-4.779 Y2.450
G1 X-4.667 Y2.988
G1 X-4.537 Y3.522
G1 X-4.389 Y4.051
G1 X-4.224 Y4.575
G1 X-4.042 Y5.093
G1 X-3.843 Y5.605
G1 X-3.626 Y6.110
G1 X-3.394 Y6.607
G1 X-3.145 Y7.097
G1 X-2.880 Y7.577
G1 X-2.599 Y8.049
G1 X-2.303 Y8.511
G1 X-1.992 Y8.962
G1 X-1.666 Y9.403
G1 X-1.326 Y9.833
G1 X-0.971 Y10.252
G1 X-0.604 Y10.658
G1 X-0.222 Y11.052
G1 X0.172 Y11.433
G1 X0.578 Y11.800
G1 X0.996 Y12.154
G1 X1.426 Y12.494
G1 X1.866 Y12.819
G1 X2.317 Y13.129
G1 X2.778 Y13.424
G1 X3.249 Y13.704
G1 X3.728 Y13.967
G1 X4.216 Y14.215
G1 X4.712 Y14.446
G1 X5.215 Y14.661
G1 X5.725 Y14.858
G1 X6.241 Y15.039
G1 X6.762 Y15.202
G1 X7.289 Y15.348
G1 X7.820 Y15.476
G1 X8.355 Y15.587
G1 X8.893 Y15.679
G1 X9.434 Y15.754
G1 X9.978 Y15.810
G0 Z10
G0 X8.471 Y-16.688
Z10
Z2
G1 Z-0.125 F80
G1 X8.471 Y-16.688 F200
G1 X7.930 Y-16.588
G1 X7.392 Y-16.470
G1 X6.859 Y-16.335
G1 X6.330 Y-16.182
G1 X5.807 Y-16.012
G1 X5.290 Y-15.825
G1 X4.778 Y-15.620
G1 X4.274 Y-15.399
G1 X3.778 Y-15.161
G1 X3.289 Y-14.907
G1 X2.810 Y-14.637
G1 X2.339 Y-14.351
G1 X1.878 Y-14.050
G1 X1.427 Y-13.734
G1 X0.987 Y-13.403
G1 X0.558 Y-13.058
G1 X0.140 Y-12.698
G1 X-0.265 Y-12.326
G1 X-0.658 Y-11.939
G1 X-1.037 Y-11.541
G1 X-1.404 Y-11.129
G1 X-1.757 Y-10.706
G1 X-2.095 Y-10.272
G1 X-2.419 Y-9.827
G1 X-2.728 Y-9.371
G1 X-3.022 Y-8.905
G1 X-3.300 Y-8.430
G1 X-3.563 Y-7.946
G1 X-3.809 Y-7.453
G1 X-4.039 Y-6.953
G1 X-4.252 Y-6.445
G1 X-4.449 Y-5.931
G1 X-4.628 Y-5.410
G1 X-4.790 Y-4.884
G1 X-4.934 Y-4.353
G1 X-5.061 Y-3.818
G1 X-5.170 Y-3.278
G1 X-5.261 Y-2.735
G1 X-5.335 Y-2.190
G1 X-5.390 Y-1.643
G1 X-5.427 Y-1.094
G1 X-5.446 Y-0.544
G1 X-5.446 Y0.006
G1 X-5.429 Y0.556
G1 X-5.393 Y1.104
G1 X-5.339 Y1.651
G1 X-5.267 Y2.196
G1 X-5.177 Y2.739
G1 X-5.070 Y3.277
G1 X-4.944 Y3.812
G1 X-4.801 Y4.343
G1 X-4.641 Y4.868
G1 X-4.463 Y5.388
G1 X-4.268 Y5.901
G1 X-4.056 Y6.408
G1 X-3.828 Y6.907
G1 X-3.583 Y7.398
G1 X-3.322 Y7.881
G1 X-3.046 Y8.355
G1 X-2.753 Y8.819
G1 X-2.446 Y9.273
G1 X-2.124 Y9.717
G1 X-1.787 Y10.150
G1 X-1.437 Y10.571
G1 X-1.072 Y10.980
G1 X-0.694 Y11.377
G1 X-0.304 Y11.761
G1 X0.099 Y12.132
G1 X0.515 Y12.490
G1 X0.941 Y12.833
G1 X1.379 Y13.161
G1 X1.827 Y13.475
G1 X2.286 Y13.774
G1 X2.754 Y14.058
G1 X3.231 Y14.325
G1 X3.717 Y14.577
G1 X4.210 Y14.812
G1 X4.712 Y15.031
G1 X5.220 Y15.233
G1 X5.734 Y15.418
G1 X6.254 Y15.585
G1 X6.780 Y15.735
G1 X7.310 Y15.868
G1 X7.844 Y15.983
G1 X8.381 Y16.080
G1 X8.921 Y16.159
G1 X9.464 Y16.220
G0 Z10
G0 X9.315 Y-16.432
Z10
Z2
G1 Z-0.125 F80
G1 X9.315 Y-16.432 F200
G1 X8.768 Y-16.373
G1 X8.223 Y-16.296
G1 X7.681 Y-16.201
G1 X7.143 Y-16.088
G1 X6.608 Y-15.957
G1 X6.078 Y-15.809
G1 X5.553 Y-15.643
G1 X5.034 Y-15.460
G1 X4.521 Y-15.260
G1 X4.016 Y-15.043
G1 X3.517 Y-14.809
G1 X3.026 Y-14.559
G1 X2.544 Y-14.293
G1 X2.071 Y-14.012
G1 X1.607 Y-13.714
G1 X1.154 Y-13.402
G1 X0.711 Y-13.075
G1 X0.279 Y-12.733
G1 X-0.141 Y-12.377
G1 X-0.550 Y-12.008
G1 X-0.946 Y-11.625
G1 X-1.329 Y-11.230
G1 X-1.699 Y-10.822
G1 X-2.055 Y-10.402
G1 X-2.398 Y-9.970
G1 X-2.725 Y-9.528
G1 X-3.038 Y-9.074
G1 X-3.336 Y-8.611
G1 X-3.619 Y-8.138
G1 X-3.885 Y-7.657
G1 X-4.136 Y-7.166
G1 X-4.370 Y-6.668
G1 X-4.587 Y-6.162
G1 X-4.788 Y-5.650
G1 X-4.972 Y-5.131
G1 X-5.138 Y-4.606
G1 X-5.287 Y-4.076
G1 X-5.419 Y-3.542
G1 X-5.532 Y-3.003
G1 X-5.628 Y-2.461
G1 X-5.706 Y-1.917
G1 X-5.766 Y-1.370
G1 X-5.807 Y-0.821
G1 X-5.831 Y-0.272
G1 X-5.836 Y0.278
G1 X-5.823 Y0.828
G1 X-5.792 Y1.377
G1 X-5.743 Y1.924
G1 X-5.676 Y2.470
G1 X-5.591 Y3.013
G1 X-5.487 Y3.552
G1 X-5.367 Y4.088
G1 X-5.228 Y4.620
G1 X-5.072 Y5.146
G1 X-4.898 Y5.667
G1 X-4.708 Y6.182
G1 X-4.501 Y6.690
G1 X-4.276 Y7.191
G1 X-4.036 Y7.685
G1 X-3.779 Y8.170
G1 X-3.507 Y8.646
G1 X-3.218 Y9.112
G1 X-2.915 Y9.569
G1 X-2.597 Y10.015
G1 X-2.264 Y10.451
G1 X-1.917 Y10.875
G1 X-1.556 Y11.287
G1 X-1.181 Y11.687
G1 X-0.794 Y12.075
G1 X-0.394 Y12.449
G1 X0.018 Y12.810
G1 X0.442 Y13.156
G1 X0.877 Y13.489
G1 X1.322 Y13.806
G1 X1.778 Y14.109
G1 X2.244 Y14.396
G1 X2.719 Y14.668
G1 X3.202 Y14.923
G1 X3.694 Y15.163
G1 X4.193 Y15.386
G1 X4.699 Y15.592
G1 X5.212 Y15.781
G1 X5.731 Y15.953
G1 X6.255 Y16.107
G1 X6.784 Y16.244
G1 X7.317 Y16.363
G1 X7.853 Y16.465
G1 X8.393 Y16.548
G1 X8.935 Y16.614
G0 Z10
G0 X9.602 Y-16.081
Z10
Z2
G1 Z-0.125 F80
G1 X9.602 Y-16.081 F200
G1 X9.053 Y-16.044
G1 X8.506 Y-15.990
G1 X7.960 Y-15.917
G1 X7.418 Y-15.827
G1 X6.878 Y-15.718
G1 X6.342 Y-15.592
G1 X5.811 Y-15.449
G1 X5.285 Y-15.287
G1 X4.764 Y-15.109
G1 X4.250 Y-14.913
G1 X3.742 Y-14.700
G1 X3.241 Y-14.471
G1 X2.748 Y-14.225
G1 X2.264 Y-13.964
G1 X1.789 Y-13.686
G1 X1.322 Y-13.393
G1 X0.866 Y-13.084
G1 X0.420 Y-12.761
G1 X-0.014 Y-12.423
G1 X-0.438 Y-12.070
G1 X-0.850 Y-11.705
G1 X-1.249 Y-11.325
G1 X-1.635 Y-10.933
G1 X-2.009 Y-10.528
G1 X-2.369 Y-10.111
G1 X-2.715 Y-9.683
G1 X-3.046 Y-9.243
G1 X-3.363 Y-8.792
G1 X-3.665 Y-8.332
G1 X-3.951 Y-7.861
G1 X-4.222 Y-7.382
G1 X-4.476 Y-6.894
G1 X-4.715 Y-6.397
G1 X-4.937 Y-5.894
G1 X-5.142 Y-5.383
G1 X-5.330 Y-4.865
G1 X-5.501 Y-4.342
G1 X-5.654 Y-3.814
G1 X-5.790 Y-3.280
G1 X-5.908 Y-2.743
G1 X-6.009 Y-2.202
G1 X-6.091 Y-1.658
G1 X-6.156 Y-1.112
G1 X-6.202 Y-0.564
G1 X-6.230 Y-0.015
G1 X-6.240 Y0.535
G1 X-6.232 Y1.085
G1 X-6.205 Y1.634
G1 X-6.161 Y2.182
G1 X-6.098 Y2.728
G1 X-6.018 Y3.271
G1 X-5.919 Y3.812
G1 X-5.803 Y4.349
G1 X-5.669 Y4.881
G1 X-5.517 Y5.409
G1 X-5.348 Y5.931
G1 X-5.162 Y6.448
G1 X-4.959 Y6.958
G1 X-4.739 Y7.461
G1 X-4.503 Y7.956
G1 X-4.250 Y8.443
G1 X-3.982 Y8.921
G1 X-3.698 Y9.390
G1 X-3.398 Y9.849
G1 X-3.084 Y10.298
G1 X-2.754 Y10.736
G1 X-2.411 Y11.163
G1 X-2.053 Y11.579
G1 X-1.682 Y11.982
G1 X-1.298 Y12.372
G1 X-0.902 Y12.750
G1 X-0.493 Y13.114
G1 X-0.072 Y13.464
G1 X0.360 Y13.800
G1 X0.803 Y14.121
G1 X1.256 Y14.428
G1 X1.719 Y14.719
G1 X2.192 Y14.994
G1 X2.673 Y15.254
G1 X3.163 Y15.497
G1 X3.660 Y15.724
G1 X4.164 Y15.934
G1 X4.675 Y16.128
G1 X5.193 Y16.304
G1 X5.715 Y16.463
G1 X6.243 Y16.604
G1 X6.775 Y16.727
G1 X7.310 Y16.833
G1 X7.849 Y16.921
G1 X8.391 Y16.991
G0 Z10
G0 X10.426 Y-15.711
Z10
Z2
G1 Z-0.125 F80
G1 X10.426 Y-15.711 F200
G1 X9.876 Y-15.716
G1 X9.326 Y-15.703
G1 X8.777 Y-15.671
G1 X8.229 Y-15.621
G1 X7.683 Y-15.553
G1 X7.139 Y-15.467
G1 X6.599 Y-15.364
G1 X6.062 Y-15.242
G1 X5.530 Y-15.103
G1 X5.002 Y-14.946
G1 X4.480 Y-14.772
G1 X3.963 Y-14.580
G1 X3.454 Y-14.372
G1 X2.951 Y-14.147
G1 X2.456 Y-13.906
G1 X1.970 Y-13.648
G1 X1.492 Y-13.374
G1 X1.023 Y-13.085
G1 X0.564 Y-12.780
G1 X0.116 Y-12.461
G1 X-0.322 Y-12.127
G1 X-0.748 Y-11.778
G1 X-1.163 Y-11.416
G1 X-1.566 Y-11.040
G1 X-1.956 Y-10.651
G1 X-2.332 Y-10.249
G1 X-2.696 Y-9.835
G1 X-3.045 Y-9.410
G1 X-3.381 Y-8.973
G1 X-3.701 Y-8.525
G1 X-4.007 Y-8.067
G1 X-4.297 Y-7.599
G1 X-4.572 Y-7.122
G1 X-4.831 Y-6.636
G1 X-5.073 Y-6.142
G1 X-5.300 Y-5.640
G1 X-5.509 Y-5.131
G1 X-5.701 Y-4.615
G1 X-5.877 Y-4.094
G1 X-6.035 Y-3.566
G1 X-6.175 Y-3.034
G1 X-6.298 Y-2.498
G1 X-6.403 Y-1.958
G1 X-6.490 Y-1.415
G1 X-6.559 Y-0.869
G1 X-6.610 Y-0.322
G1 X-6.643 Y0.227
G1 X-6.658 Y0.777
G1 X-6.654 Y1.326
G1 X-6.632 Y1.876
G1 X-6.592 Y2.424
G1 X-6.534 Y2.970
G1 X-6.459 Y3.514
G1 X-6.365 Y4.056
G1 X-6.253 Y4.593
G1 X-6.123 Y5.127
G1 X-5.976 Y5.656
G1 X-5.812 Y6.180
G1 X-5.630 Y6.698
G1 X-5.431 Y7.209
G1 X-5.216 Y7.714
G1 X-4.983 Y8.211
G1 X-4.735 Y8.700
G1 X-4.471 Y9.180
G1 X-4.190 Y9.652
G1 X-3.895 Y10.113
G1 X-3.584 Y10.565
G1 X-3.259 Y11.006
G1 X-2.919 Y11.435
G1 X-2.565 Y11.854
G1 X-2.197 Y12.260
G1 X-1.817 Y12.653
G1 X-1.423 Y13.034
G1 X-1.017 Y13.401
G1 X-0.600 Y13.755
G1 X-0.171 Y14.094
G1 X0.270 Y14.419
G1 X0.720 Y14.730
G1 X1.181 Y15.024
G1 X1.651 Y15.304
G1 X2.130 Y15.567
G1 X2.617 Y15.815
G1 X3.113 Y16.046
G1 X3.615 Y16.260
G1 X4.125 Y16.458
G1 X4.640 Y16.638
G1 X5.162 Y16.801
G1 X5.688 Y16.947
G1 X6.219 Y17.075
G1 X6.753 Y17.185
G1 X7.291 Y17.278
G0 Z10
G0 X11.233 Y-15.265
Z10
Z2
G1 Z-0.125 F80
G1 X11.233 Y-15.265 F200
G1 X10.685 Y-15.311
G1 X10.136 Y-15.339
G1 X9.586 Y-15.348
G1 X9.036 Y-15.339
G1 X8.486 Y-15.312
G1 X7.938 Y-15.267
G1 X7.391 Y-15.204
G1 X6.847 Y-15.123
G1 X6.306 Y-15.024
G1 X5.768 Y-14.907
G1 X5.234 Y-14.772
G1 X4.705 Y-14.620
G1 X4.181 Y-14.450
G1 X3.664 Y-14.263
G1 X3.152 Y-14.059
G1 X2.648 Y-13.838
G1 X2.151 Y-13.601
G1 X1.662 Y-13.347
G1 X1.182 Y-13.078
G1 X0.710 Y-12.793
G1 X0.249 Y-12.492
G1 X-0.202 Y-12.176
G1 X-0.643 Y-11.846
G1 X-1.072 Y-11.501
G1 X-1.490 Y-11.142
G1 X-1.896 Y-10.769
G1 X-2.289 Y-10.384
G1 X-2.669 Y-9.985
G1 X-3.036 Y-9.575
G1 X-3.389 Y-9.152
G1 X-3.728 Y-8.718
G1 X-4.053 Y-8.273
G1 X-4.362 Y-7.818
G1 X-4.657 Y-7.352
G1 X-4.935 Y-6.878
G1 X-5.198 Y-6.394
G1 X-5.445 Y-5.902
G1 X-5.675 Y-5.402
G1 X-5.889 Y-4.895
G1 X-6.086 Y-4.381
G1 X-6.266 Y-3.861
G1 X-6.428 Y-3.335
G1 X-6.573 Y-2.804
G1 X-6.701 Y-2.269
G1 X-6.810 Y-1.730
G1 X-6.902 Y-1.188
G1 X-6.975 Y-0.643
G1 X-7.031 Y-0.096
G1 X-7.069 Y0.453
G1 X-7.088 Y1.002
G1 X-7.089 Y1.552
G1 X-7.072 Y2.101
G1 X-7.037 Y2.650
G1 X-6.983 Y3.196
G1 X-6.912 Y3.741
G1 X-6.823 Y4.283
G1 X-6.716 Y4.822
G1 X-6.591 Y5.356
G1 X-6.448 Y5.886
G1 X-6.288 Y6.411
G1 X-6.111 Y6.931
G1 X-5.916 Y7.444
G1 X-5.705 Y7.950
G1 X-5.477 Y8.449
G1 X-5.233 Y8.940
G1 X-4.972 Y9.423
G1 X-4.696 Y9.896
G1 X-4.405 Y10.360
G1 X-4.098 Y10.814
G1 X-3.776 Y11.258
G1 X-3.440 Y11.690
G1 X-3.090 Y12.112
G1 X-2.726 Y12.521
G1 X-2.348 Y12.917
G1 X-1.958 Y13.301
G1 X-1.555 Y13.672
G1 X-1.141 Y14.029
G1 X-0.714 Y14.372
G1 X-0.277 Y14.701
G1 X0.171 Y15.014
G1 X0.629 Y15.313
G1 X1.097 Y15.596
G1 X1.573 Y15.864
G1 X2.059 Y16.115
G1 X2.552 Y16.350
G1 X3.053 Y16.569
G1 X3.560 Y16.771
G1 X4.074 Y16.955
G1 X4.594 Y17.123
G1 X5.119 Y17.273
G1 X5.649 Y17.405
G1 X6.183 Y17.520
G1 X6.720 Y17.617
G0 Z10
G0 X11.475 Y-14.830
Z10
Z2
G1 Z-0.125 F80
G1 X11.475 Y-14.830 F200
G1 X10.929 Y-14.899
G1 X10.381 Y-14.949
G1 X9.832 Y-14.981
G1 X9.282 Y-14.995
G1 X8.732 Y-14.991
G1 X8.182 Y-14.969
G1 X7.634 Y-14.929
G1 X7.086 Y-14.870
G1 X6.541 Y-14.793
G1 X5.999 Y-14.699
G1 X5.460 Y-14.586
G1 X4.925 Y-14.456
G1 X4.395 Y-14.308
G1 X3.870 Y-14.143
G1 X3.350 Y-13.961
G1 X2.837 Y-13.761
G1 X2.331 Y-13.545
G1 X1.832 Y-13.312
G1 X1.341 Y-13.062
G1 X0.858 Y-12.797
G1 X0.385 Y-12.516
G1 X-0.079 Y-12.219
G1 X-0.533 Y-11.907
G1 X-0.976 Y-11.580
G1 X-1.409 Y-11.239
G1 X-1.830 Y-10.884
G1 X-2.239 Y-10.515
G1 X-2.635 Y-10.133
G1 X-3.019 Y-9.738
G1 X-3.389 Y-9.330
G1 X-3.746 Y-8.910
G1 X-4.088 Y-8.479
G1 X-4.417 Y-8.037
G1 X-4.730 Y-7.584
G1 X-5.028 Y-7.122
G1 X-5.311 Y-6.649
G1 X-5.578 Y-6.168
G1 X-5.829 Y-5.678
G1 X-6.064 Y-5.180
G1 X-6.282 Y-4.675
G1 X-6.483 Y-4.163
G1 X-6.667 Y-3.644
G1 X-6.834 Y-3.120
G1 X-6.984 Y-2.590
G1 X-7.115 Y-2.056
G1 X-7.230 Y-1.518
G1 X-7.326 Y-0.977
G1 X-7.404 Y-0.432
G1 X-7.464 Y0.114
G1 X-7.507 Y0.662
G1 X-7.531 Y1.211
G1 X-7.536 Y1.761
G1 X-7.524 Y2.310
G1 X-7.493 Y2.859
G1 X-7.445 Y3.406
G1 X-7.378 Y3.951
G1 X-7.293 Y4.494
G1 X-7.191 Y5.033
G1 X-7.070 Y5.569
G1 X-6.932 Y6.100
G1 X-6.777 Y6.626
G1 X-6.604 Y7.147
G1 X-6.414 Y7.662
G1 X-6.207 Y8.170
G1 X-5.983 Y8.670
G1 X-5.743 Y9.163
G1 X-5.487 Y9.648
G1 X-5.214 Y10.124
G1 X-4.927 Y10.590
G1 X-4.624 Y11.047
G1 X-4.306 Y11.493
G1 X-3.973 Y11.928
G1 X-3.627 Y12.352
G1 X-3.266 Y12.764
G1 X-2.892 Y13.164
G1 X-2.505 Y13.551
G1 X-2.106 Y13.925
G1 X-1.694 Y14.286
G1 X-1.271 Y14.632
G1 X-0.836 Y14.964
G1 X-0.391 Y15.282
G1 X0.064 Y15.584
G1 X0.530 Y15.871
G1 X1.004 Y16.143
G1 X1.487 Y16.398
G1 X1.978 Y16.637
G1 X2.477 Y16.860
G1 X2.983 Y17.066
G1 X3.496 Y17.255
G1 X4.014 Y17.426
G1 X4.538 Y17.581
G1 X5.066 Y17.718
G1 X5.599 Y17.837
G1 X6.135 Y17.938
G0 Z10
G0 X12.238 Y-14.275
Z10
Z2
G1 Z-0.125 F80
G1 X12.238 Y-14.275 F200
G1 X11.699 Y-14.384
G1 X11.157 Y-14.475
G1 X10.612 Y-14.548
G1 X10.064 Y-14.603
G1 X9.516 Y-14.640
G1 X8.966 Y-14.659
G1 X8.416 Y-14.659
G1 X7.866 Y-14.642
G1 X7.316 Y-14.606
G1 X6.769 Y-14.552
G1 X6.223 Y-14.480
G1 X5.680 Y-14.390
G1 X5.140 Y-14.282
G1 X4.604 Y-14.156
G1 X4.072 Y-14.013
G1 X3.546 Y-13.852
G1 X3.025 Y-13.674
G1 X2.510 Y-13.479
G1 X2.002 Y-13.267
G1 X1.501 Y-13.038
G1 X1.008 Y-12.793
G1 X0.523 Y-12.532
G1 X0.047 Y-12.255
G1 X-0.420 Y-11.962
G1 X-0.876 Y-11.654
G1 X-1.322 Y-11.331
G1 X-1.758 Y-10.994
G1 X-2.181 Y-10.642
G1 X-2.594 Y-10.276
G1 X-2.993 Y-9.898
G1 X-3.380 Y-9.506
G1 X-3.754 Y-9.101
G1 X-4.114 Y-8.685
G1 X-4.461 Y-8.257
G1 X-4.793 Y-7.818
G1 X-5.110 Y-7.368
G1 X-5.412 Y-6.907
G1 X-5.699 Y-6.437
G1 X-5.970 Y-5.958
G1 X-6.225 Y-5.471
G1 X-6.464 Y-4.975
G1 X-6.686 Y-4.471
G1 X-6.892 Y-3.961
G1 X-7.080 Y-3.444
G1 X-7.252 Y-2.921
G1 X-7.406 Y-2.393
G1 X-7.542 Y-1.860
G1 X-7.661 Y-1.323
G1 X-7.762 Y-0.783
G1 X-7.845 Y-0.239
G1 X-7.909 Y0.307
G1 X-7.956 Y0.854
G1 X-7.985 Y1.403
G1 X-7.995 Y1.953
G1 X-7.988 Y2.502
G1 X-7.962 Y3.051
G1 X-7.918 Y3.598
G1 X-7.856 Y4.144
G1 X-7.775 Y4.687
G1 X-7.677 Y5.227
G1 X-7.561 Y5.764
G1 X-7.428 Y6.296
G1 X-7.277 Y6.824
G1 X-7.108 Y7.346
G1 X-6.923 Y7.862
G1 X-6.720 Y8.372
G1 X-6.501 Y8.874
G1 X-6.265 Y9.369
G1 X-6.013 Y9.856
G1 X-5.744 Y10.334
G1 X-5.461 Y10.802
G1 X-5.162 Y11.261
G1 X-4.848 Y11.710
G1 X-4.519 Y12.148
G1 X-4.176 Y12.575
G1 X-3.819 Y12.990
G1 X-3.448 Y13.393
G1 X-3.065 Y13.783
G1 X-2.668 Y14.160
G1 X-2.260 Y14.524
G1 X-1.839 Y14.874
G1 X-1.408 Y15.210
G1 X-0.965 Y15.531
G1 X-0.512 Y15.837
G1 X-0.050 Y16.128
G1 X0.423 Y16.403
G1 X0.903 Y16.663
G1 X1.393 Y16.906
G1 X1.890 Y17.133
G1 X2.394 Y17.343
G1 X2.904 Y17.536
G1 X3.421 Y17.712
G1 X3.944 Y17.870
G1 X4.471 Y18.012
G1 X5.002 Y18.135
G0 Z10
G0 X12.969 Y-13.646
Z10
Z2
G1 Z-0.125 F80
G1 X12.969 Y-13.646 F200
G1 X12.440 Y-13.795
G1 X11.906 Y-13.926
G1 X11.368 Y-14.040
G1 X10.826 Y-14.135
G1 X10.282 Y-14.213
G1 X9.735 Y-14.273
G1 X9.187 Y-14.314
G1 X8.637 Y-14.338
G1 X8.087 Y-14.343
G1 X7.536 Y-14.330
G1 X6.987 Y-14.299
G1 X6.439 Y-14.250
G1 X5.892 Y-14.183
G1 X5.349 Y-14.097
G1 X4.808 Y-13.994
G1 X4.271 Y-13.873
G1 X3.738 Y-13.734
G1 X3.210 Y-13.578
G1 X2.687 Y-13.404
G1 X2.171 Y-13.214
G1 X1.661 Y-13.006
G1 X1.158 Y-12.781
G1 X0.663 Y-12.541
G1 X0.176 Y-12.283
G1 X-0.303 Y-12.010
G1 X-0.772 Y-11.721
G1 X-1.231 Y-11.417
G1 X-1.680 Y-11.098
G1 X-2.118 Y-10.765
G1 X-2.545 Y-10.416
G1 X-2.960 Y-10.055
G1 X-3.363 Y-9.679
G1 X-3.753 Y-9.291
G1 X-4.130 Y-8.890
G1 X-4.494 Y-8.476
G1 X-4.844 Y-8.051
G1 X-5.180 Y-7.615
G1 X-5.501 Y-7.167
G1 X-5.807 Y-6.710
G1 X-6.098 Y-6.242
G1 X-6.373 Y-5.766
G1 X-6.632 Y-5.280
G1 X-6.875 Y-4.786
G1 X-7.102 Y-4.285
G1 X-7.312 Y-3.776
G1 X-7.505 Y-3.261
G1 X-7.680 Y-2.740
G1 X-7.839 Y-2.213
G1 X-7.980 Y-1.682
G1 X-8.103 Y-1.146
G1 X-8.208 Y-0.606
G1 X-8.296 Y-0.063
G1 X-8.365 Y0.482
G1 X-8.417 Y1.029
G1 X-8.450 Y1.578
G1 X-8.465 Y2.127
G1 X-8.462 Y2.676
G1 X-8.441 Y3.225
G1 X-8.402 Y3.773
G1 X-8.344 Y4.319
G1 X-8.269 Y4.863
G1 X-8.175 Y5.404
G1 X-8.064 Y5.941
G1 X-7.935 Y6.474
G1 X-7.788 Y7.003
G1 X-7.624 Y7.527
G1 X-7.443 Y8.044
G1 X-7.244 Y8.555
G1 X-7.029 Y9.060
G1 X-6.798 Y9.557
G1 X-6.550 Y10.045
G1 X-6.286 Y10.525
G1 X-6.006 Y10.996
G1 X-5.711 Y11.458
G1 X-5.400 Y11.909
G1 X-5.075 Y12.350
G1 X-4.736 Y12.779
G1 X-4.382 Y13.197
G1 X-4.015 Y13.603
G1 X-3.635 Y13.997
G1 X-3.242 Y14.377
G1 X-2.837 Y14.744
G1 X-2.419 Y15.098
G1 X-1.990 Y15.437
G1 X-1.551 Y15.762
G1 X-1.100 Y16.071
G1 X-0.640 Y16.366
G1 X-0.170 Y16.645
G1 X0.308 Y16.909
G1 X0.795 Y17.156
G1 X1.290 Y17.387
G1 X1.793 Y17.601
G1 X2.302 Y17.798
G1 X2.817 Y17.978
G1 X3.338 Y18.141
G1 X3.864 Y18.287
G1 X4.394 Y18.415
G0 Z10
G0 X13.662 Y-12.947
Z10
Z2
G1 Z-0.125 F80
G1 X13.662 Y-12.947 F200
G1 X13.146 Y-13.135
G1 X12.623 Y-13.305
G1 X12.095 Y-13.459
G1 X11.562 Y-13.594
G1 X11.025 Y-13.713
G1 X10.484 Y-13.813
G1 X9.940 Y-13.895
G1 X9.394 Y-13.960
G1 X8.846 Y-14.006
G1 X8.296 Y-14.034
G1 X7.746 Y-14.044
G1 X7.196 Y-14.036
G1 X6.646 Y-14.009
G1 X6.097 Y-13.965
G1 X5.550 Y-13.902
G1 X5.006 Y-13.822
G1 X4.464 Y-13.723
G1 X3.926 Y-13.606
G1 X3.392 Y-13.472
G1 X2.863 Y-13.321
G1 X2.339 Y-13.151
G1 X1.820 Y-12.965
G1 X1.309 Y-12.762
G1 X0.804 Y-12.541
G1 X0.306 Y-12.305
G1 X-0.183 Y-12.052
G1 X-0.663 Y-11.783
G1 X-1.135 Y-11.498
G1 X-1.597 Y-11.198
G1 X-2.048 Y-10.882
G1 X-2.489 Y-10.553
G1 X-2.919 Y-10.208
G1 X-3.337 Y-9.850
G1 X-3.743 Y-9.478
G1 X-4.137 Y-9.093
G1 X-4.517 Y-8.695
G1 X-4.885 Y-8.285
G1 X-5.238 Y-7.863
G1 X-5.578 Y-7.429
G1 X-5.903 Y-6.985
G1 X-6.212 Y-6.530
G1 X-6.507 Y-6.065
G1 X-6.786 Y-5.591
G1 X-7.050 Y-5.107
G1 X-7.297 Y-4.616
G1 X-7.528 Y-4.116
G1 X-7.742 Y-3.609
G1 X-7.939 Y-3.096
G1 X-8.119 Y-2.576
G1 X-8.282 Y-2.051
G1 X-8.428 Y-1.521
G1 X-8.556 Y-0.986
G1 X-8.666 Y-0.447
G1 X-8.758 Y0.095
G1 X-8.832 Y0.639
G1 X-8.888 Y1.186
G1 X-8.926 Y1.734
G1 X-8.946 Y2.283
G1 X-8.947 Y2.833
G1 X-8.931 Y3.381
G1 X-8.896 Y3.929
G1 X-8.843 Y4.476
G1 X-8.772 Y5.020
G1 X-8.683 Y5.562
G1 X-8.576 Y6.100
G1 X-8.452 Y6.634
G1 X-8.310 Y7.164
G1 X-8.150 Y7.689
G1 X-7.973 Y8.208
G1 X-7.779 Y8.721
G1 X-7.568 Y9.227
G1 X-7.341 Y9.725
G1 X-7.097 Y10.216
G1 X-6.837 Y10.698
G1 X-6.561 Y11.172
G1 X-6.270 Y11.636
G1 X-5.964 Y12.089
G1 X-5.642 Y12.533
G1 X-5.307 Y12.965
G1 X-4.957 Y13.386
G1 X-4.593 Y13.795
G1 X-4.216 Y14.191
G1 X-3.826 Y14.575
G1 X-3.424 Y14.945
G1 X-3.010 Y15.302
G1 X-2.584 Y15.645
G1 X-2.147 Y15.973
G1 X-1.699 Y16.287
G1 X-1.242 Y16.585
G1 X-0.774 Y16.868
G1 X-0.298 Y17.135
G1 X0.187 Y17.387
G1 X0.680 Y17.622
G1 X1.181 Y17.840
G1 X1.688 Y18.041
G1 X2.202 Y18.226
G1 X2.721 Y18.393
G1 X3.246 Y18.543
G0 Z10
G0 X14.311 Y-12.180
Z10
Z2
G1 Z-0.125 F80
G1 X14.311 Y-12.180 F200
G1 X13.810 Y-12.405
G1 X13.302 Y-12.614
G1 X12.787 Y-12.807
G1 X12.265 Y-12.982
G1 X11.739 Y-13.140
G1 X11.207 Y-13.280
G1 X10.671 Y-13.403
G1 X10.131 Y-13.508
G1 X9.588 Y-13.595
G1 X9.042 Y-13.664
G1 X8.494 Y-13.715
G1 X7.945 Y-13.747
G1 X7.394 Y-13.762
G1 X6.844 Y-13.758
G1 X6.294 Y-13.737
G1 X5.745 Y-13.697
G1 X5.198 Y-13.639
G1 X4.652 Y-13.563
G1 X4.110 Y-13.469
G1 X3.571 Y-13.357
G1 X3.035 Y-13.227
G1 X2.505 Y-13.080
G1 X1.979 Y-12.915
G1 X1.459 Y-12.734
G1 X0.946 Y-12.535
G1 X0.439 Y-12.319
G1 X-0.060 Y-12.086
G1 X-0.551 Y-11.837
G1 X-1.034 Y-11.572
G1 X-1.508 Y-11.292
G1 X-1.972 Y-10.996
G1 X-2.427 Y-10.684
G1 X-2.870 Y-10.358
G1 X-3.303 Y-10.017
G1 X-3.724 Y-9.663
G1 X-4.134 Y-9.294
G1 X-4.531 Y-8.912
G1 X-4.915 Y-8.518
G1 X-5.285 Y-8.111
G1 X-5.642 Y-7.692
G1 X-5.985 Y-7.261
G1 X-6.314 Y-6.819
G1 X-6.628 Y-6.367
G1 X-6.927 Y-5.905
G1 X-7.210 Y-5.433
G1 X-7.477 Y-4.952
G1 X-7.729 Y-4.463
G1 X-7.964 Y-3.965
G1 X-8.182 Y-3.460
G1 X-8.384 Y-2.949
G1 X-8.568 Y-2.431
G1 X-8.736 Y-1.907
G1 X-8.886 Y-1.378
G1 X-9.018 Y-0.844
G1 X-9.132 Y-0.306
G1 X-9.229 Y0.235
G1 X-9.308 Y0.779
G1 X-9.368 Y1.325
G1 X-9.411 Y1.872
G1 X-9.435 Y2.421
G1 X-9.442 Y2.970
G1 X-9.430 Y3.519
G1 X-9.400 Y4.067
G1 X-9.351 Y4.614
G1 X-9.285 Y5.159
G1 X-9.201 Y5.701
G1 X-9.099 Y6.240
G1 X-8.979 Y6.776
G1 X-8.841 Y7.307
G1 X-8.686 Y7.833
G1 X-8.513 Y8.353
G1 X-8.324 Y8.867
G1 X-8.117 Y9.375
G1 X-7.894 Y9.875
G1 X-7.654 Y10.368
G1 X-7.398 Y10.852
G1 X-7.127 Y11.328
G1 X-6.839 Y11.794
G1 X-6.537 Y12.250
G1 X-6.219 Y12.696
G1 X-5.887 Y13.131
G1 X-5.541 Y13.555
G1 X-5.181 Y13.967
G1 X-4.807 Y14.366
G1 X-4.421 Y14.753
G1 X-4.021 Y15.127
G1 X-3.610 Y15.487
G1 X-3.187 Y15.833
G1 X-2.753 Y16.165
G1 X-2.308 Y16.483
G1 X-1.853 Y16.785
G1 X-1.388 Y17.072
G1 X-0.914 Y17.343
G1 X-0.431 Y17.598
G1 X0.060 Y17.837
G1 X0.558 Y18.059
G1 X1.064 Y18.265
G1 X1.576 Y18.454
G1 X2.094 Y18.625
G1 X2.617 Y18.779
G0 Z10
G0 X15.384 Y-11.069
Z10
Z2
G1 Z-0.125 F80
G1 X15.384 Y-11.069 F200
G1 X14.910 Y-11.347
G1 X14.427 Y-11.610
G1 X13.936 Y-11.856
G1 X13.437 Y-12.086
G1 X12.930 Y-12.300
G1 X12.417 Y-12.496
G1 X11.897 Y-12.676
G1 X11.372 Y-12.838
G1 X10.841 Y-12.983
G1 X10.306 Y-13.110
G1 X9.767 Y-13.220
G1 X9.225 Y-13.311
G1 X8.679 Y-13.385
G1 X8.132 Y-13.441
G1 X7.583 Y-13.478
G1 X7.033 Y-13.498
G1 X6.482 Y-13.499
G1 X5.932 Y-13.482
G1 X5.383 Y-13.447
G1 X4.835 Y-13.393
G1 X4.289 Y-13.322
G1 X3.745 Y-13.232
G1 X3.205 Y-13.125
G1 X2.669 Y-13.000
G1 X2.137 Y-12.857
G1 X1.610 Y-12.697
G1 X1.089 Y-12.520
G1 X0.574 Y-12.325
G1 X0.065 Y-12.114
G1 X-0.436 Y-11.885
G1 X-0.930 Y-11.641
G1 X-1.415 Y-11.380
G1 X-1.891 Y-11.103
G1 X-2.358 Y-10.811
G1 X-2.815 Y-10.504
G1 X-3.261 Y-10.181
G1 X-3.697 Y-9.844
G1 X-4.121 Y-9.493
G1 X-4.533 Y-9.128
G1 X-4.934 Y-8.750
G1 X-5.321 Y-8.359
G1 X-5.695 Y-7.955
G1 X-6.056 Y-7.539
G1 X-6.402 Y-7.111
G1 X-6.735 Y-6.672
G1 X-7.052 Y-6.223
G1 X-7.355 Y-5.763
G1 X-7.642 Y-5.294
G1 X-7.914 Y-4.815
G1 X-8.169 Y-4.328
G1 X-8.409 Y-3.833
G1 X-8.631 Y-3.330
G1 X-8.837 Y-2.820
G1 X-9.026 Y-2.303
G1 X-9.198 Y-1.781
G1 X-9.352 Y-1.253
G1 X-9.489 Y-0.721
G1 X-9.608 Y-0.184
G1 X-9.709 Y0.356
G1 X-9.793 Y0.899
G1 X-9.858 Y1.444
G1 X-9.905 Y1.992
G1 X-9.934 Y2.540
G1 X-9.945 Y3.089
G1 X-9.938 Y3.638
G1 X-9.912 Y4.187
G1 X-9.869 Y4.734
G1 X-9.807 Y5.279
G1 X-9.727 Y5.822
G1 X-9.630 Y6.362
G1 X-9.514 Y6.898
G1 X-9.381 Y7.430
G1 X-9.230 Y7.957
G1 X-9.062 Y8.479
G1 X-8.877 Y8.995
G1 X-8.675 Y9.504
G1 X-8.456 Y10.006
G1 X-8.220 Y10.501
G1 X-7.969 Y10.987
G1 X-7.701 Y11.465
G1 X-7.417 Y11.933
G1 X-7.119 Y12.392
G1 X-6.805 Y12.840
G1 X-6.477 Y13.278
G1 X-6.134 Y13.705
G1 X-5.777 Y14.119
G1 X-5.407 Y14.522
G1 X-5.024 Y14.912
G1 X-4.628 Y15.289
G1 X-4.220 Y15.652
G1 X-3.800 Y16.002
G1 X-3.368 Y16.338
G1 X-2.926 Y16.659
G1 X-2.474 Y16.965
G1 X-2.011 Y17.255
G1 X-1.540 Y17.530
G1 X-1.059 Y17.789
G1 X-0.570 Y18.032
G1 X-0.073 Y18.259
G1 X0.430 Y18.469
G1 X0.941 Y18.662
G1 X1.457 Y18.837
G0 Z10
G0 X15.905 Y-10.141
Z10
Z2
G1 Z-0.125 F80
G1 X15.905 Y-10.141 F200
G1 X15.454 Y-10.453
G1 X14.992 Y-10.751
G1 X14.521 Y-11.033
G1 X14.040 Y-11.300
G1 X13.551 Y-11.551
G1 X13.054 Y-11.785
G1 X12.549 Y-12.003
G1 X12.037 Y-12.204
G1 X11.519 Y-12.388
G1 X10.995 Y-12.555
G1 X10.466 Y-12.704
G1 X9.932 Y-12.836
G1 X9.393 Y-12.950
G1 X8.852 Y-13.046
G1 X8.307 Y-13.125
G1 X7.760 Y-13.185
G1 X7.211 Y-13.227
G1 X6.661 Y-13.251
G1 X6.111 Y-13.257
G1 X5.560 Y-13.245
G1 X5.011 Y-13.214
G1 X4.462 Y-13.165
G1 X3.916 Y-13.099
G1 X3.372 Y-13.014
G1 X2.831 Y-12.911
G1 X2.293 Y-12.791
G1 X1.760 Y-12.653
G1 X1.232 Y-12.497
G1 X0.709 Y-12.324
G1 X0.192 Y-12.134
G1 X-0.318 Y-11.927
G1 X-0.821 Y-11.703
G1 X-1.317 Y-11.462
G1 X-1.804 Y-11.206
G1 X-2.283 Y-10.933
G1 X-2.752 Y-10.645
G1 X-3.212 Y-10.341
G1 X-3.661 Y-10.023
G1 X-4.099 Y-9.690
G1 X-4.527 Y-9.342
G1 X-4.942 Y-8.981
G1 X-5.345 Y-8.606
G1 X-5.736 Y-8.218
G1 X-6.114 Y-7.817
G1 X-6.478 Y-7.404
G1 X-6.828 Y-6.980
G1 X-7.164 Y-6.544
G1 X-7.485 Y-6.097
G1 X-7.792 Y-5.640
G1 X-8.083 Y-5.173
G1 X-8.359 Y-4.697
G1 X-8.618 Y-4.212
G1 X-8.862 Y-3.719
G1 X-9.089 Y-3.218
G1 X-9.299 Y-2.710
G1 X-9.492 Y-2.195
G1 X-9.668 Y-1.674
G1 X-9.827 Y-1.148
G1 X-9.969 Y-0.617
G1 X-10.092 Y-0.081
G1 X-10.198 Y0.458
G1 X-10.286 Y1.000
G1 X-10.356 Y1.545
G1 X-10.408 Y2.092
G1 X-10.441 Y2.640
G1 X-10.457 Y3.189
G1 X-10.454 Y3.738
G1 X-10.433 Y4.286
G1 X-10.394 Y4.834
G1 X-10.337 Y5.380
G1 X-10.262 Y5.923
G1 X-10.169 Y6.463
G1 X-10.058 Y7.001
G1 X-9.929 Y7.534
G1 X-9.783 Y8.062
G1 X-9.620 Y8.585
G1 X-9.439 Y9.102
G1 X-9.241 Y9.613
G1 X-9.026 Y10.117
G1 X-8.795 Y10.614
G1 X-8.547 Y11.102
G1 X-8.283 Y11.582
G1 X-8.004 Y12.053
G1 X-7.709 Y12.514
G1 X-7.399 Y12.965
G1 X-7.075 Y13.405
G1 X-6.736 Y13.834
G1 X-6.382 Y14.252
G1 X-6.016 Y14.658
G1 X-5.636 Y15.051
G1 X-5.243 Y15.431
G1 X-4.838 Y15.798
G1 X-4.421 Y16.151
G1 X-3.992 Y16.490
G1 X-3.553 Y16.814
G1 X-3.103 Y17.124
G1 X-2.643 Y17.418
G1 X-2.174 Y17.697
G1 X-1.695 Y17.961
G1 X-1.209 Y18.208
G1 X-0.714 Y18.438
G1 X-0.212 Y18.652
G1 X0.297 Y18.849
G0 Z10
G0 X16.780 Y-8.797
Z10
Z2
G1 Z-0.125 F80
G1 X16.780 Y-8.797 F200
G1 X16.364 Y-9.157
G1 X15.938 Y-9.502
G1 X15.499 Y-9.833
G1 X15.051 Y-10.150
G1 X14.591 Y-10.452
G1 X14.122 Y-10.738
G1 X13.644 Y-11.009
G1 X13.157 Y-11.264
G1 X12.662 Y-11.502
G1 X12.159 Y-11.724
G1 X11.648 Y-11.930
G1 X11.132 Y-12.118
G1 X10.609 Y-12.289
G1 X10.081 Y-12.443
G1 X9.548 Y-12.580
G1 X9.011 Y-12.698
G1 X8.470 Y-12.799
G1 X7.926 Y-12.882
G1 X7.379 Y-12.947
G1 X6.831 Y-12.994
G1 X6.281 Y-13.023
G1 X5.731 Y-13.033
G1 X5.180 Y-13.026
G1 X4.630 Y-13.000
G1 X4.081 Y-12.956
G1 X3.534 Y-12.894
G1 X2.989 Y-12.814
G1 X2.447 Y-12.716
G1 X1.909 Y-12.600
G1 X1.375 Y-12.466
G1 X0.845 Y-12.315
G1 X0.321 Y-12.147
G1 X-0.198 Y-11.961
G1 X-0.710 Y-11.758
G1 X-1.215 Y-11.538
G1 X-1.712 Y-11.302
G1 X-2.202 Y-11.050
G1 X-2.683 Y-10.781
G1 X-3.155 Y-10.497
G1 X-3.617 Y-10.197
G1 X-4.069 Y-9.883
G1 X-4.510 Y-9.553
G1 X-4.940 Y-9.210
G1 X-5.358 Y-8.852
G1 X-5.765 Y-8.480
G1 X-6.159 Y-8.096
G1 X-6.540 Y-7.698
G1 X-6.907 Y-7.289
G1 X-7.261 Y-6.867
G1 X-7.601 Y-6.434
G1 X-7.926 Y-5.990
G1 X-8.237 Y-5.536
G1 X-8.532 Y-5.071
G1 X-8.811 Y-4.598
G1 X-9.075 Y-4.115
G1 X-9.323 Y-3.624
G1 X-9.554 Y-3.125
G1 X-9.768 Y-2.619
G1 X-9.966 Y-2.105
G1 X-10.147 Y-1.586
G1 X-10.310 Y-1.061
G1 X-10.456 Y-0.532
G1 X-10.584 Y0.003
G1 X-10.694 Y0.541
G1 X-10.787 Y1.083
G1 X-10.861 Y1.627
G1 X-10.918 Y2.173
G1 X-10.956 Y2.721
G1 X-10.976 Y3.269
G1 X-10.978 Y3.818
G1 X-10.962 Y4.367
G1 X-10.927 Y4.914
G1 X-10.875 Y5.460
G1 X-10.804 Y6.004
G1 X-10.716 Y6.546
G1 X-10.609 Y7.083
G1 X-10.485 Y7.617
G1 X-10.344 Y8.147
G1 X-10.184 Y8.671
G1 X-10.008 Y9.190
G1 X-9.814 Y9.702
G1 X-9.604 Y10.208
G1 X-9.377 Y10.706
G1 X-9.133 Y11.197
G1 X-8.874 Y11.679
G1 X-8.598 Y12.152
G1 X-8.307 Y12.615
G1 X-8.001 Y13.069
G1 X-7.680 Y13.512
G1 X-7.345 Y13.944
G1 X-6.995 Y14.364
G1 X-6.632 Y14.773
G1 X-6.255 Y15.169
G1 X-5.866 Y15.552
G1 X-5.464 Y15.923
G1 X-5.050 Y16.279
G1 X-4.624 Y16.622
G1 X-4.188 Y16.950
G1 X-3.740 Y17.263
G1 X-3.283 Y17.561
G1 X-2.816 Y17.844
G1 X-2.340 Y18.111
G1 X-1.855 Y18.362
G1 X-1.362 Y18.597
G1 X-0.862 Y18.815
G0 Z10
G0 X17.517 Y-7.330
Z10
Z2
G1 Z-0.125 F80
G1 X17.517 Y-7.330 F200
G1 X17.143 Y-7.732
G1 X16.756 Y-8.122
G1 X16.356 Y-8.498
G1 X15.944 Y-8.861
G1 X15.520 Y-9.210
G1 X15.085 Y-9.545
G1 X14.638 Y-9.866
G1 X14.182 Y-10.171
G1 X13.715 Y-10.462
G1 X13.239 Y-10.736
G1 X12.754 Y-10.995
G1 X12.261 Y-11.238
G1 X11.759 Y-11.465
G1 X11.251 Y-11.674
G1 X10.736 Y-11.867
G1 X10.215 Y-12.043
G1 X9.688 Y-12.201
G1 X9.156 Y-12.342
G1 X8.620 Y-12.465
G1 X8.079 Y-12.571
G1 X7.536 Y-12.659
G1 X6.990 Y-12.728
G1 X6.442 Y-12.780
G1 X5.893 Y-12.813
G1 X5.342 Y-12.828
G1 X4.792 Y-12.825
G1 X4.241 Y-12.804
G1 X3.692 Y-12.765
G1 X3.145 Y-12.708
G1 X2.599 Y-12.632
G1 X2.056 Y-12.539
G1 X1.517 Y-12.428
G1 X0.981 Y-12.299
G1 X0.451 Y-12.152
G1 X-0.075 Y-11.988
G1 X-0.595 Y-11.806
G1 X-1.109 Y-11.608
G1 X-1.616 Y-11.393
G1 X-2.115 Y-11.161
G1 X-2.607 Y-10.913
G1 X-3.090 Y-10.648
G1 X-3.564 Y-10.368
G1 X-4.029 Y-10.072
G1 X-4.484 Y-9.762
G1 X-4.928 Y-9.436
G1 X-5.361 Y-9.096
G1 X-5.782 Y-8.742
G1 X-6.192 Y-8.374
G1 X-6.589 Y-7.993
G1 X-6.973 Y-7.599
G1 X-7.344 Y-7.192
G1 X-7.702 Y-6.774
G1 X-8.045 Y-6.344
G1 X-8.374 Y-5.902
G1 X-8.688 Y-5.451
G1 X-8.987 Y-4.989
G1 X-9.271 Y-4.518
G1 X-9.539 Y-4.037
G1 X-9.790 Y-3.548
G1 X-10.026 Y-3.051
G1 X-10.245 Y-2.547
G1 X-10.447 Y-2.036
G1 X-10.631 Y-1.518
G1 X-10.799 Y-0.995
G1 X-10.949 Y-0.466
G1 X-11.082 Y0.067
G1 X-11.197 Y0.604
G1 X-11.294 Y1.145
G1 X-11.373 Y1.688
G1 X-11.434 Y2.234
G1 X-11.477 Y2.781
G1 X-11.502 Y3.330
G1 X-11.509 Y3.878
G1 X-11.497 Y4.427
G1 X-11.467 Y4.975
G1 X-11.419 Y5.521
G1 X-11.353 Y6.066
G1 X-11.269 Y6.608
G1 X-11.168 Y7.146
G1 X-11.048 Y7.681
G1 X-10.911 Y8.212
G1 X-10.756 Y8.737
G1 X-10.584 Y9.257
G1 X-10.394 Y9.771
G1 X-10.188 Y10.279
G1 X-9.965 Y10.779
G1 X-9.726 Y11.271
G1 X-9.471 Y11.755
G1 X-9.199 Y12.230
G1 X-8.912 Y12.696
G1 X-8.610 Y13.152
G1 X-8.293 Y13.598
G1 X-7.961 Y14.032
G1 X-7.615 Y14.456
G1 X-7.255 Y14.867
G1 X-6.882 Y15.267
G1 X-6.496 Y15.653
G1 X-6.097 Y16.027
G1 X-5.686 Y16.387
G1 X-5.263 Y16.733
G1 X-4.829 Y17.064
G1 X-4.385 Y17.381
G1 X-3.930 Y17.683
G1 X-3.465 Y17.970
G1 X-2.991 Y18.241
G1 X-2.509 Y18.496
G1 X-2.018 Y18.734
G0 Z10
G0 X18.103 Y-5.755
Z10
Z2
G1 Z-0.125 F80
G1 X18.103 Y-5.755 F200
G1 X17.775 Y-6.195
G1 X17.432 Y-6.623
G1 X17.075 Y-7.040
G1 X16.705 Y-7.445
G1 X16.321 Y-7.838
G1 X15.924 Y-8.218
G1 X15.515 Y-8.584
G1 X15.094 Y-8.937
G1 X14.662 Y-9.276
G1 X14.218 Y-9.600
G1 X13.764 Y-9.910
G1 X13.300 Y-10.204
G1 X12.826 Y-10.483
G1 X12.343 Y-10.746
G1 X11.852 Y-10.993
G1 X11.352 Y-11.224
G1 X10.846 Y-11.438
G1 X10.332 Y-11.635
G1 X9.812 Y-11.815
G1 X9.287 Y-11.978
G1 X8.756 Y-12.124
G1 X8.221 Y-12.251
G1 X7.682 Y-12.361
G1 X7.139 Y-12.454
G1 X6.594 Y-12.528
G1 X6.046 Y-12.584
G1 X5.497 Y-12.622
G1 X4.947 Y-12.642
G1 X4.396 Y-12.644
G1 X3.846 Y-12.628
G1 X3.296 Y-12.593
G1 X2.748 Y-12.540
G1 X2.202 Y-12.470
G1 X1.658 Y-12.381
G1 X1.118 Y-12.274
G1 X0.581 Y-12.150
G1 X0.049 Y-12.008
G1 X-0.478 Y-11.848
G1 X-1.000 Y-11.671
G1 X-1.515 Y-11.477
G1 X-2.024 Y-11.266
G1 X-2.525 Y-11.039
G1 X-3.019 Y-10.794
G1 X-3.504 Y-10.534
G1 X-3.981 Y-10.258
G1 X-4.448 Y-9.967
G1 X-4.905 Y-9.660
G1 X-5.352 Y-9.338
G1 X-5.788 Y-9.002
G1 X-6.212 Y-8.651
G1 X-6.625 Y-8.287
G1 X-7.025 Y-7.909
G1 X-7.413 Y-7.518
G1 X-7.788 Y-7.115
G1 X-8.148 Y-6.699
G1 X-8.495 Y-6.272
G1 X-8.828 Y-5.834
G1 X-9.146 Y-5.385
G1 X-9.449 Y-4.926
G1 X-9.737 Y-4.457
G1 X-10.008 Y-3.979
G1 X-10.264 Y-3.492
G1 X-10.504 Y-2.997
G1 X-10.727 Y-2.495
G1 X-10.933 Y-1.985
G1 X-11.122 Y-1.469
G1 X-11.295 Y-0.948
G1 X-11.449 Y-0.420
G1 X-11.586 Y0.112
G1 X-11.706 Y0.648
G1 X-11.807 Y1.187
G1 X-11.891 Y1.730
G1 X-11.957 Y2.275
G1 X-12.004 Y2.822
G1 X-12.034 Y3.370
G1 X-12.045 Y3.919
G1 X-12.038 Y4.467
G1 X-12.013 Y5.015
G1 X-11.970 Y5.562
G1 X-11.908 Y6.107
G1 X-11.829 Y6.649
G1 X-11.732 Y7.189
G1 X-11.617 Y7.724
G1 X-11.484 Y8.256
G1 X-11.333 Y8.783
G1 X-11.166 Y9.304
G1 X-10.981 Y9.820
G1 X-10.779 Y10.329
G1 X-10.560 Y10.831
G1 X-10.325 Y11.325
G1 X-10.074 Y11.811
G1 X-9.806 Y12.288
G1 X-9.523 Y12.756
G1 X-9.225 Y13.215
G1 X-8.911 Y13.663
G1 X-8.583 Y14.100
G1 X-8.241 Y14.526
G1 X-7.885 Y14.941
G1 X-7.515 Y15.343
G1 X-7.132 Y15.733
G1 X-6.736 Y16.110
G1 X-6.328 Y16.473
G1 X-5.908 Y16.822
G1 X-5.477 Y17.158
G1 X-5.036 Y17.478
G1 X-4.583 Y17.784
G1 X-4.121 Y18.074
G1 X-3.650 Y18.349
G1 X-3.169 Y18.608
G0 Z10
G0 X18.527 Y-4.088
Z10
Z2
G1 Z-0.125 F80
G1 X18.527 Y-4.088 F200
G1 X18.248 Y-4.560
G1 X17.953 Y-5.023
G1 X17.643 Y-5.476
G1 X17.319 Y-5.918
G1 X16.980 Y-6.350
G1 X16.626 Y-6.770
G1 X16.259 Y-7.178
G1 X15.879 Y-7.574
G1 X15.485 Y-7.957
G1 X15.079 Y-8.327
G1 X14.661 Y-8.684
G1 X14.231 Y-9.026
G1 X13.790 Y-9.354
G1 X13.339 Y-9.668
G1 X12.877 Y-9.966
G1 X12.406 Y-10.249
G1 X11.925 Y-10.516
G1 X11.436 Y-10.767
G1 X10.938 Y-11.002
G1 X10.434 Y-11.221
G1 X9.922 Y-11.422
G1 X9.403 Y-11.607
G1 X8.879 Y-11.774
G1 X8.350 Y-11.924
G1 X7.815 Y-12.056
G1 X7.277 Y-12.171
G1 X6.735 Y-12.268
G1 X6.190 Y-12.347
G1 X5.643 Y-12.408
G1 X5.094 Y-12.451
G1 X4.544 Y-12.475
G1 X3.994 Y-12.482
G1 X3.443 Y-12.470
G1 X2.893 Y-12.440
G1 X2.345 Y-12.392
G1 X1.798 Y-12.326
G1 X1.254 Y-12.242
G1 X0.712 Y-12.140
G1 X0.175 Y-12.020
G1 X-0.358 Y-11.882
G1 X-0.887 Y-11.727
G1 X-1.410 Y-11.555
G1 X-1.927 Y-11.365
G1 X-2.438 Y-11.159
G1 X-2.941 Y-10.935
G1 X-3.437 Y-10.696
G1 X-3.924 Y-10.440
G1 X-4.403 Y-10.168
G1 X-4.873 Y-9.880
G1 X-5.332 Y-9.577
G1 X-5.782 Y-9.259
G1 X-6.221 Y-8.926
G1 X-6.648 Y-8.580
G1 X-7.064 Y-8.219
G1 X-7.467 Y-7.844
G1 X-7.858 Y-7.457
G1 X-8.236 Y-7.057
G1 X-8.601 Y-6.645
G1 X-8.951 Y-6.221
G1 X-9.288 Y-5.785
G1 X-9.609 Y-5.339
G1 X-9.916 Y-4.883
G1 X-10.208 Y-4.416
G1 X-10.484 Y-3.940
G1 X-10.743 Y-3.456
G1 X-10.987 Y-2.963
G1 X-11.215 Y-2.463
G1 X-11.425 Y-1.955
G1 X-11.619 Y-1.441
G1 X-11.795 Y-0.920
G1 X-11.954 Y-0.395
G1 X-12.096 Y0.136
G1 X-12.220 Y0.671
G1 X-12.326 Y1.210
G1 X-12.414 Y1.752
G1 X-12.485 Y2.296
G1 X-12.537 Y2.842
G1 X-12.571 Y3.390
G1 X-12.587 Y3.938
G1 X-12.584 Y4.487
G1 X-12.564 Y5.035
G1 X-12.525 Y5.582
G1 X-12.468 Y6.127
G1 X-12.394 Y6.670
G1 X-12.301 Y7.210
G1 X-12.190 Y7.747
G1 X-12.062 Y8.280
G1 X-11.916 Y8.808
G1 X-11.753 Y9.330
G1 X-11.572 Y9.847
G1 X-11.375 Y10.358
G1 X-11.160 Y10.862
G1 X-10.929 Y11.358
G1 X-10.682 Y11.846
G1 X-10.419 Y12.325
G1 X-10.139 Y12.796
G1 X-9.845 Y13.256
G1 X-9.535 Y13.707
G1 X-9.211 Y14.147
G1 X-8.872 Y14.576
G1 X-8.519 Y14.993
G1 X-8.153 Y15.399
G1 X-7.773 Y15.792
G1 X-7.381 Y16.171
G1 X-6.976 Y16.538
G1 X-6.559 Y16.891
G1 X-6.131 Y17.230
G1 X-5.692 Y17.554
G1 X-5.242 Y17.863
G1 X-4.782 Y18.157
G1 X-4.313 Y18.436
G0 Z10
G0 X18.777 Y-2.346
Z10
Z2
G1 Z-0.125 F80
G1 X18.777 Y-2.346 F200
G1 X18.551 Y-2.845
G1 X18.308 Y-3.337
G1 X18.049 Y-3.820
G1 X17.774 Y-4.295
G1 X17.483 Y-4.760
G1 X17.177 Y-5.216
G1 X16.856 Y-5.661
G1 X16.520 Y-6.096
G1 X16.170 Y-6.519
G1 X15.807 Y-6.930
G1 X15.430 Y-7.330
G1 X15.039 Y-7.716
G1 X14.636 Y-8.090
G1 X14.221 Y-8.450
G1 X13.794 Y-8.796
G1 X13.356 Y-9.128
G1 X12.907 Y-9.445
G1 X12.448 Y-9.747
G1 X11.979 Y-10.034
G1 X11.501 Y-10.305
G1 X11.013 Y-10.561
G1 X10.518 Y-10.800
G1 X10.015 Y-11.023
G1 X9.505 Y-11.229
G1 X8.988 Y-11.418
G1 X8.465 Y-11.590
G1 X7.937 Y-11.744
G1 X7.404 Y-11.881
G1 X6.867 Y-12.000
G1 X6.325 Y-12.102
G1 X5.781 Y-12.185
G1 X5.235 Y-12.251
G1 X4.686 Y-12.298
G1 X4.136 Y-12.328
G1 X3.586 Y-12.339
G1 X3.035 Y-12.332
G1 X2.485 Y-12.307
G1 X1.936 Y-12.263
G1 X1.389 Y-12.202
G1 X0.844 Y-12.123
G1 X0.302 Y-12.025
G1 X-0.237 Y-11.910
G1 X-0.771 Y-11.777
G1 X-1.301 Y-11.626
G1 X-1.826 Y-11.458
G1 X-2.344 Y-11.273
G1 X-2.857 Y-11.071
G1 X-3.362 Y-10.852
G1 X-3.860 Y-10.616
G1 X-4.349 Y-10.365
G1 X-4.831 Y-10.097
G1 X-5.303 Y-9.813
G1 X-5.765 Y-9.514
G1 X-6.217 Y-9.200
G1 X-6.659 Y-8.871
G1 X-7.089 Y-8.528
G1 X-7.508 Y-8.171
G1 X-7.914 Y-7.800
G1 X-8.309 Y-7.416
G1 X-8.690 Y-7.019
G1 X-9.058 Y-6.610
G1 X-9.412 Y-6.189
G1 X-9.752 Y-5.756
G1 X-10.077 Y-5.313
G1 X-10.388 Y-4.859
G1 X-10.683 Y-4.395
G1 X-10.963 Y-3.922
G1 X-11.227 Y-3.440
G1 X-11.475 Y-2.949
G1 X-11.707 Y-2.451
G1 X-11.922 Y-1.945
G1 X-12.120 Y-1.432
G1 X-12.300 Y-0.914
G1 X-12.464 Y-0.389
G1 X-12.610 Y0.140
G1 X-12.739 Y0.674
G1 X-12.849 Y1.212
G1 X-12.942 Y1.753
G1 X-13.017 Y2.296
G1 X-13.074 Y2.842
G1 X-13.112 Y3.390
G1 X-13.133 Y3.938
G1 X-13.135 Y4.486
G1 X-13.119 Y5.034
G1 X-13.085 Y5.581
G1 X-13.033 Y6.127
G1 X-12.963 Y6.671
G1 X-12.875 Y7.211
G1 X-12.769 Y7.749
G1 X-12.645 Y8.283
G1 X-12.503 Y8.812
G1 X-12.344 Y9.336
G1 X-12.168 Y9.854
G1 X-11.975 Y10.366
G1 X-11.765 Y10.871
G1 X-11.538 Y11.369
G1 X-11.295 Y11.859
G1 X-11.035 Y12.341
G1 X-10.760 Y12.814
G1 X-10.470 Y13.277
G1 X-10.164 Y13.730
G1 X-9.843 Y14.173
G1 X-9.508 Y14.604
G1 X-9.159 Y15.024
G1 X-8.796 Y15.433
G1 X-8.419 Y15.829
G1 X-8.030 Y16.212
G1 X-7.628 Y16.582
G1 X-7.215 Y16.938
G1 X-6.789 Y17.280
G1 X-6.353 Y17.608
G1 X-5.906 Y17.921
G0 Z10
G0 X18.999 Y-0.023
Z10
Z2
G1 Z-0.125 F80
G1 X18.999 Y-0.023 F200
G1 X18.845 Y-0.549
G1 X18.674 Y-1.069
G1 X18.486 Y-1.584
G1 X18.280 Y-2.093
G1 X18.058 Y-2.594
G1 X17.819 Y-3.088
G1 X17.564 Y-3.573
G1 X17.293 Y-4.050
G1 X17.006 Y-4.518
G1 X16.704 Y-4.977
G1 X16.387 Y-5.425
G1 X16.055 Y-5.862
G1 X15.709 Y-6.288
G1 X15.348 Y-6.703
G1 X14.975 Y-7.105
G1 X14.587 Y-7.495
G1 X14.188 Y-7.872
G1 X13.776 Y-8.236
G1 X13.352 Y-8.585
G1 X12.916 Y-8.921
G1 X12.470 Y-9.242
G1 X12.013 Y-9.548
G1 X11.547 Y-9.839
G1 X11.070 Y-10.115
G1 X10.585 Y-10.374
G1 X10.092 Y-10.618
G1 X9.591 Y-10.845
G1 X9.082 Y-11.055
G1 X8.567 Y-11.248
G1 X8.046 Y-11.425
G1 X7.519 Y-11.584
G1 X6.987 Y-11.725
G1 X6.451 Y-11.849
G1 X5.910 Y-11.955
G1 X5.367 Y-12.043
G1 X4.821 Y-12.114
G1 X4.273 Y-12.166
G1 X3.723 Y-12.200
G1 X3.173 Y-12.216
G1 X2.622 Y-12.213
G1 X2.072 Y-12.193
G1 X1.522 Y-12.154
G1 X0.974 Y-12.098
G1 X0.429 Y-12.023
G1 X-0.114 Y-11.930
G1 X-0.654 Y-11.819
G1 X-1.189 Y-11.691
G1 X-1.720 Y-11.545
G1 X-2.246 Y-11.381
G1 X-2.766 Y-11.201
G1 X-3.280 Y-11.003
G1 X-3.787 Y-10.788
G1 X-4.287 Y-10.557
G1 X-4.779 Y-10.309
G1 X-5.262 Y-10.045
G1 X-5.737 Y-9.766
G1 X-6.202 Y-9.471
G1 X-6.656 Y-9.161
G1 X-7.101 Y-8.836
G1 X-7.534 Y-8.496
G1 X-7.956 Y-8.143
G1 X-8.366 Y-7.775
G1 X-8.763 Y-7.395
G1 X-9.148 Y-7.001
G1 X-9.519 Y-6.595
G1 X-9.877 Y-6.177
G1 X-10.220 Y-5.748
G1 X-10.549 Y-5.307
G1 X-10.864 Y-4.856
G1 X-11.163 Y-4.395
G1 X-11.447 Y-3.924
G1 X-11.715 Y-3.444
G1 X-11.967 Y-2.956
G1 X-12.203 Y-2.459
G1 X-12.422 Y-1.955
G1 X-12.624 Y-1.444
G1 X-12.809 Y-0.927
G1 X-12.977 Y-0.404
G1 X-13.128 Y0.124
G1 X-13.261 Y0.656
G1 X-13.376 Y1.193
G1 X-13.473 Y1.733
G1 X-13.553 Y2.276
G1 X-13.614 Y2.821
G1 X-13.658 Y3.368
G1 X-13.683 Y3.916
G1 X-13.690 Y4.464
G1 X-13.678 Y5.013
G1 X-13.649 Y5.560
G1 X-13.601 Y6.106
G1 X-13.536 Y6.650
G1 X-13.452 Y7.191
G1 X-13.350 Y7.730
G1 X-13.231 Y8.264
G1 X-13.094 Y8.794
G1 X-12.940 Y9.320
G1 X-12.768 Y9.839
G1 X-12.579 Y10.353
G1 X-12.373 Y10.860
G1 X-12.150 Y11.360
G1 X-11.911 Y11.852
G1 X-11.656 Y12.335
G1 X-11.385 Y12.810
G1 X-11.098 Y13.276
G1 X-10.796 Y13.731
G1 X-10.479 Y14.177
G1 X-10.148 Y14.611
G1 X-9.802 Y15.034
G1 X-9.442 Y15.445
G1 X-9.070 Y15.844
G1 X-8.684 Y16.230
G1 X-8.285 Y16.604
G1 X-7.874 Y16.963
G1 X-7.452 Y17.309
G1 X-7.018 Y17.640
G0 Z10
G0 X18.822 Y1.823
Z10
Z2
G1 Z-0.125 F80
G1 X18.822 Y1.823 F200
G1 X18.726 Y1.284
G1 X18.612 Y0.748
G1 X18.480 Y0.216
G1 X18.330 Y-0.311
G1 X18.164 Y-0.833
G1 X17.979 Y-1.350
G1 X17.778 Y-1.860
G1 X17.560 Y-2.363
G1 X17.325 Y-2.859
G1 X17.074 Y-3.347
G1 X16.807 Y-3.826
G1 X16.525 Y-4.297
G1 X16.226 Y-4.757
G1 X15.913 Y-5.208
G1 X15.584 Y-5.648
G1 X15.242 Y-6.077
G1 X14.885 Y-6.495
G1 X14.514 Y-6.901
G1 X14.131 Y-7.294
G1 X13.734 Y-7.674
G1 X13.325 Y-8.041
G1 X12.904 Y-8.395
G1 X12.471 Y-8.734
G1 X12.028 Y-9.059
G1 X11.574 Y-9.369
G1 X11.109 Y-9.664
G1 X10.636 Y-9.944
G1 X10.153 Y-10.207
G1 X9.661 Y-10.455
G1 X9.162 Y-10.686
G1 X8.655 Y-10.901
G1 X8.142 Y-11.099
G1 X7.622 Y-11.280
G1 X7.096 Y-11.443
G1 X6.566 Y-11.589
G1 X6.030 Y-11.718
G1 X5.491 Y-11.828
G1 X4.948 Y-11.921
G1 X4.403 Y-11.996
G1 X3.855 Y-12.053
G1 X3.306 Y-12.092
G1 X2.755 Y-12.112
G1 X2.205 Y-12.115
G1 X1.654 Y-12.099
G1 X1.105 Y-12.065
G1 X0.556 Y-12.013
G1 X0.010 Y-11.943
G1 X-0.534 Y-11.855
G1 X-1.074 Y-11.748
G1 X-1.611 Y-11.625
G1 X-2.143 Y-11.483
G1 X-2.670 Y-11.324
G1 X-3.192 Y-11.148
G1 X-3.708 Y-10.955
G1 X-4.217 Y-10.744
G1 X-4.718 Y-10.517
G1 X-5.212 Y-10.274
G1 X-5.698 Y-10.014
G1 X-6.175 Y-9.739
G1 X-6.642 Y-9.448
G1 X-7.099 Y-9.141
G1 X-7.546 Y-8.820
G1 X-7.982 Y-8.484
G1 X-8.407 Y-8.134
G1 X-8.820 Y-7.771
G1 X-9.221 Y-7.393
G1 X-9.608 Y-7.003
G1 X-9.983 Y-6.601
G1 X-10.344 Y-6.186
G1 X-10.692 Y-5.759
G1 X-11.025 Y-5.321
G1 X-11.343 Y-4.873
G1 X-11.646 Y-4.414
G1 X-11.934 Y-3.946
G1 X-12.206 Y-3.468
G1 X-12.462 Y-2.982
G1 X-12.702 Y-2.488
G1 X-12.925 Y-1.986
G1 X-13.132 Y-1.477
G1 X-13.321 Y-0.962
G1 X-13.494 Y-0.440
G1 X-13.649 Y0.087
G1 X-13.786 Y0.618
G1 X-13.906 Y1.154
G1 X-14.008 Y1.693
G1 X-14.092 Y2.235
G1 X-14.158 Y2.780
G1 X-14.206 Y3.326
G1 X-14.235 Y3.874
G1 X-14.247 Y4.422
G1 X-14.240 Y4.970
G1 X-14.215 Y5.517
G1 X-14.172 Y6.064
G1 X-14.111 Y6.608
G1 X-14.032 Y7.150
G1 X-13.935 Y7.689
G1 X-13.820 Y8.225
G1 X-13.688 Y8.756
G1 X-13.538 Y9.282
G1 X-13.370 Y9.803
G1 X-13.186 Y10.318
G1 X-12.984 Y10.827
G1 X-12.766 Y11.329
G1 X-12.531 Y11.822
G1 X-12.279 Y12.308
G1 X-12.012 Y12.785
G1 X-11.730 Y13.253
G1 X-11.431 Y13.711
G1 X-11.118 Y14.159
G1 X-10.790 Y14.596
G1 X-10.448 Y15.022
G1 X-10.092 Y15.436
G1 X-9.723 Y15.838
G1 X-9.340 Y16.227
G1 X-8.945 Y16.604
G1 X-8.537 Y16.967
G0 Z10
G0 X18.471 Y4.226
Z10
Z2
G1 Z-0.125 F80
G1 X18.471 Y4.226 F200
G1 X18.451 Y3.679
G1 X18.414 Y3.132
G1 X18.358 Y2.588
G1 X18.284 Y2.045
G1 X18.193 Y1.505
G1 X18.083 Y0.968
G1 X17.956 Y0.435
G1 X17.811 Y-0.094
G1 X17.648 Y-0.618
G1 X17.468 Y-1.136
G1 X17.271 Y-1.648
G1 X17.058 Y-2.153
G1 X16.827 Y-2.651
G1 X16.580 Y-3.141
G1 X16.317 Y-3.622
G1 X16.038 Y-4.095
G1 X15.744 Y-4.559
G1 X15.434 Y-5.012
G1 X15.109 Y-5.455
G1 X14.770 Y-5.887
G1 X14.417 Y-6.308
G1 X14.050 Y-6.717
G1 X13.669 Y-7.113
G1 X13.276 Y-7.497
G1 X12.870 Y-7.868
G1 X12.452 Y-8.225
G1 X12.022 Y-8.568
G1 X11.581 Y-8.896
G1 X11.130 Y-9.210
G1 X10.668 Y-9.509
G1 X10.197 Y-9.793
G1 X9.716 Y-10.061
G1 X9.227 Y-10.312
G1 X8.729 Y-10.548
G1 X8.225 Y-10.767
G1 X7.713 Y-10.969
G1 X7.194 Y-11.154
G1 X6.670 Y-11.322
G1 X6.141 Y-11.473
G1 X5.606 Y-11.606
G1 X5.068 Y-11.721
G1 X4.526 Y-11.819
G1 X3.981 Y-11.898
G1 X3.434 Y-11.960
G1 X2.885 Y-12.003
G1 X2.335 Y-12.029
G1 X1.784 Y-12.036
G1 X1.233 Y-12.025
G1 X0.683 Y-11.995
G1 X0.135 Y-11.948
G1 X-0.412 Y-11.883
G1 X-0.957 Y-11.799
G1 X-1.498 Y-11.698
G1 X-2.036 Y-11.578
G1 X-2.569 Y-11.441
G1 X-3.098 Y-11.287
G1 X-3.621 Y-11.115
G1 X-4.138 Y-10.926
G1 X-4.649 Y-10.720
G1 X-5.152 Y-10.498
G1 X-5.648 Y-10.258
G1 X-6.136 Y-10.003
G1 X-6.615 Y-9.732
G1 X-7.085 Y-9.445
G1 X-7.545 Y-9.142
G1 X-7.994 Y-8.825
G1 X-8.433 Y-8.493
G1 X-8.861 Y-8.146
G1 X-9.277 Y-7.786
G1 X-9.681 Y-7.413
G1 X-10.072 Y-7.026
G1 X-10.450 Y-6.626
G1 X-10.815 Y-6.214
G1 X-11.166 Y-5.791
G1 X-11.502 Y-5.356
G1 X-11.824 Y-4.911
G1 X-12.131 Y-4.455
G1 X-12.423 Y-3.989
G1 X-12.699 Y-3.514
G1 X-12.959 Y-3.030
G1 X-13.203 Y-2.537
G1 X-13.431 Y-2.037
G1 X-13.641 Y-1.530
G1 X-13.835 Y-1.016
G1 X-14.012 Y-0.497
G1 X-14.172 Y0.029
G1 X-14.313 Y0.559
G1 X-14.438 Y1.093
G1 X-14.544 Y1.632
G1 X-14.633 Y2.173
G1 X-14.703 Y2.717
G1 X-14.756 Y3.263
G1 X-14.790 Y3.810
G1 X-14.806 Y4.358
G1 X-14.804 Y4.906
G1 X-14.784 Y5.454
G1 X-14.745 Y6.000
G1 X-14.689 Y6.545
G1 X-14.614 Y7.088
G1 X-14.522 Y7.628
G1 X-14.412 Y8.164
G1 X-14.283 Y8.696
G1 X-14.138 Y9.224
G1 X-13.975 Y9.746
G1 X-13.794 Y10.262
G1 X-13.597 Y10.773
G1 X-13.383 Y11.276
G1 X-13.152 Y11.772
G1 X-12.905 Y12.259
G1 X-12.642 Y12.738
G1 X-12.363 Y13.208
G1 X-12.069 Y13.669
G1 X-11.760 Y14.119
G1 X-11.435 Y14.559
G1 X-11.097 Y14.988
G1 X-10.744 Y15.405
G1 X-10.378 Y15.810
G0 Z10
G0 X17.788 Y6.612
Z10
Z2
G1 Z-0.125 F80
G1 X17.788 Y6.612 F200
G1 X17.846 Y6.068
G1 X17.886 Y5.523
G1 X17.908 Y4.976
G1 X17.911 Y4.428
G1 X17.896 Y3.881
G1 X17.863 Y3.334
G1 X17.812 Y2.789
G1 X17.743 Y2.245
G1 X17.656 Y1.704
G1 X17.551 Y1.166
G1 X17.428 Y0.632
G1 X17.287 Y0.102
G1 X17.129 Y-0.423
G1 X16.953 Y-0.942
G1 X16.761 Y-1.456
G1 X16.551 Y-1.963
G1 X16.325 Y-2.463
G1 X16.082 Y-2.955
G1 X15.823 Y-3.439
G1 X15.548 Y-3.914
G1 X15.258 Y-4.380
G1 X14.952 Y-4.836
G1 X14.631 Y-5.282
G1 X14.295 Y-5.717
G1 X13.945 Y-6.141
G1 X13.582 Y-6.553
G1 X13.205 Y-6.953
G1 X12.814 Y-7.340
G1 X12.412 Y-7.714
G1 X11.996 Y-8.075
G1 X11.570 Y-8.421
G1 X11.132 Y-8.754
G1 X10.683 Y-9.072
G1 X10.223 Y-9.375
G1 X9.754 Y-9.662
G1 X9.276 Y-9.934
G1 X8.789 Y-10.190
G1 X8.294 Y-10.430
G1 X7.790 Y-10.653
G1 X7.280 Y-10.860
G1 X6.764 Y-11.049
G1 X6.241 Y-11.222
G1 X5.712 Y-11.377
G1 X5.179 Y-11.515
G1 X4.642 Y-11.634
G1 X4.101 Y-11.737
G1 X3.557 Y-11.821
G1 X3.010 Y-11.887
G1 X2.461 Y-11.935
G1 X1.911 Y-11.965
G1 X1.361 Y-11.977
G1 X0.810 Y-11.971
G1 X0.260 Y-11.946
G1 X-0.289 Y-11.903
G1 X-0.837 Y-11.843
G1 X-1.382 Y-11.764
G1 X-1.924 Y-11.667
G1 X-2.463 Y-11.552
G1 X-2.997 Y-11.420
G1 X-3.527 Y-11.270
G1 X-4.052 Y-11.103
G1 X-4.571 Y-10.918
G1 X-5.083 Y-10.716
G1 X-5.588 Y-10.498
G1 X-6.086 Y-10.263
G1 X-6.576 Y-10.012
G1 X-7.057 Y-9.745
G1 X-7.530 Y-9.462
G1 X-7.992 Y-9.163
G1 X-8.444 Y-8.850
G1 X-8.886 Y-8.521
G1 X-9.317 Y-8.179
G1 X-9.736 Y-7.822
G1 X-10.143 Y-7.452
G1 X-10.537 Y-7.069
G1 X-10.918 Y-6.672
G1 X-11.287 Y-6.264
G1 X-11.641 Y-5.843
G1 X-11.981 Y-5.411
G1 X-12.307 Y-4.969
G1 X-12.618 Y-4.515
G1 X-12.913 Y-4.052
G1 X-13.193 Y-3.579
G1 X-13.458 Y-3.098
G1 X-13.706 Y-2.607
G1 X-13.938 Y-2.110
G1 X-14.153 Y-1.604
G1 X-14.351 Y-1.092
G1 X-14.532 Y-0.574
G1 X-14.696 Y-0.050
G1 X-14.842 Y0.479
G1 X-14.971 Y1.012
G1 X-15.082 Y1.549
G1 X-15.175 Y2.090
G1 X-15.250 Y2.633
G1 X-15.307 Y3.179
G1 X-15.346 Y3.725
G1 X-15.367 Y4.273
G1 X-15.369 Y4.821
G1 X-15.354 Y5.369
G1 X-15.320 Y5.916
G1 X-15.268 Y6.461
G1 X-15.198 Y7.004
G1 X-15.110 Y7.544
G1 X-15.004 Y8.081
G1 X-14.880 Y8.615
G1 X-14.739 Y9.143
G1 X-14.581 Y9.667
G1 X-14.405 Y10.185
G1 X-14.212 Y10.696
G1 X-14.002 Y11.201
G1 X-13.775 Y11.699
G1 X-13.532 Y12.189
G1 X-13.273 Y12.670
G1 X-12.998 Y13.142
G1 X-12.708 Y13.605
G1 X-12.402 Y14.058
G1 X-12.082 Y14.500
G1 X-11.747 Y14.932
G0 Z10
G0 X16.912 Y8.407
Z10
Z2
G1 Z-0.125 F80
G1 X16.912 Y8.407 F200
G1 X17.028 Y7.872
G1 X17.127 Y7.334
G1 X17.207 Y6.793
G1 X17.270 Y6.249
G1 X17.314 Y5.704
G1 X17.340 Y5.157
G1 X17.348 Y4.609
G1 X17.338 Y4.062
G1 X17.309 Y3.515
G1 X17.263 Y2.969
G1 X17.198 Y2.425
G1 X17.116 Y1.883
G1 X17.015 Y1.344
G1 X16.896 Y0.809
G1 X16.760 Y0.278
G1 X16.607 Y-0.249
G1 X16.435 Y-0.770
G1 X16.247 Y-1.285
G1 X16.042 Y-1.794
G1 X15.820 Y-2.296
G1 X15.581 Y-2.790
G1 X15.326 Y-3.277
G1 X15.055 Y-3.754
G1 X14.768 Y-4.223
G1 X14.466 Y-4.681
G1 X14.149 Y-5.130
G1 X13.817 Y-5.568
G1 X13.471 Y-5.995
G1 X13.111 Y-6.410
G1 X12.737 Y-6.813
G1 X12.350 Y-7.203
G1 X11.950 Y-7.581
G1 X11.538 Y-7.945
G1 X11.114 Y-8.295
G1 X10.679 Y-8.632
G1 X10.233 Y-8.953
G1 X9.776 Y-9.260
G1 X9.310 Y-9.552
G1 X8.834 Y-9.828
G1 X8.349 Y-10.088
G1 X7.855 Y-10.332
G1 X7.354 Y-10.559
G1 X6.846 Y-10.770
G1 X6.330 Y-10.964
G1 X5.809 Y-11.141
G1 X5.282 Y-11.301
G1 X4.750 Y-11.443
G1 X4.214 Y-11.568
G1 X3.674 Y-11.674
G1 X3.130 Y-11.763
G1 X2.584 Y-11.834
G1 X2.036 Y-11.887
G1 X1.486 Y-11.922
G1 X0.936 Y-11.938
G1 X0.385 Y-11.937
G1 X-0.165 Y-11.917
G1 X-0.715 Y-11.879
G1 X-1.263 Y-11.823
G1 X-1.809 Y-11.748
G1 X-2.352 Y-11.656
G1 X-2.891 Y-11.546
G1 X-3.427 Y-11.418
G1 X-3.958 Y-11.273
G1 X-4.484 Y-11.110
G1 X-5.004 Y-10.930
G1 X-5.518 Y-10.733
G1 X-6.026 Y-10.519
G1 X-6.526 Y-10.288
G1 X-7.018 Y-10.041
G1 X-7.501 Y-9.778
G1 X-7.976 Y-9.499
G1 X-8.441 Y-9.205
G1 X-8.896 Y-8.895
G1 X-9.340 Y-8.571
G1 X-9.773 Y-8.232
G1 X-10.195 Y-7.879
G1 X-10.605 Y-7.512
G1 X-11.003 Y-7.132
G1 X-11.388 Y-6.739
G1 X-11.759 Y-6.334
G1 X-12.117 Y-5.916
G1 X-12.461 Y-5.487
G1 X-12.790 Y-5.047
G1 X-13.105 Y-4.597
G1 X-13.405 Y-4.136
G1 X-13.689 Y-3.666
G1 X-13.957 Y-3.186
G1 X-14.209 Y-2.698
G1 X-14.445 Y-2.202
G1 X-14.664 Y-1.699
G1 X-14.867 Y-1.189
G1 X-15.052 Y-0.672
G1 X-15.221 Y-0.150
G1 X-15.371 Y0.378
G1 X-15.505 Y0.910
G1 X-15.620 Y1.446
G1 X-15.718 Y1.986
G1 X-15.797 Y2.528
G1 X-15.859 Y3.073
G1 X-15.902 Y3.619
G1 X-15.928 Y4.167
G1 X-15.935 Y4.715
G1 X-15.924 Y5.262
G1 X-15.895 Y5.809
G1 X-15.847 Y6.355
G1 X-15.782 Y6.899
G1 X-15.698 Y7.440
G1 X-15.597 Y7.977
G1 X-15.478 Y8.512
G1 X-15.341 Y9.041
G1 X-15.187 Y9.566
G1 X-15.015 Y10.085
G1 X-14.827 Y10.599
G1 X-14.621 Y11.105
G1 X-14.398 Y11.605
G1 X-14.160 Y12.096
G1 X-13.905 Y12.580
G1 X-13.634 Y13.054
G1 X-13.347 Y13.519
G0 Z10
G0 X15.658 Y10.648
Z10
Z2
G1 Z-0.125 F80
G1 X15.658 Y10.648 F200
G1 X15.848 Y10.135
G1 X16.021 Y9.617
G1 X16.177 Y9.092
G1 X16.315 Y8.563
G1 X16.436 Y8.030
G1 X16.539 Y7.492
G1 X16.624 Y6.952
G1 X16.690 Y6.408
G1 X16.739 Y5.863
G1 X16.770 Y5.316
G1 X16.783 Y4.769
G1 X16.777 Y4.221
G1 X16.753 Y3.674
G1 X16.711 Y3.128
G1 X16.651 Y2.583
G1 X16.573 Y2.040
G1 X16.477 Y1.501
G1 X16.363 Y0.964
G1 X16.231 Y0.432
G1 X16.082 Y-0.096
G1 X15.915 Y-0.619
G1 X15.731 Y-1.136
G1 X15.530 Y-1.646
G1 X15.312 Y-2.150
G1 X15.078 Y-2.646
G1 X14.827 Y-3.135
G1 X14.560 Y-3.615
G1 X14.277 Y-4.086
G1 X13.979 Y-4.547
G1 X13.666 Y-4.998
G1 X13.337 Y-5.439
G1 X12.995 Y-5.869
G1 X12.638 Y-6.287
G1 X12.268 Y-6.693
G1 X11.884 Y-7.087
G1 X11.487 Y-7.468
G1 X11.078 Y-7.836
G1 X10.657 Y-8.190
G1 X10.225 Y-8.530
G1 X9.781 Y-8.855
G1 X9.327 Y-9.166
G1 X8.863 Y-9.462
G1 X8.389 Y-9.742
G1 X7.907 Y-10.006
G1 X7.415 Y-10.254
G1 X6.916 Y-10.486
G1 X6.410 Y-10.701
G1 X5.896 Y-10.900
G1 X5.376 Y-11.081
G1 X4.851 Y-11.245
G1 X4.320 Y-11.392
G1 X3.785 Y-11.521
G1 X3.245 Y-11.633
G1 X2.702 Y-11.726
G1 X2.157 Y-11.802
G1 X1.609 Y-11.859
G1 X1.060 Y-11.898
G1 X0.510 Y-11.920
G1 X-0.041 Y-11.923
G1 X-0.592 Y-11.908
G1 X-1.142 Y-11.874
G1 X-1.690 Y-11.823
G1 X-2.236 Y-11.753
G1 X-2.780 Y-11.666
G1 X-3.320 Y-11.560
G1 X-3.857 Y-11.437
G1 X-4.390 Y-11.296
G1 X-4.917 Y-11.138
G1 X-5.439 Y-10.962
G1 X-5.954 Y-10.769
G1 X-6.464 Y-10.560
G1 X-6.965 Y-10.333
G1 X-7.459 Y-10.091
G1 X-7.945 Y-9.832
G1 X-8.422 Y-9.557
G1 X-8.889 Y-9.266
G1 X-9.347 Y-8.961
G1 X-9.794 Y-8.640
G1 X-10.230 Y-8.305
G1 X-10.655 Y-7.955
G1 X-11.068 Y-7.592
G1 X-11.469 Y-7.216
G1 X-11.857 Y-6.826
G1 X-12.232 Y-6.424
G1 X-12.593 Y-6.010
G1 X-12.941 Y-5.584
G1 X-13.274 Y-5.147
G1 X-13.592 Y-4.699
G1 X-13.896 Y-4.241
G1 X-14.184 Y-3.773
G1 X-14.456 Y-3.296
G1 X-14.712 Y-2.810
G1 X-14.952 Y-2.316
G1 X-15.176 Y-1.815
G1 X-15.383 Y-1.306
G1 X-15.572 Y-0.791
G1 X-15.745 Y-0.271
G1 X-15.900 Y0.256
G1 X-16.038 Y0.787
G1 X-16.158 Y1.322
G1 X-16.260 Y1.860
G1 X-16.344 Y2.402
G1 X-16.410 Y2.946
G1 X-16.458 Y3.492
G1 X-16.488 Y4.039
G1 X-16.500 Y4.587
G1 X-16.494 Y5.135
G1 X-16.469 Y5.682
G1 X-16.426 Y6.228
G1 X-16.365 Y6.772
G1 X-16.287 Y7.313
G1 X-16.190 Y7.852
G1 X-16.075 Y8.387
G1 X-15.943 Y8.918
G1 X-15.793 Y9.444
G1 X-15.626 Y9.964
G1 X-15.441 Y10.479
G1 X-15.240 Y10.987
G1 X-15.022 Y11.488
G0 Z10
G0 X14.358 Y12.267
Z10
Z2
G1 Z-0.125 F80
G1 X14.358 Y12.267 F200
G1 X14.602 Y11.778
G1 X14.830 Y11.282
G1 X15.042 Y10.778
G1 X15.236 Y10.267
G1 X15.414 Y9.749
G1 X15.574 Y9.226
G1 X15.716 Y8.698
G1 X15.842 Y8.166
G1 X15.949 Y7.629
G1 X16.038 Y7.089
G1 X16.110 Y6.546
G1 X16.163 Y6.001
G1 X16.199 Y5.455
G1 X16.216 Y4.907
G1 X16.215 Y4.360
G1 X16.195 Y3.812
G1 X16.158 Y3.265
G1 X16.103 Y2.720
G1 X16.029 Y2.177
G1 X15.937 Y1.636
G1 X15.828 Y1.099
G1 X15.701 Y0.565
G1 X15.556 Y0.036
G1 X15.394 Y-0.488
G1 X15.214 Y-1.007
G1 X15.017 Y-1.519
G1 X14.803 Y-2.025
G1 X14.573 Y-2.523
G1 X14.326 Y-3.014
G1 X14.063 Y-3.496
G1 X13.785 Y-3.970
G1 X13.490 Y-4.433
G1 X13.181 Y-4.887
G1 X12.856 Y-5.331
G1 X12.517 Y-5.764
G1 X12.164 Y-6.185
G1 X11.797 Y-6.594
G1 X11.417 Y-6.992
G1 X11.023 Y-7.376
G1 X10.617 Y-7.747
G1 X10.199 Y-8.105
G1 X9.770 Y-8.448
G1 X9.329 Y-8.778
G1 X8.878 Y-9.092
G1 X8.416 Y-9.392
G1 X7.945 Y-9.676
G1 X7.464 Y-9.944
G1 X6.975 Y-10.197
G1 X6.478 Y-10.433
G1 X5.973 Y-10.653
G1 X5.461 Y-10.855
G1 X4.943 Y-11.041
G1 X4.418 Y-11.210
G1 X3.889 Y-11.361
G1 X3.355 Y-11.495
G1 X2.816 Y-11.611
G1 X2.274 Y-11.709
G1 X1.730 Y-11.789
G1 X1.182 Y-11.851
G1 X0.633 Y-11.895
G1 X0.083 Y-11.921
G1 X-0.468 Y-11.929
G1 X-1.018 Y-11.919
G1 X-1.568 Y-11.890
G1 X-2.117 Y-11.843
G1 X-2.664 Y-11.778
G1 X-3.208 Y-11.695
G1 X-3.750 Y-11.595
G1 X-4.287 Y-11.476
G1 X-4.821 Y-11.340
G1 X-5.350 Y-11.186
G1 X-5.873 Y-11.015
G1 X-6.390 Y-10.826
G1 X-6.901 Y-10.621
G1 X-7.405 Y-10.399
G1 X-7.901 Y-10.160
G1 X-8.389 Y-9.906
G1 X-8.868 Y-9.635
G1 X-9.338 Y-9.348
G1 X-9.798 Y-9.047
G1 X-10.247 Y-8.730
G1 X-10.687 Y-8.398
G1 X-11.114 Y-8.053
G1 X-11.530 Y-7.693
G1 X-11.934 Y-7.320
G1 X-12.326 Y-6.934
G1 X-12.704 Y-6.535
G1 X-13.069 Y-6.124
G1 X-13.420 Y-5.701
G1 X-13.757 Y-5.266
G1 X-14.079 Y-4.821
G1 X-14.386 Y-4.366
G1 X-14.678 Y-3.901
G1 X-14.954 Y-3.426
G1 X-15.214 Y-2.943
G1 X-15.459 Y-2.451
G1 X-15.686 Y-1.951
G1 X-15.897 Y-1.445
G1 X-16.091 Y-0.932
G1 X-16.268 Y-0.412
G1 X-16.428 Y0.112
G1 X-16.570 Y0.642
G1 X-16.695 Y1.176
G1 X-16.801 Y1.714
G1 X-16.890 Y2.255
G1 X-16.961 Y2.798
G1 X-17.013 Y3.344
G1 X-17.048 Y3.891
G1 X-17.064 Y4.438
G1 X-17.062 Y4.986
G1 X-17.042 Y5.533
G1 X-17.004 Y6.079
G1 X-16.948 Y6.623
G1 X-16.873 Y7.166
G1 X-16.781 Y7.705
G1 X-16.671 Y8.241
G1 X-16.543 Y8.773
G1 X-16.398 Y9.300
G1 X-16.235 Y9.822
G0 Z10
G0 X12.578 Y14.226
Z10
Z2
G1 Z-0.125 F80
G1 X12.578 Y14.226 F200
G1 X12.889 Y13.776
G1 X13.184 Y13.317
G1 X13.464 Y12.848
G1 X13.729 Y12.370
G1 X13.977 Y11.883
G1 X14.209 Y11.388
G1 X14.425 Y10.885
G1 X14.624 Y10.376
G1 X14.805 Y9.860
G1 X14.970 Y9.338
G1 X15.117 Y8.812
G1 X15.247 Y8.280
G1 X15.358 Y7.744
G1 X15.452 Y7.205
G1 X15.528 Y6.663
G1 X15.586 Y6.118
G1 X15.626 Y5.572
G1 X15.648 Y5.024
G1 X15.652 Y4.476
G1 X15.637 Y3.929
G1 X15.604 Y3.382
G1 X15.553 Y2.836
G1 X15.484 Y2.292
G1 X15.397 Y1.750
G1 X15.292 Y1.212
G1 X15.170 Y0.677
G1 X15.029 Y0.147
G1 X14.871 Y-0.379
G1 X14.696 Y-0.899
G1 X14.503 Y-1.413
G1 X14.294 Y-1.921
G1 X14.068 Y-2.421
G1 X13.825 Y-2.914
G1 X13.566 Y-3.398
G1 X13.292 Y-3.874
G1 X13.001 Y-4.341
G1 X12.695 Y-4.797
G1 X12.375 Y-5.244
G1 X12.039 Y-5.679
G1 X11.690 Y-6.103
G1 X11.326 Y-6.516
G1 X10.949 Y-6.916
G1 X10.559 Y-7.304
G1 X10.156 Y-7.679
G1 X9.741 Y-8.040
G1 X9.314 Y-8.387
G1 X8.876 Y-8.720
G1 X8.428 Y-9.039
G1 X7.969 Y-9.342
G1 X7.500 Y-9.631
G1 X7.021 Y-9.903
G1 X6.534 Y-10.160
G1 X6.039 Y-10.400
G1 X5.536 Y-10.624
G1 X5.026 Y-10.831
G1 X4.509 Y-11.021
G1 X3.986 Y-11.195
G1 X3.458 Y-11.350
G1 X2.925 Y-11.489
G1 X2.388 Y-11.609
G1 X1.847 Y-11.712
G1 X1.303 Y-11.797
G1 X0.756 Y-11.864
G1 X0.207 Y-11.912
G1 X-0.343 Y-11.943
G1 X-0.893 Y-11.955
G1 X-1.444 Y-11.950
G1 X-1.994 Y-11.926
G1 X-2.543 Y-11.884
G1 X-3.091 Y-11.824
G1 X-3.636 Y-11.745
G1 X-4.178 Y-11.649
G1 X-4.717 Y-11.535
G1 X-5.251 Y-11.403
G1 X-5.781 Y-11.254
G1 X-6.306 Y-11.087
G1 X-6.825 Y-10.904
G1 X-7.337 Y-10.703
G1 X-7.843 Y-10.485
G1 X-8.341 Y-10.250
G1 X-8.831 Y-10.000
G1 X-9.312 Y-9.733
G1 X-9.785 Y-9.451
G1 X-10.247 Y-9.153
G1 X-10.700 Y-8.840
G1 X-11.141 Y-8.513
G1 X-11.572 Y-8.170
G1 X-11.991 Y-7.814
G1 X-12.398 Y-7.445
G1 X-12.793 Y-7.062
G1 X-13.174 Y-6.666
G1 X-13.543 Y-6.258
G1 X-13.897 Y-5.838
G1 X-14.237 Y-5.407
G1 X-14.563 Y-4.965
G1 X-14.874 Y-4.512
G1 X-15.170 Y-4.049
G1 X-15.450 Y-3.577
G1 X-15.715 Y-3.096
G1 X-15.963 Y-2.606
G1 X-16.195 Y-2.109
G1 X-16.410 Y-1.604
G1 X-16.609 Y-1.093
G1 X-16.790 Y-0.575
G1 X-16.954 Y-0.052
G1 X-17.100 Y0.477
G1 X-17.229 Y1.010
G1 X-17.341 Y1.546
G1 X-17.434 Y2.086
G1 X-17.509 Y2.629
G1 X-17.566 Y3.174
G1 X-17.605 Y3.720
G1 X-17.626 Y4.268
G1 X-17.629 Y4.815
G1 X-17.614 Y5.362
G1 X-17.580 Y5.909
G1 X-17.528 Y6.454
G1 X-17.458 Y6.996
G1 X-17.371 Y7.536
G0 Z10
G0 X11.261 Y15.158
Z10
Z2
G1 Z-0.125 F80
G1 X11.261 Y15.158 F200
G1 X11.604 Y14.733
G1 X11.933 Y14.297
G1 X12.248 Y13.850
G1 X12.547 Y13.393
G1 X12.831 Y12.926
G1 X13.100 Y12.450
G1 X13.352 Y11.965
G1 X13.588 Y11.472
G1 X13.808 Y10.972
G1 X14.011 Y10.464
G1 X14.197 Y9.949
G1 X14.366 Y9.429
G1 X14.518 Y8.903
G1 X14.652 Y8.373
G1 X14.768 Y7.838
G1 X14.866 Y7.299
G1 X14.947 Y6.757
G1 X15.010 Y6.213
G1 X15.054 Y5.667
G1 X15.080 Y5.120
G1 X15.089 Y4.572
G1 X15.079 Y4.024
G1 X15.050 Y3.477
G1 X15.004 Y2.930
G1 X14.940 Y2.386
G1 X14.857 Y1.843
G1 X14.757 Y1.304
G1 X14.638 Y0.768
G1 X14.503 Y0.237
G1 X14.349 Y-0.290
G1 X14.178 Y-0.812
G1 X13.990 Y-1.328
G1 X13.785 Y-1.837
G1 X13.563 Y-2.340
G1 X13.324 Y-2.834
G1 X13.070 Y-3.321
G1 X12.799 Y-3.799
G1 X12.512 Y-4.268
G1 X12.210 Y-4.728
G1 X11.893 Y-5.177
G1 X11.562 Y-5.615
G1 X11.216 Y-6.043
G1 X10.856 Y-6.458
G1 X10.482 Y-6.862
G1 X10.095 Y-7.253
G1 X9.695 Y-7.631
G1 X9.284 Y-7.996
G1 X8.860 Y-8.347
G1 X8.425 Y-8.684
G1 X7.978 Y-9.006
G1 X7.522 Y-9.313
G1 X7.055 Y-9.605
G1 X6.579 Y-9.882
G1 X6.095 Y-10.143
G1 X5.601 Y-10.387
G1 X5.100 Y-10.616
G1 X4.592 Y-10.827
G1 X4.077 Y-11.022
G1 X3.556 Y-11.200
G1 X3.029 Y-11.360
G1 X2.497 Y-11.503
G1 X1.960 Y-11.628
G1 X1.420 Y-11.735
G1 X0.877 Y-11.825
G1 X0.331 Y-11.896
G1 X-0.217 Y-11.950
G1 X-0.767 Y-11.985
G1 X-1.318 Y-12.002
G1 X-1.868 Y-12.001
G1 X-2.419 Y-11.982
G1 X-2.968 Y-11.944
G1 X-3.516 Y-11.889
G1 X-4.062 Y-11.815
G1 X-4.605 Y-11.724
G1 X-5.144 Y-11.614
G1 X-5.680 Y-11.487
G1 X-6.211 Y-11.343
G1 X-6.737 Y-11.180
G1 X-7.258 Y-11.001
G1 X-7.772 Y-10.804
G1 X-8.279 Y-10.591
G1 X-8.779 Y-10.361
G1 X-9.271 Y-10.114
G1 X-9.755 Y-9.852
G1 X-10.229 Y-9.574
G1 X-10.694 Y-9.280
G1 X-11.150 Y-8.971
G1 X-11.594 Y-8.647
G1 X-12.028 Y-8.309
G1 X-12.450 Y-7.956
G1 X-12.860 Y-7.590
G1 X-13.257 Y-7.211
G1 X-13.642 Y-6.818
G1 X-14.014 Y-6.413
G1 X-14.372 Y-5.997
G1 X-14.716 Y-5.568
G1 X-15.046 Y-5.129
G1 X-15.360 Y-4.679
G1 X-15.660 Y-4.219
G1 X-15.944 Y-3.749
G1 X-16.213 Y-3.270
G1 X-16.465 Y-2.783
G1 X-16.701 Y-2.287
G1 X-16.921 Y-1.785
G1 X-17.123 Y-1.275
G1 X-17.309 Y-0.759
G1 X-17.477 Y-0.237
G1 X-17.628 Y0.290
G1 X-17.762 Y0.822
G1 X-17.877 Y1.358
G1 X-17.975 Y1.897
G1 X-18.055 Y2.439
G1 X-18.116 Y2.983
G1 X-18.160 Y3.529
G1 X-18.186 Y4.076
G1 X-18.193 Y4.623
G1 X-18.182 Y5.171
G0 Z10
G0 X9.488 Y16.394
Z10
Z2
G1 Z-0.125 F80
G1 X9.488 Y16.394 F200
G1 X9.875 Y16.009
G1 X10.249 Y15.611
G1 X10.610 Y15.201
G1 X10.957 Y14.779
G1 X11.290 Y14.346
G1 X11.608 Y13.902
G1 X11.911 Y13.447
G1 X12.199 Y12.983
G1 X12.471 Y12.509
G1 X12.728 Y12.026
G1 X12.968 Y11.535
G1 X13.192 Y11.036
G1 X13.399 Y10.530
G1 X13.590 Y10.017
G1 X13.763 Y9.498
G1 X13.919 Y8.973
G1 X14.058 Y8.444
G1 X14.178 Y7.910
G1 X14.281 Y7.372
G1 X14.367 Y6.831
G1 X14.434 Y6.287
G1 X14.483 Y5.742
G1 X14.514 Y5.194
G1 X14.526 Y4.647
G1 X14.521 Y4.098
G1 X14.497 Y3.551
G1 X14.456 Y3.004
G1 X14.396 Y2.459
G1 X14.318 Y1.916
G1 X14.222 Y1.375
G1 X14.108 Y0.838
G1 X13.977 Y0.306
G1 X13.828 Y-0.223
G1 X13.661 Y-0.746
G1 X13.477 Y-1.263
G1 X13.276 Y-1.775
G1 X13.059 Y-2.279
G1 X12.824 Y-2.776
G1 X12.574 Y-3.265
G1 X12.307 Y-3.745
G1 X12.024 Y-4.217
G1 X11.726 Y-4.679
G1 X11.413 Y-5.130
G1 X11.085 Y-5.572
G1 X10.743 Y-6.002
G1 X10.386 Y-6.421
G1 X10.016 Y-6.828
G1 X9.632 Y-7.222
G1 X9.236 Y-7.604
G1 X8.827 Y-7.972
G1 X8.406 Y-8.327
G1 X7.974 Y-8.667
G1 X7.531 Y-8.993
G1 X7.077 Y-9.304
G1 X6.613 Y-9.601
G1 X6.139 Y-9.881
G1 X5.656 Y-10.146
G1 X5.165 Y-10.395
G1 X4.666 Y-10.628
G1 X4.160 Y-10.844
G1 X3.646 Y-11.043
G1 X3.126 Y-11.225
G1 X2.601 Y-11.389
G1 X2.070 Y-11.537
G1 X1.535 Y-11.666
G1 X0.996 Y-11.778
G1 X0.453 Y-11.873
G1 X-0.092 Y-11.949
G1 X-0.640 Y-12.007
G1 X-1.189 Y-12.047
G1 X-1.740 Y-12.069
G1 X-2.290 Y-12.072
G1 X-2.841 Y-12.058
G1 X-3.391 Y-12.025
G1 X-3.939 Y-11.974
G1 X-4.485 Y-11.906
G1 X-5.029 Y-11.819
G1 X-5.570 Y-11.714
G1 X-6.106 Y-11.591
G1 X-6.639 Y-11.451
G1 X-7.166 Y-11.293
G1 X-7.688 Y-11.118
G1 X-8.204 Y-10.926
G1 X-8.713 Y-10.717
G1 X-9.215 Y-10.491
G1 X-9.709 Y-10.249
G1 X-10.194 Y-9.991
G1 X-10.671 Y-9.717
G1 X-11.139 Y-9.427
G1 X-11.596 Y-9.122
G1 X-12.044 Y-8.802
G1 X-12.480 Y-8.467
G1 X-12.905 Y-8.118
G1 X-13.318 Y-7.756
G1 X-13.719 Y-7.380
G1 X-14.107 Y-6.991
G1 X-14.482 Y-6.589
G1 X-14.844 Y-6.175
G1 X-15.191 Y-5.750
G1 X-15.524 Y-5.313
G1 X-15.843 Y-4.866
G1 X-16.146 Y-4.409
G1 X-16.435 Y-3.941
G1 X-16.707 Y-3.465
G1 X-16.963 Y-2.980
G1 X-17.204 Y-2.486
G1 X-17.427 Y-1.986
G1 X-17.634 Y-1.478
G1 X-17.824 Y-0.963
G1 X-17.997 Y-0.443
G1 X-18.152 Y0.083
G1 X-18.290 Y0.613
G1 X-18.410 Y1.148
G1 X-18.512 Y1.686
G1 X-18.597 Y2.228
G1 X-18.663 Y2.771
G0 Z10
G0 X8.012 Y17.130
Z10
Z2
G1 Z-0.125 F80
G1 X8.012 Y17.130 F200
G1 X8.426 Y16.775
G1 X8.829 Y16.407
G1 X9.219 Y16.025
G1 X9.597 Y15.630
G1 X9.961 Y15.223
G1 X10.311 Y14.804
G1 X10.648 Y14.374
G1 X10.969 Y13.932
G1 X11.276 Y13.480
G1 X11.568 Y13.018
G1 X11.845 Y12.546
G1 X12.105 Y12.065
G1 X12.350 Y11.576
G1 X12.578 Y11.079
G1 X12.789 Y10.574
G1 X12.984 Y10.063
G1 X13.162 Y9.545
G1 X13.322 Y9.022
G1 X13.465 Y8.494
G1 X13.590 Y7.960
G1 X13.698 Y7.423
G1 X13.788 Y6.883
G1 X13.859 Y6.340
G1 X13.913 Y5.795
G1 X13.949 Y5.248
G1 X13.966 Y4.700
G1 X13.965 Y4.151
G1 X13.946 Y3.603
G1 X13.909 Y3.056
G1 X13.854 Y2.510
G1 X13.780 Y1.967
G1 X13.689 Y1.426
G1 X13.580 Y0.888
G1 X13.453 Y0.354
G1 X13.308 Y-0.176
G1 X13.146 Y-0.701
G1 X12.967 Y-1.220
G1 X12.770 Y-1.733
G1 X12.557 Y-2.239
G1 X12.326 Y-2.738
G1 X12.080 Y-3.229
G1 X11.817 Y-3.712
G1 X11.539 Y-4.186
G1 X11.244 Y-4.650
G1 X10.935 Y-5.105
G1 X10.611 Y-5.549
G1 X10.272 Y-5.982
G1 X9.919 Y-6.404
G1 X9.552 Y-6.814
G1 X9.172 Y-7.212
G1 X8.779 Y-7.596
G1 X8.373 Y-7.968
G1 X7.955 Y-8.326
G1 X7.526 Y-8.671
G1 X7.085 Y-9.001
G1 X6.634 Y-9.316
G1 X6.172 Y-9.616
G1 X5.701 Y-9.901
G1 X5.221 Y-10.170
G1 X4.732 Y-10.423
G1 X4.235 Y-10.660
G1 X3.730 Y-10.880
G1 X3.218 Y-11.083
G1 X2.700 Y-11.270
G1 X2.176 Y-11.439
G1 X1.646 Y-11.591
G1 X1.112 Y-11.725
G1 X0.574 Y-11.842
G1 X0.032 Y-11.941
G1 X-0.513 Y-12.021
G1 X-1.060 Y-12.084
G1 X-1.609 Y-12.129
G1 X-2.159 Y-12.155
G1 X-2.709 Y-12.164
G1 X-3.260 Y-12.154
G1 X-3.810 Y-12.126
G1 X-4.359 Y-12.080
G1 X-4.906 Y-12.016
G1 X-5.450 Y-11.933
G1 X-5.991 Y-11.833
G1 X-6.529 Y-11.715
G1 X-7.063 Y-11.580
G1 X-7.591 Y-11.426
G1 X-8.115 Y-11.256
G1 X-8.632 Y-11.068
G1 X-9.143 Y-10.863
G1 X-9.647 Y-10.642
G1 X-10.143 Y-10.404
G1 X-10.630 Y-10.150
G1 X-11.110 Y-9.880
G1 X-11.580 Y-9.594
G1 X-12.040 Y-9.293
G1 X-12.490 Y-8.977
G1 X-12.929 Y-8.646
G1 X-13.357 Y-8.301
G1 X-13.773 Y-7.942
G1 X-14.177 Y-7.569
G1 X-14.568 Y-7.183
G1 X-14.946 Y-6.785
G1 X-15.311 Y-6.374
G1 X-15.662 Y-5.952
G1 X-15.999 Y-5.518
G1 X-16.322 Y-5.074
G1 X-16.629 Y-4.619
G1 X-16.921 Y-4.154
G1 X-17.197 Y-3.680
G1 X-17.458 Y-3.197
G1 X-17.702 Y-2.706
G1 X-17.930 Y-2.207
G1 X-18.141 Y-1.701
G1 X-18.335 Y-1.188
G1 X-18.512 Y-0.670
G1 X-18.672 Y-0.145
G1 X-18.814 Y0.384
G1 X-18.939 Y0.917
G0 Z10
G0 X6.480 Y17.775
Z10
Z2
G1 Z-0.125 F80
G1 X6.480 Y17.775 F200
G1 X6.920 Y17.452
G1 X7.349 Y17.114
G1 X7.767 Y16.763
G1 X8.173 Y16.398
G1 X8.566 Y16.019
G1 X8.947 Y15.627
G1 X9.314 Y15.223
G1 X9.668 Y14.807
G1 X10.008 Y14.379
G1 X10.334 Y13.940
G1 X10.645 Y13.491
G1 X10.940 Y13.031
G1 X11.221 Y12.561
G1 X11.485 Y12.083
G1 X11.734 Y11.596
G1 X11.966 Y11.100
G1 X12.182 Y10.597
G1 X12.381 Y10.088
G1 X12.563 Y9.571
G1 X12.728 Y9.049
G1 X12.875 Y8.522
G1 X13.005 Y7.990
G1 X13.117 Y7.454
G1 X13.211 Y6.914
G1 X13.287 Y6.371
G1 X13.346 Y5.826
G1 X13.386 Y5.280
G1 X13.408 Y4.732
G1 X13.412 Y4.184
G1 X13.397 Y3.635
G1 X13.365 Y3.088
G1 X13.314 Y2.541
G1 X13.245 Y1.997
G1 X13.159 Y1.455
G1 X13.054 Y0.916
G1 X12.931 Y0.381
G1 X12.791 Y-0.150
G1 X12.633 Y-0.676
G1 X12.458 Y-1.197
G1 X12.266 Y-1.711
G1 X12.057 Y-2.219
G1 X11.831 Y-2.720
G1 X11.589 Y-3.214
G1 X11.330 Y-3.699
G1 X11.055 Y-4.175
G1 X10.765 Y-4.642
G1 X10.460 Y-5.099
G1 X10.139 Y-5.546
G1 X9.804 Y-5.982
G1 X9.455 Y-6.407
G1 X9.091 Y-6.820
G1 X8.714 Y-7.221
G1 X8.324 Y-7.610
G1 X7.922 Y-7.985
G1 X7.507 Y-8.347
G1 X7.081 Y-8.695
G1 X6.643 Y-9.028
G1 X6.194 Y-9.347
G1 X5.735 Y-9.651
G1 X5.266 Y-9.940
G1 X4.788 Y-10.213
G1 X4.301 Y-10.470
G1 X3.806 Y-10.711
G1 X3.303 Y-10.936
G1 X2.793 Y-11.144
G1 X2.277 Y-11.335
G1 X1.754 Y-11.508
G1 X1.226 Y-11.665
G1 X0.693 Y-11.804
G1 X0.156 Y-11.925
G1 X-0.385 Y-12.028
G1 X-0.929 Y-12.114
G1 X-1.476 Y-12.181
G1 X-2.024 Y-12.231
G1 X-2.574 Y-12.262
G1 X-3.125 Y-12.275
G1 X-3.675 Y-12.270
G1 X-4.225 Y-12.247
G1 X-4.775 Y-12.205
G1 X-5.322 Y-12.146
G1 X-5.867 Y-12.068
G1 X-6.409 Y-11.973
G1 X-6.948 Y-11.859
G1 X-7.483 Y-11.728
G1 X-8.012 Y-11.579
G1 X-8.537 Y-11.413
G1 X-9.056 Y-11.230
G1 X-9.569 Y-11.030
G1 X-10.074 Y-10.813
G1 X-10.572 Y-10.579
G1 X-11.062 Y-10.329
G1 X-11.543 Y-10.063
G1 X-12.016 Y-9.781
G1 X-12.478 Y-9.484
G1 X-12.931 Y-9.172
G1 X-13.373 Y-8.844
G1 X-13.803 Y-8.503
G1 X-14.223 Y-8.148
G1 X-14.630 Y-7.779
G1 X-15.024 Y-7.396
G1 X-15.406 Y-7.001
G1 X-15.774 Y-6.594
G1 X-16.129 Y-6.174
G1 X-16.469 Y-5.744
G1 X-16.795 Y-5.302
G1 X-17.106 Y-4.850
G1 X-17.402 Y-4.388
G1 X-17.683 Y-3.916
G1 X-17.947 Y-3.435
G1 X-18.195 Y-2.946
G1 X-18.428 Y-2.449
G1 X-18.643 Y-1.945
G1 X-18.841 Y-1.434
G0 Z10
G0 X4.899 Y18.323
Z10
Z2
G1 Z-0.125 F80
G1 X4.899 Y18.323 F200
G1 X5.362 Y18.034
G1 X5.815 Y17.730
G1 X6.258 Y17.410
G1 X6.690 Y17.077
G1 X7.111 Y16.729
G1 X7.520 Y16.367
G1 X7.916 Y15.991
G1 X8.300 Y15.603
G1 X8.671 Y15.202
G1 X9.029 Y14.788
G1 X9.372 Y14.363
G1 X9.701 Y13.927
G1 X10.016 Y13.480
G1 X10.316 Y13.023
G1 X10.600 Y12.555
G1 X10.869 Y12.079
G1 X11.121 Y11.594
G1 X11.358 Y11.100
G1 X11.578 Y10.599
G1 X11.781 Y10.091
G1 X11.967 Y9.576
G1 X12.137 Y9.055
G1 X12.288 Y8.529
G1 X12.423 Y7.998
G1 X12.539 Y7.463
G1 X12.638 Y6.924
G1 X12.719 Y6.382
G1 X12.782 Y5.837
G1 X12.826 Y5.291
G1 X12.853 Y4.743
G1 X12.862 Y4.195
G1 X12.852 Y3.646
G1 X12.824 Y3.098
G1 X12.778 Y2.552
G1 X12.714 Y2.007
G1 X12.631 Y1.464
G1 X12.531 Y0.924
G1 X12.413 Y0.388
G1 X12.278 Y-0.144
G1 X12.124 Y-0.672
G1 X11.954 Y-1.194
G1 X11.766 Y-1.710
G1 X11.561 Y-2.220
G1 X11.339 Y-2.723
G1 X11.101 Y-3.219
G1 X10.846 Y-3.706
G1 X10.576 Y-4.185
G1 X10.289 Y-4.654
G1 X9.988 Y-5.114
G1 X9.671 Y-5.564
G1 X9.340 Y-6.003
G1 X8.994 Y-6.431
G1 X8.634 Y-6.847
G1 X8.260 Y-7.251
G1 X7.874 Y-7.643
G1 X7.474 Y-8.021
G1 X7.063 Y-8.387
G1 X6.639 Y-8.738
G1 X6.204 Y-9.076
G1 X5.758 Y-9.399
G1 X5.302 Y-9.707
G1 X4.836 Y-9.999
G1 X4.360 Y-10.277
G1 X3.875 Y-10.538
G1 X3.382 Y-10.783
G1 X2.881 Y-11.012
G1 X2.373 Y-11.224
G1 X1.858 Y-11.420
G1 X1.337 Y-11.598
G1 X0.810 Y-11.759
G1 X0.278 Y-11.902
G1 X-0.258 Y-12.028
G1 X-0.798 Y-12.136
G1 X-1.341 Y-12.226
G1 X-1.887 Y-12.298
G1 X-2.435 Y-12.352
G1 X-2.985 Y-12.388
G1 X-3.535 Y-12.406
G1 X-4.086 Y-12.406
G1 X-4.636 Y-12.387
G1 X-5.186 Y-12.350
G1 X-5.733 Y-12.295
G1 X-6.279 Y-12.222
G1 X-6.822 Y-12.132
G1 X-7.362 Y-12.023
G1 X-7.897 Y-11.896
G1 X-8.429 Y-11.752
G1 X-8.955 Y-11.590
G1 X-9.475 Y-11.412
G1 X-9.989 Y-11.216
G1 X-10.496 Y-11.003
G1 X-10.996 Y-10.773
G1 X-11.488 Y-10.528
G1 X-11.972 Y-10.266
G1 X-12.447 Y-9.988
G1 X-12.912 Y-9.695
G1 X-13.367 Y-9.386
G1 X-13.811 Y-9.063
G1 X-14.245 Y-8.725
G1 X-14.667 Y-8.374
G1 X-15.077 Y-8.008
G1 X-15.475 Y-7.629
G1 X-15.860 Y-7.237
G1 X-16.232 Y-6.833
G1 X-16.590 Y-6.417
G1 X-16.934 Y-5.989
G1 X-17.263 Y-5.550
G1 X-17.578 Y-5.101
G1 X-17.878 Y-4.641
G1 X-18.162 Y-4.172
G1 X-18.431 Y-3.694
G1 X-18.683 Y-3.207
G0 Z10
G0 X3.760 Y18.518
Z10
Z2
G1 Z-0.125 F80
G1 X3.760 Y18.518 F200
G1 X4.234 Y18.249
G1 X4.700 Y17.964
G1 X5.155 Y17.663
G1 X5.601 Y17.347
G1 X6.036 Y17.017
G1 X6.459 Y16.673
G1 X6.871 Y16.314
G1 X7.271 Y15.942
G1 X7.658 Y15.556
G1 X8.032 Y15.158
G1 X8.393 Y14.748
G1 X8.740 Y14.326
G1 X9.073 Y13.892
G1 X9.392 Y13.448
G1 X9.695 Y12.993
G1 X9.983 Y12.528
G1 X10.256 Y12.054
G1 X10.513 Y11.571
G1 X10.754 Y11.079
G1 X10.978 Y10.580
G1 X11.185 Y10.073
G1 X11.376 Y9.560
G1 X11.550 Y9.040
G1 X11.706 Y8.515
G1 X11.844 Y7.985
G1 X11.966 Y7.451
G1 X12.069 Y6.913
G1 X12.154 Y6.371
G1 X12.222 Y5.827
G1 X12.271 Y5.281
G1 X12.302 Y4.734
G1 X12.315 Y4.185
G1 X12.310 Y3.637
G1 X12.287 Y3.088
G1 X12.245 Y2.541
G1 X12.186 Y1.996
G1 X12.108 Y1.452
G1 X12.013 Y0.911
G1 X11.899 Y0.374
G1 X11.768 Y-0.159
G1 X11.619 Y-0.688
G1 X11.453 Y-1.212
G1 X11.269 Y-1.730
G1 X11.069 Y-2.242
G1 X10.851 Y-2.746
G1 X10.617 Y-3.244
G1 X10.367 Y-3.733
G1 X10.100 Y-4.214
G1 X9.818 Y-4.686
G1 X9.520 Y-5.149
G1 X9.207 Y-5.601
G1 X8.880 Y-6.043
G1 X8.537 Y-6.474
G1 X8.181 Y-6.893
G1 X7.811 Y-7.301
G1 X7.428 Y-7.696
G1 X7.032 Y-8.078
G1 X6.623 Y-8.447
G1 X6.202 Y-8.802
G1 X5.770 Y-9.143
G1 X5.327 Y-9.470
G1 X4.873 Y-9.781
G1 X4.409 Y-10.078
G1 X3.936 Y-10.360
G1 X3.454 Y-10.625
G1 X2.963 Y-10.875
G1 X2.464 Y-11.108
G1 X1.957 Y-11.324
G1 X1.444 Y-11.524
G1 X0.924 Y-11.707
G1 X0.399 Y-11.872
G1 X-0.131 Y-12.020
G1 X-0.667 Y-12.150
G1 X-1.206 Y-12.263
G1 X-1.748 Y-12.358
G1 X-2.294 Y-12.434
G1 X-2.841 Y-12.493
G1 X-3.390 Y-12.534
G1 X-3.941 Y-12.556
G1 X-4.491 Y-12.561
G1 X-5.042 Y-12.547
G1 X-5.591 Y-12.515
G1 X-6.139 Y-12.464
G1 X-6.686 Y-12.396
G1 X-7.229 Y-12.310
G1 X-7.770 Y-12.206
G1 X-8.307 Y-12.084
G1 X-8.839 Y-11.944
G1 X-9.366 Y-11.787
G1 X-9.888 Y-11.613
G1 X-10.404 Y-11.421
G1 X-10.913 Y-11.213
G1 X-11.415 Y-10.988
G1 X-11.909 Y-10.746
G1 X-12.394 Y-10.488
G1 X-12.871 Y-10.215
G1 X-13.339 Y-9.925
G1 X-13.796 Y-9.621
G1 X-14.244 Y-9.301
G1 X-14.680 Y-8.967
G1 X-15.105 Y-8.619
G1 X-15.518 Y-8.257
G1 X-15.919 Y-7.882
G1 X-16.307 Y-7.493
G1 X-16.682 Y-7.092
G1 X-17.044 Y-6.679
G1 X-17.392 Y-6.254
G1 X-17.725 Y-5.818
G1 X-18.043 Y-5.372
G1 X-18.347 Y-4.915
G0 Z10
G0 X2.613 Y18.668
Z10
Z2
G1 Z-0.125 F80
G1 X2.613 Y18.668 F200
G1 X3.098 Y18.419
G1 X3.575 Y18.153
G1 X4.042 Y17.872
G1 X4.501 Y17.575
G1 X4.949 Y17.263
G1 X5.386 Y16.936
G1 X5.813 Y16.595
G1 X6.228 Y16.240
G1 X6.631 Y15.871
G1 X7.021 Y15.489
G1 X7.399 Y15.094
G1 X7.763 Y14.687
G1 X8.114 Y14.267
G1 X8.450 Y13.836
G1 X8.772 Y13.394
G1 X9.080 Y12.942
G1 X9.372 Y12.479
G1 X9.648 Y12.007
G1 X9.909 Y11.526
G1 X10.154 Y11.037
G1 X10.383 Y10.539
G1 X10.594 Y10.034
G1 X10.789 Y9.523
G1 X10.967 Y9.005
G1 X11.128 Y8.481
G1 X11.271 Y7.952
G1 X11.397 Y7.419
G1 X11.505 Y6.881
G1 X11.595 Y6.340
G1 X11.667 Y5.797
G1 X11.721 Y5.251
G1 X11.756 Y4.704
G1 X11.774 Y4.155
G1 X11.774 Y3.607
G1 X11.755 Y3.058
G1 X11.718 Y2.510
G1 X11.663 Y1.964
G1 X11.590 Y1.420
G1 X11.499 Y0.878
G1 X11.390 Y0.340
G1 X11.263 Y-0.194
G1 X11.119 Y-0.725
G1 X10.957 Y-1.250
G1 X10.778 Y-1.769
G1 X10.582 Y-2.283
G1 X10.368 Y-2.789
G1 X10.139 Y-3.289
G1 X9.892 Y-3.781
G1 X9.630 Y-4.264
G1 X9.352 Y-4.738
G1 X9.058 Y-5.203
G1 X8.749 Y-5.658
G1 X8.425 Y-6.103
G1 X8.086 Y-6.537
G1 X7.733 Y-6.959
G1 X7.367 Y-7.370
G1 X6.987 Y-7.768
G1 X6.594 Y-8.154
G1 X6.188 Y-8.526
G1 X5.771 Y-8.885
G1 X5.342 Y-9.230
G1 X4.901 Y-9.560
G1 X4.450 Y-9.876
G1 X3.989 Y-10.177
G1 X3.518 Y-10.462
G1 X3.038 Y-10.732
G1 X2.549 Y-10.985
G1 X2.052 Y-11.223
G1 X1.547 Y-11.443
G1 X1.036 Y-11.648
G1 X0.518 Y-11.835
G1 X-0.006 Y-12.005
G1 X-0.535 Y-12.157
G1 X-1.069 Y-12.292
G1 X-1.608 Y-12.409
G1 X-2.149 Y-12.509
G1 X-2.694 Y-12.590
G1 X-3.241 Y-12.653
G1 X-3.790 Y-12.699
G1 X-4.340 Y-12.726
G1 X-4.890 Y-12.735
G1 X-5.441 Y-12.726
G1 X-5.991 Y-12.698
G1 X-6.539 Y-12.653
G1 X-7.086 Y-12.589
G1 X-7.630 Y-12.508
G1 X-8.172 Y-12.408
G1 X-8.709 Y-12.291
G1 X-9.243 Y-12.156
G1 X-9.771 Y-12.003
G1 X-10.295 Y-11.833
G1 X-10.812 Y-11.646
G1 X-11.323 Y-11.442
G1 X-11.826 Y-11.221
G1 X-12.322 Y-10.984
G1 X-12.810 Y-10.730
G1 X-13.289 Y-10.461
G1 X-13.759 Y-10.175
G1 X-14.219 Y-9.875
G1 X-14.669 Y-9.559
G1 X-15.108 Y-9.229
G1 X-15.536 Y-8.885
G1 X-15.952 Y-8.526
G1 X-16.356 Y-8.154
G1 X-16.748 Y-7.769
G1 X-17.126 Y-7.371
G1 X-17.491 Y-6.961
G0 Z10
G0 X1.459 Y18.772
Z10
Z2
G1 Z-0.125 F80
G1 X1.459 Y18.772 F200
G1 X1.954 Y18.543
G1 X2.442 Y18.298
G1 X2.921 Y18.036
G1 X3.391 Y17.759
G1 X3.852 Y17.466
G1 X4.302 Y17.157
G1 X4.743 Y16.834
G1 X5.172 Y16.497
G1 X5.590 Y16.145
G1 X5.996 Y15.779
G1 X6.390 Y15.400
G1 X6.771 Y15.008
G1 X7.139 Y14.604
G1 X7.493 Y14.188
G1 X7.833 Y13.759
G1 X8.159 Y13.320
G1 X8.470 Y12.870
G1 X8.766 Y12.410
G1 X9.047 Y11.940
G1 X9.311 Y11.461
G1 X9.560 Y10.974
G1 X9.793 Y10.478
G1 X10.009 Y9.975
G1 X10.208 Y9.465
G1 X10.391 Y8.948
G1 X10.556 Y8.426
G1 X10.703 Y7.898
G1 X10.833 Y7.365
G1 X10.946 Y6.829
G1 X11.040 Y6.289
G1 X11.117 Y5.746
G1 X11.176 Y5.200
G1 X11.216 Y4.653
G1 X11.238 Y4.105
G1 X11.242 Y3.556
G1 X11.228 Y3.008
G1 X11.196 Y2.459
G1 X11.146 Y1.913
G1 X11.077 Y1.368
G1 X10.991 Y0.825
G1 X10.886 Y0.286
G1 X10.764 Y-0.250
G1 X10.624 Y-0.781
G1 X10.467 Y-1.308
G1 X10.292 Y-1.829
G1 X10.100 Y-2.344
G1 X9.891 Y-2.852
G1 X9.666 Y-3.354
G1 X9.424 Y-3.848
G1 X9.165 Y-4.333
G1 X8.891 Y-4.810
G1 X8.601 Y-5.278
G1 X8.296 Y-5.735
G1 X7.976 Y-6.183
G1 X7.641 Y-6.619
G1 X7.292 Y-7.045
G1 X6.928 Y-7.459
G1 X6.552 Y-7.860
G1 X6.162 Y-8.249
G1 X5.760 Y-8.625
G1 X5.345 Y-8.987
G1 X4.919 Y-9.336
G1 X4.482 Y-9.670
G1 X4.033 Y-9.990
G1 X3.574 Y-10.294
G1 X3.106 Y-10.584
G1 X2.628 Y-10.857
G1 X2.141 Y-11.115
G1 X1.646 Y-11.357
G1 X1.144 Y-11.582
G1 X0.634 Y-11.790
G1 X0.118 Y-11.982
G1 X-0.405 Y-12.156
G1 X-0.933 Y-12.313
G1 X-1.466 Y-12.453
G1 X-2.003 Y-12.575
G1 X-2.543 Y-12.679
G1 X-3.087 Y-12.765
G1 X-3.634 Y-12.833
G1 X-4.182 Y-12.883
G1 X-4.732 Y-12.915
G1 X-5.282 Y-12.928
G1 X-5.833 Y-12.924
G1 X-6.383 Y-12.901
G1 X-6.932 Y-12.860
G1 X-7.479 Y-12.801
G1 X-8.024 Y-12.724
G1 X-8.566 Y-12.630
G1 X-9.105 Y-12.517
G1 X-9.639 Y-12.386
G1 X-10.169 Y-12.238
G1 X-10.694 Y-12.073
G1 X-11.213 Y-11.890
G1 X-11.725 Y-11.690
G1 X-12.230 Y-11.474
G1 X-12.728 Y-11.241
G1 X-13.218 Y-10.991
G1 X-13.700 Y-10.726
G1 X-14.172 Y-10.445
G1 X-14.635 Y-10.148
G1 X-15.087 Y-9.836
G1 X-15.529 Y-9.510
G1 X-15.960 Y-9.169
G1 X-16.379 Y-8.814
G1 X-16.786 Y-8.446
G1 X-17.180 Y-8.064
G0 Z10
G0 X0.302 Y18.830
Z10
Z2
G1 Z-0.125 F80
G1 X0.302 Y18.830 F200
G1 X0.806 Y18.622
G1 X1.303 Y18.397
G1 X1.793 Y18.156
G1 X2.274 Y17.898
G1 X2.746 Y17.625
G1 X3.210 Y17.335
G1 X3.663 Y17.031
G1 X4.106 Y16.711
G1 X4.538 Y16.377
G1 X4.959 Y16.029
G1 X5.368 Y15.667
G1 X5.765 Y15.291
G1 X6.149 Y14.902
G1 X6.521 Y14.501
G1 X6.878 Y14.087
G1 X7.222 Y13.662
G1 X7.552 Y13.225
G1 X7.867 Y12.778
G1 X8.166 Y12.320
G1 X8.451 Y11.853
G1 X8.720 Y11.376
G1 X8.973 Y10.890
G1 X9.210 Y10.396
G1 X9.430 Y9.895
G1 X9.634 Y9.386
G1 X9.820 Y8.871
G1 X9.990 Y8.350
G1 X10.142 Y7.824
G1 X10.277 Y7.292
G1 X10.393 Y6.756
G1 X10.493 Y6.217
G1 X10.574 Y5.675
G1 X10.637 Y5.130
G1 X10.682 Y4.583
G1 X10.709 Y4.035
G1 X10.718 Y3.486
G1 X10.708 Y2.937
G1 X10.681 Y2.389
G1 X10.635 Y1.841
G1 X10.571 Y1.296
G1 X10.489 Y0.753
G1 X10.389 Y0.212
G1 X10.272 Y-0.324
G1 X10.136 Y-0.857
G1 X9.983 Y-1.385
G1 X9.813 Y-1.908
G1 X9.625 Y-2.424
G1 X9.421 Y-2.935
G1 X9.199 Y-3.438
G1 X8.961 Y-3.934
G1 X8.707 Y-4.422
G1 X8.437 Y-4.901
G1 X8.151 Y-5.371
G1 X7.850 Y-5.831
G1 X7.533 Y-6.282
G1 X7.202 Y-6.721
G1 X6.857 Y-7.150
G1 X6.497 Y-7.567
G1 X6.124 Y-7.971
G1 X5.737 Y-8.363
G1 X5.338 Y-8.743
G1 X4.927 Y-9.109
G1 X4.504 Y-9.461
G1 X4.069 Y-9.799
G1 X3.623 Y-10.122
G1 X3.167 Y-10.431
G1 X2.701 Y-10.724
G1 X2.225 Y-11.002
G1 X1.741 Y-11.264
G1 X1.248 Y-11.510
G1 X0.747 Y-11.739
G1 X0.239 Y-11.952
G1 X-0.275 Y-12.148
G1 X-0.796 Y-12.327
G1 X-1.323 Y-12.488
G1 X-1.854 Y-12.632
G1 X-2.390 Y-12.759
G1 X-2.930 Y-12.867
G1 X-3.473 Y-12.958
G1 X-4.019 Y-13.031
G1 X-4.567 Y-13.085
G1 X-5.116 Y-13.122
G1 X-5.667 Y-13.140
G1 X-6.217 Y-13.141
G1 X-6.767 Y-13.123
G1 X-7.317 Y-13.087
G1 X-7.864 Y-13.032
G1 X-8.410 Y-12.960
G1 X-8.953 Y-12.870
G1 X-9.492 Y-12.762
G1 X-10.028 Y-12.636
G1 X-10.559 Y-12.492
G1 X-11.085 Y-12.331
G1 X-11.605 Y-12.153
G1 X-12.119 Y-11.958
G1 X-12.626 Y-11.745
G1 X-13.126 Y-11.516
G1 X-13.618 Y-11.271
G1 X-14.102 Y-11.010
G1 X-14.576 Y-10.733
G1 X-15.041 Y-10.440
G1 X-15.496 Y-10.132
G1 X-15.941 Y-9.810
G1 X-16.374 Y-9.473
G0 Z10
G0 X-0.858 Y18.843
Z10
Z2
