%
(guilloche)
(T502  D=0.125 CR=0 - ZMIN=-0.129 - vee)
G90
G17
G21
G28 G91 Z10
G90

(scribe)
T502 M6
S10000 M3
G54
G0 X0.773 Y-18.529
Z10
Z2
G1 Z-0.125 F80
G1 X0.396 Y-17.872 F200
G1 X0.050 Y-17.198
G1 X-0.266 Y-16.509
G1 X-0.550 Y-15.807
G1 X-0.803 Y-15.092
G1 X-1.023 Y-14.367
G1 X-1.210 Y-13.632
G1 X-1.364 Y-12.890
G1 X-1.485 Y-12.141
G1 X-1.571 Y-11.388
G1 X-1.624 Y-10.632
G1 X-1.642 Y-9.874
G1 X-1.626 Y-9.116
G1 X-1.577 Y-8.359
G1 X-1.493 Y-7.605
G1 X-1.375 Y-6.856
G1 X-1.223 Y-6.114
G1 X-1.039 Y-5.379
G1 X-0.821 Y-4.653
G1 X-0.571 Y-3.937
G1 X-0.289 Y-3.234
G1 X0.024 Y-2.544
G1 X0.368 Y-1.870
G1 X0.742 Y-1.211
G1 X1.146 Y-0.571
G1 X1.577 Y0.051
G1 X2.036 Y0.652
G1 X2.522 Y1.232
G1 X3.033 Y1.789
G1 X3.569 Y2.322
G1 X4.128 Y2.830
G1 X4.709 Y3.313
G1 X5.311 Y3.768
G1 X5.933 Y4.196
G1 X6.574 Y4.594
G1 X7.231 Y4.964
G1 X7.905 Y5.302
G1 X8.593 Y5.610
G1 X9.293 Y5.887
G1 X10.006 Y6.131
G1 X10.728 Y6.342
G1 X11.459 Y6.521
G1 X12.196 Y6.666
G1 X12.940 Y6.777
G1 X13.687 Y6.854
G1 X14.436 Y6.897
G1 X15.187 Y6.906
G1 X15.937 Y6.881
G1 X16.684 Y6.822
G1 X17.428 Y6.729
G0 Z10
G0 X1.577 Y-18.803
Z10
Z2
G1 Z-0.125 F80
G1 X1.577 Y-18.803 F200
G1 X1.141 Y-18.184
G1 X0.733 Y-17.545
G1 X0.354 Y-16.889
G1 X0.005 Y-16.217
G1 X-0.313 Y-15.529
G1 X-0.600 Y-14.827
G1 X-0.855 Y-14.113
G1 X-1.078 Y-13.389
G1 X-1.268 Y-12.655
G1 X-1.424 Y-11.913
G1 X-1.547 Y-11.165
G1 X-1.637 Y-10.412
G1 X-1.692 Y-9.655
G1 X-1.713 Y-8.897
G1 X-1.700 Y-8.139
G1 X-1.652 Y-7.383
G1 X-1.571 Y-6.629
G1 X-1.456 Y-5.880
G1 X-1.307 Y-5.136
G1 X-1.125 Y-4.401
G1 X-0.910 Y-3.674
G1 X-0.663 Y-2.958
G1 X-0.383 Y-2.254
G1 X-0.072 Y-1.564
G1 X0.270 Y-0.888
G1 X0.641 Y-0.229
G1 X1.042 Y0.413
G1 X1.472 Y1.036
G1 X1.928 Y1.638
G1 X2.412 Y2.219
G1 X2.921 Y2.778
G1 X3.455 Y3.312
G1 X4.012 Y3.822
G1 X4.591 Y4.306
G1 X5.192 Y4.763
G1 X5.812 Y5.193
G1 X6.451 Y5.593
G1 X7.107 Y5.964
G1 X7.779 Y6.305
G1 X8.465 Y6.615
G1 X9.165 Y6.893
G1 X9.876 Y7.139
G1 X10.597 Y7.352
G1 X11.327 Y7.533
G1 X12.063 Y7.680
G1 X12.806 Y7.793
G1 X13.552 Y7.872
G1 X14.301 Y7.918
G1 X15.051 Y7.929
G1 X15.801 Y7.906
G1 X16.548 Y7.849
G1 X17.291 Y7.758
G0 Z10
G0 X1.937 Y-18.421
Z10
Z2
G1 Z-0.125 F80
G1 X1.937 Y-18.421 F200
G1 X1.471 Y-17.824
G1 X1.032 Y-17.206
G1 X0.622 Y-16.569
G1 X0.241 Y-15.914
G1 X-0.110 Y-15.242
G1 X-0.431 Y-14.555
G1 X-0.720 Y-13.855
G1 X-0.978 Y-13.142
G1 X-1.203 Y-12.418
G1 X-1.395 Y-11.684
G1 X-1.555 Y-10.943
G1 X-1.680 Y-10.195
G1 X-1.772 Y-9.442
G1 X-1.830 Y-8.686
G1 X-1.854 Y-7.928
G1 X-1.843 Y-7.170
G1 X-1.798 Y-6.414
G1 X-1.720 Y-5.660
G1 X-1.607 Y-4.910
G1 X-1.461 Y-4.167
G1 X-1.282 Y-3.431
G1 X-1.069 Y-2.703
G1 X-0.824 Y-1.987
G1 X-0.547 Y-1.282
G1 X-0.239 Y-0.591
G1 X0.101 Y0.086
G1 X0.470 Y0.746
G1 X0.869 Y1.389
G1 X1.296 Y2.013
G1 X1.750 Y2.616
G1 X2.232 Y3.199
G1 X2.739 Y3.759
G1 X3.271 Y4.295
G1 X3.826 Y4.806
G1 X4.403 Y5.292
G1 X5.002 Y5.750
G1 X5.620 Y6.181
G1 X6.258 Y6.584
G1 X6.912 Y6.956
G1 X7.583 Y7.299
G1 X8.268 Y7.611
G1 X8.966 Y7.891
G1 X9.676 Y8.139
G1 X10.396 Y8.354
G1 X11.124 Y8.537
G1 X11.860 Y8.686
G1 X12.602 Y8.801
G1 X13.348 Y8.882
G1 X14.096 Y8.930
G1 X14.846 Y8.943
G1 X15.595 Y8.922
G1 X16.341 Y8.867
G0 Z10
G0 X2.777 Y-18.577
Z10
Z2
G1 Z-0.125 F80
G1 X2.777 Y-18.577 F200
G1 X2.257 Y-18.026
G1 X1.763 Y-17.452
G1 X1.295 Y-16.856
G1 X0.855 Y-16.239
G1 X0.442 Y-15.604
G1 X0.059 Y-14.950
G1 X-0.295 Y-14.279
G1 X-0.618 Y-13.594
G1 X-0.910 Y-12.894
G1 X-1.170 Y-12.182
G1 X-1.398 Y-11.458
G1 X-1.593 Y-10.726
G1 X-1.755 Y-9.985
G1 X-1.883 Y-9.237
G1 X-1.977 Y-8.485
G1 X-2.038 Y-7.729
G1 X-2.064 Y-6.972
G1 X-2.056 Y-6.214
G1 X-2.014 Y-5.457
G1 X-1.938 Y-4.703
G1 X-1.828 Y-3.953
G1 X-1.685 Y-3.209
G1 X-1.508 Y-2.473
G1 X-1.298 Y-1.745
G1 X-1.055 Y-1.028
G1 X-0.781 Y-0.323
G1 X-0.475 Y0.369
G1 X-0.138 Y1.047
G1 X0.229 Y1.708
G1 X0.625 Y2.352
G1 X1.050 Y2.977
G1 X1.503 Y3.582
G1 X1.982 Y4.165
G1 X2.487 Y4.727
G1 X3.017 Y5.264
G1 X3.570 Y5.777
G1 X4.146 Y6.264
G1 X4.742 Y6.724
G1 X5.359 Y7.157
G1 X5.995 Y7.561
G1 X6.648 Y7.936
G1 X7.317 Y8.280
G1 X8.001 Y8.593
G1 X8.697 Y8.875
G1 X9.406 Y9.125
G1 X10.125 Y9.343
G1 X10.853 Y9.527
G1 X11.588 Y9.678
G1 X12.329 Y9.795
G1 X13.074 Y9.879
G1 X13.822 Y9.928
G1 X14.570 Y9.943
G1 X15.319 Y9.924
G1 X16.065 Y9.871
G0 Z10
G0 X3.085 Y-18.146
Z10
Z2
G1 Z-0.125 F80
G1 X3.085 Y-18.146 F200
G1 X2.539 Y-17.621
G1 X2.017 Y-17.071
G1 X1.521 Y-16.499
G1 X1.051 Y-15.905
G1 X0.608 Y-15.289
G1 X0.193 Y-14.655
G1 X-0.192 Y-14.002
G1 X-0.548 Y-13.333
G1 X-0.874 Y-12.648
G1 X-1.168 Y-11.950
G1 X-1.431 Y-11.238
G1 X-1.661 Y-10.516
G1 X-1.859 Y-9.784
G1 X-2.023 Y-9.043
G1 X-2.154 Y-8.297
G1 X-2.251 Y-7.545
G1 X-2.314 Y-6.789
G1 X-2.343 Y-6.032
G1 X-2.338 Y-5.274
G1 X-2.298 Y-4.517
G1 X-2.225 Y-3.763
G1 X-2.118 Y-3.013
G1 X-1.977 Y-2.269
G1 X-1.802 Y-1.532
G1 X-1.595 Y-0.804
G1 X-1.355 Y-0.086
G1 X-1.083 Y0.620
G1 X-0.779 Y1.312
G1 X-0.445 Y1.991
G1 X-0.080 Y2.653
G1 X0.314 Y3.298
G1 X0.736 Y3.924
G1 X1.187 Y4.530
G1 X1.664 Y5.115
G1 X2.167 Y5.677
G1 X2.694 Y6.216
G1 X3.246 Y6.730
G1 X3.820 Y7.219
G1 X4.415 Y7.681
G1 X5.030 Y8.115
G1 X5.664 Y8.521
G1 X6.315 Y8.897
G1 X6.983 Y9.243
G1 X7.665 Y9.558
G1 X8.361 Y9.842
G1 X9.068 Y10.094
G1 X9.786 Y10.313
G1 X10.513 Y10.500
G1 X11.247 Y10.652
G1 X11.987 Y10.772
G1 X12.731 Y10.857
G1 X13.478 Y10.908
G1 X14.227 Y10.926
G1 X14.975 Y10.909
G0 Z10
G0 X3.944 Y-18.179
Z10
Z2
G1 Z-0.125 F80
G1 X3.944 Y-18.179 F200
G1 X3.352 Y-17.707
G1 X2.781 Y-17.209
G1 X2.234 Y-16.686
G1 X1.710 Y-16.138
G1 X1.212 Y-15.567
G1 X0.739 Y-14.974
G1 X0.294 Y-14.361
G1 X-0.123 Y-13.727
G1 X-0.511 Y-13.076
G1 X-0.869 Y-12.408
G1 X-1.197 Y-11.724
G1 X-1.494 Y-11.027
G1 X-1.759 Y-10.316
G1 X-1.992 Y-9.594
G1 X-2.192 Y-8.863
G1 X-2.359 Y-8.124
G1 X-2.492 Y-7.377
G1 X-2.592 Y-6.626
G1 X-2.658 Y-5.871
G1 X-2.689 Y-5.113
G1 X-2.686 Y-4.356
G1 X-2.650 Y-3.599
G1 X-2.579 Y-2.845
G1 X-2.474 Y-2.095
G1 X-2.336 Y-1.351
G1 X-2.164 Y-0.613
G1 X-1.959 Y0.115
G1 X-1.722 Y0.833
G1 X-1.452 Y1.540
G1 X-1.151 Y2.233
G1 X-0.819 Y2.912
G1 X-0.457 Y3.575
G1 X-0.065 Y4.221
G1 X0.355 Y4.848
G1 X0.804 Y5.455
G1 X1.279 Y6.042
G1 X1.779 Y6.605
G1 X2.305 Y7.146
G1 X2.855 Y7.661
G1 X3.426 Y8.151
G1 X4.020 Y8.615
G1 X4.633 Y9.050
G1 X5.266 Y9.458
G1 X5.916 Y9.836
G1 X6.582 Y10.183
G1 X7.263 Y10.501
G1 X7.957 Y10.786
G1 X8.663 Y11.040
G1 X9.380 Y11.261
G1 X10.106 Y11.449
G1 X10.839 Y11.604
G1 X11.578 Y11.725
G1 X12.322 Y11.813
G1 X13.068 Y11.866
G1 X13.816 Y11.885
G1 X14.564 Y11.870
G0 Z10
G0 X4.826 Y-18.121
Z10
Z2
G1 Z-0.125 F80
G1 X4.826 Y-18.121 F200
G1 X4.193 Y-17.707
G1 X3.578 Y-17.264
G1 X2.984 Y-16.794
G1 X2.412 Y-16.298
G1 X1.862 Y-15.776
G1 X1.337 Y-15.230
G1 X0.836 Y-14.661
G1 X0.362 Y-14.070
G1 X-0.085 Y-13.457
G1 X-0.505 Y-12.826
G1 X-0.895 Y-12.176
G1 X-1.256 Y-11.509
G1 X-1.586 Y-10.826
G1 X-1.885 Y-10.129
G1 X-2.153 Y-9.420
G1 X-2.388 Y-8.699
G1 X-2.591 Y-7.969
G1 X-2.760 Y-7.230
G1 X-2.896 Y-6.484
G1 X-2.998 Y-5.733
G1 X-3.067 Y-4.978
G1 X-3.101 Y-4.221
G1 X-3.101 Y-3.464
G1 X-3.067 Y-2.707
G1 X-2.999 Y-1.953
G1 X-2.896 Y-1.203
G1 X-2.761 Y-0.458
G1 X-2.591 Y0.279
G1 X-2.389 Y1.008
G1 X-2.154 Y1.727
G1 X-1.887 Y2.434
G1 X-1.588 Y3.128
G1 X-1.258 Y3.808
G1 X-0.899 Y4.471
G1 X-0.509 Y5.118
G1 X-0.091 Y5.746
G1 X0.355 Y6.354
G1 X0.828 Y6.942
G1 X1.327 Y7.507
G1 X1.850 Y8.048
G1 X2.398 Y8.565
G1 X2.968 Y9.057
G1 X3.560 Y9.521
G1 X4.171 Y9.959
G1 X4.802 Y10.368
G1 X5.450 Y10.747
G1 X6.115 Y11.097
G1 X6.795 Y11.416
G1 X7.488 Y11.703
G1 X8.193 Y11.958
G1 X8.909 Y12.181
G1 X9.633 Y12.371
G1 X10.366 Y12.528
G1 X11.104 Y12.651
G1 X11.847 Y12.741
G1 X12.593 Y12.796
G1 X13.340 Y12.817
G0 Z10
G0 X5.723 Y-17.969
Z10
Z2
G1 Z-0.125 F80
G1 X5.723 Y-17.969 F200
G1 X5.053 Y-17.616
G1 X4.400 Y-17.232
G1 X3.765 Y-16.820
G1 X3.149 Y-16.379
G1 X2.553 Y-15.911
G1 X1.979 Y-15.417
G1 X1.427 Y-14.897
G1 X0.900 Y-14.353
G1 X0.397 Y-13.785
G1 X-0.079 Y-13.195
G1 X-0.529 Y-12.585
G1 X-0.950 Y-11.954
G1 X-1.343 Y-11.306
G1 X-1.706 Y-10.640
G1 X-2.039 Y-9.958
G1 X-2.340 Y-9.263
G1 X-2.610 Y-8.554
G1 X-2.848 Y-7.834
G1 X-3.053 Y-7.105
G1 X-3.225 Y-6.366
G1 X-3.364 Y-5.621
G1 X-3.469 Y-4.871
G1 X-3.539 Y-4.117
G1 X-3.576 Y-3.360
G1 X-3.579 Y-2.603
G1 X-3.547 Y-1.846
G1 X-3.482 Y-1.092
G1 X-3.382 Y-0.342
G1 X-3.249 Y0.403
G1 X-3.082 Y1.140
G1 X-2.882 Y1.870
G1 X-2.650 Y2.589
G1 X-2.385 Y3.296
G1 X-2.089 Y3.991
G1 X-1.761 Y4.672
G1 X-1.404 Y5.336
G1 X-1.017 Y5.984
G1 X-0.601 Y6.613
G1 X-0.157 Y7.222
G1 X0.314 Y7.810
G1 X0.811 Y8.377
G1 X1.332 Y8.919
G1 X1.878 Y9.438
G1 X2.446 Y9.931
G1 X3.036 Y10.397
G1 X3.646 Y10.836
G1 X4.275 Y11.246
G1 X4.922 Y11.627
G1 X5.585 Y11.978
G1 X6.264 Y12.299
G1 X6.955 Y12.588
G1 X7.659 Y12.845
G1 X8.374 Y13.070
G1 X9.098 Y13.262
G1 X9.829 Y13.421
G1 X10.567 Y13.546
G1 X11.309 Y13.637
G1 X12.054 Y13.694
G1 X12.801 Y13.717
G0 Z10
G0 X6.623 Y-17.719
Z10
Z2
G1 Z-0.125 F80
G1 X6.623 Y-17.719 F200
G1 X5.924 Y-17.430
G1 X5.238 Y-17.110
G1 X4.567 Y-16.759
G1 X3.912 Y-16.378
G1 X3.275 Y-15.967
G1 X2.657 Y-15.529
G1 X2.060 Y-15.063
G1 X1.484 Y-14.570
G1 X0.930 Y-14.052
G1 X0.401 Y-13.509
G1 X-0.104 Y-12.943
G1 X-0.582 Y-12.355
G1 X-1.034 Y-11.746
G1 X-1.458 Y-11.117
G1 X-1.853 Y-10.470
G1 X-2.218 Y-9.806
G1 X-2.553 Y-9.125
G1 X-2.857 Y-8.431
G1 X-3.129 Y-7.723
G1 X-3.370 Y-7.004
G1 X-3.577 Y-6.275
G1 X-3.752 Y-5.538
G1 X-3.893 Y-4.794
G1 X-4.000 Y-4.044
G1 X-4.074 Y-3.290
G1 X-4.113 Y-2.534
G1 X-4.118 Y-1.777
G1 X-4.089 Y-1.020
G1 X-4.026 Y-0.266
G1 X-3.929 Y0.484
G1 X-3.798 Y1.229
G1 X-3.634 Y1.967
G1 X-3.437 Y2.696
G1 X-3.207 Y3.416
G1 X-2.944 Y4.124
G1 X-2.651 Y4.819
G1 X-2.326 Y5.500
G1 X-1.970 Y6.166
G1 X-1.585 Y6.814
G1 X-1.172 Y7.444
G1 X-0.730 Y8.054
G1 X-0.261 Y8.644
G1 X0.233 Y9.211
G1 X0.753 Y9.755
G1 X1.297 Y10.275
G1 X1.863 Y10.769
G1 X2.451 Y11.236
G1 X3.060 Y11.677
G1 X3.687 Y12.089
G1 X4.333 Y12.471
G1 X4.995 Y12.824
G1 X5.671 Y13.147
G1 X6.362 Y13.437
G1 X7.065 Y13.696
G1 X7.778 Y13.923
G1 X8.501 Y14.117
G1 X9.232 Y14.277
G1 X9.969 Y14.404
G1 X10.710 Y14.497
G1 X11.455 Y14.556
G0 Z10
G0 X7.518 Y-17.371
Z10
Z2
G1 Z-0.125 F80
G1 X7.518 Y-17.371 F200
G1 X6.794 Y-17.149
G1 X6.081 Y-16.894
G1 X5.381 Y-16.607
G1 X4.693 Y-16.289
G1 X4.021 Y-15.940
G1 X3.365 Y-15.561
G1 X2.726 Y-15.153
G1 X2.107 Y-14.717
G1 X1.507 Y-14.252
G1 X0.929 Y-13.762
G1 X0.374 Y-13.245
G1 X-0.157 Y-12.705
G1 X-0.664 Y-12.140
G1 X-1.144 Y-11.554
G1 X-1.598 Y-10.946
G1 X-2.024 Y-10.319
G1 X-2.421 Y-9.673
G1 X-2.789 Y-9.010
G1 X-3.126 Y-8.331
G1 X-3.433 Y-7.638
G1 X-3.707 Y-6.931
G1 X-3.950 Y-6.213
G1 X-4.160 Y-5.485
G1 X-4.337 Y-4.749
G1 X-4.481 Y-4.005
G1 X-4.591 Y-3.256
G1 X-4.667 Y-2.502
G1 X-4.709 Y-1.746
G1 X-4.716 Y-0.990
G1 X-4.690 Y-0.234
G1 X-4.629 Y0.520
G1 X-4.535 Y1.271
G1 X-4.407 Y2.015
G1 X-4.245 Y2.754
G1 X-4.050 Y3.483
G1 X-3.822 Y4.203
G1 X-3.563 Y4.912
G1 X-3.271 Y5.608
G1 X-2.948 Y6.289
G1 X-2.595 Y6.956
G1 X-2.213 Y7.605
G1 X-1.801 Y8.236
G1 X-1.362 Y8.847
G1 X-0.895 Y9.437
G1 X-0.402 Y10.006
G1 X0.116 Y10.551
G1 X0.657 Y11.072
G1 X1.222 Y11.567
G1 X1.808 Y12.036
G1 X2.415 Y12.478
G1 X3.041 Y12.891
G1 X3.685 Y13.276
G1 X4.345 Y13.630
G1 X5.021 Y13.954
G1 X5.710 Y14.247
G1 X6.412 Y14.507
G1 X7.124 Y14.735
G1 X7.846 Y14.931
G1 X8.576 Y15.093
G1 X9.312 Y15.222
G1 X10.053 Y15.316
G1 X10.797 Y15.377
G0 Z10
G0 X8.396 Y-16.924
Z10
Z2
G1 Z-0.125 F80
G1 X8.396 Y-16.924 F200
G1 X7.655 Y-16.770
G1 X6.921 Y-16.583
G1 X6.197 Y-16.364
G1 X5.483 Y-16.111
G1 X4.781 Y-15.827
G1 X4.092 Y-15.511
G1 X3.418 Y-15.164
G1 X2.761 Y-14.787
G1 X2.121 Y-14.381
G1 X1.500 Y-13.947
G1 X0.899 Y-13.485
G1 X0.319 Y-12.996
G1 X-0.238 Y-12.482
G1 X-0.771 Y-11.943
G1 X-1.280 Y-11.380
G1 X-1.763 Y-10.795
G1 X-2.218 Y-10.189
G1 X-2.647 Y-9.563
G1 X-3.046 Y-8.919
G1 X-3.416 Y-8.257
G1 X-3.756 Y-7.580
G1 X-4.064 Y-6.887
G1 X-4.342 Y-6.182
G1 X-4.587 Y-5.465
G1 X-4.799 Y-4.738
G1 X-4.979 Y-4.002
G1 X-5.125 Y-3.259
G1 X-5.237 Y-2.510
G1 X-5.316 Y-1.758
G1 X-5.360 Y-1.002
G1 X-5.370 Y-0.246
G1 X-5.346 Y0.510
G1 X-5.288 Y1.264
G1 X-5.196 Y2.014
G1 X-5.071 Y2.759
G1 X-4.911 Y3.497
G1 X-4.719 Y4.227
G1 X-4.494 Y4.947
G1 X-4.236 Y5.656
G1 X-3.947 Y6.353
G1 X-3.627 Y7.035
G1 X-3.276 Y7.702
G1 X-2.896 Y8.352
G1 X-2.486 Y8.983
G1 X-2.049 Y9.596
G1 X-1.584 Y10.187
G1 X-1.094 Y10.757
G1 X-0.578 Y11.303
G1 X-0.038 Y11.825
G1 X0.525 Y12.322
G1 X1.110 Y12.792
G1 X1.715 Y13.235
G1 X2.339 Y13.650
G1 X2.982 Y14.036
G1 X3.641 Y14.392
G1 X4.315 Y14.717
G1 X5.003 Y15.012
G1 X5.704 Y15.274
G1 X6.415 Y15.504
G1 X7.136 Y15.701
G1 X7.865 Y15.865
G1 X8.600 Y15.995
G1 X9.341 Y16.092
G0 Z10
G0 X9.247 Y-16.379
Z10
Z2
G1 Z-0.125 F80
G1 X9.247 Y-16.379 F200
G1 X8.495 Y-16.295
G1 X7.747 Y-16.178
G1 X7.005 Y-16.026
G1 X6.271 Y-15.842
G1 X5.546 Y-15.624
G1 X4.831 Y-15.374
G1 X4.127 Y-15.092
G1 X3.438 Y-14.779
G1 X2.762 Y-14.434
G1 X2.103 Y-14.060
G1 X1.462 Y-13.656
G1 X0.839 Y-13.223
G1 X0.236 Y-12.763
G1 X-0.345 Y-12.276
G1 X-0.904 Y-11.764
G1 X-1.439 Y-11.227
G1 X-1.949 Y-10.666
G1 X-2.434 Y-10.083
G1 X-2.892 Y-9.479
G1 X-3.322 Y-8.854
G1 X-3.724 Y-8.211
G1 X-4.096 Y-7.551
G1 X-4.438 Y-6.875
G1 X-4.749 Y-6.184
G1 X-5.029 Y-5.480
G1 X-5.276 Y-4.764
G1 X-5.491 Y-4.037
G1 X-5.673 Y-3.302
G1 X-5.822 Y-2.560
G1 X-5.937 Y-1.812
G1 X-6.017 Y-1.060
G1 X-6.064 Y-0.305
G1 X-6.077 Y0.451
G1 X-6.056 Y1.207
G1 X-6.000 Y1.960
G1 X-5.911 Y2.710
G1 X-5.787 Y3.455
G1 X-5.631 Y4.193
G1 X-5.441 Y4.924
G1 X-5.218 Y5.644
G1 X-4.963 Y6.354
G1 X-4.676 Y7.051
G1 X-4.358 Y7.733
G1 X-4.009 Y8.401
G1 X-3.631 Y9.052
G1 X-3.224 Y9.684
G1 X-2.789 Y10.297
G1 X-2.326 Y10.890
G1 X-1.837 Y11.460
G1 X-1.323 Y12.008
G1 X-0.785 Y12.531
G1 X-0.224 Y13.029
G1 X0.359 Y13.501
G1 X0.962 Y13.945
G1 X1.585 Y14.361
G1 X2.226 Y14.749
G1 X2.884 Y15.106
G1 X3.557 Y15.433
G1 X4.244 Y15.729
G1 X4.943 Y15.993
G1 X5.654 Y16.225
G1 X6.374 Y16.424
G1 X7.102 Y16.589
G1 X7.836 Y16.721
G1 X8.576 Y16.820
G0 Z10
G0 X10.061 Y-15.737
Z10
Z2
G1 Z-0.125 F80
G1 X10.061 Y-15.737 F200
G1 X9.305 Y-15.724
G1 X8.549 Y-15.677
G1 X7.797 Y-15.596
G1 X7.048 Y-15.481
G1 X6.306 Y-15.332
G1 X5.571 Y-15.150
G1 X4.844 Y-14.935
G1 X4.128 Y-14.687
G1 X3.424 Y-14.407
G1 X2.733 Y-14.096
G1 X2.056 Y-13.754
G1 X1.396 Y-13.382
G1 X0.753 Y-12.980
G1 X0.129 Y-12.550
G1 X-0.476 Y-12.092
G1 X-1.059 Y-11.607
G1 X-1.619 Y-11.096
G1 X-2.156 Y-10.561
G1 X-2.669 Y-10.002
G1 X-3.156 Y-9.421
G1 X-3.616 Y-8.818
G1 X-4.048 Y-8.195
G1 X-4.452 Y-7.554
G1 X-4.826 Y-6.895
G1 X-5.170 Y-6.220
G1 X-5.484 Y-5.530
G1 X-5.766 Y-4.827
G1 X-6.015 Y-4.112
G1 X-6.233 Y-3.387
G1 X-6.417 Y-2.653
G1 X-6.568 Y-1.912
G1 X-6.685 Y-1.164
G1 X-6.769 Y-0.413
G1 X-6.818 Y0.342
G1 X-6.833 Y1.097
G1 X-6.815 Y1.853
G1 X-6.761 Y2.606
G1 X-6.674 Y3.356
G1 X-6.554 Y4.101
G1 X-6.399 Y4.839
G1 X-6.212 Y5.570
G1 X-5.991 Y6.291
G1 X-5.739 Y7.000
G1 X-5.454 Y7.698
G1 X-5.138 Y8.381
G1 X-4.792 Y9.049
G1 X-4.416 Y9.700
G1 X-4.011 Y10.334
G1 X-3.578 Y10.948
G1 X-3.117 Y11.541
G1 X-2.630 Y12.113
G1 X-2.118 Y12.661
G1 X-1.582 Y13.186
G1 X-1.023 Y13.685
G1 X-0.441 Y14.158
G1 X0.161 Y14.604
G1 X0.782 Y15.022
G1 X1.421 Y15.410
G1 X2.078 Y15.769
G1 X2.750 Y16.098
G1 X3.435 Y16.395
G1 X4.134 Y16.661
G1 X4.843 Y16.894
G1 X5.562 Y17.095
G1 X6.290 Y17.262
G1 X7.024 Y17.396
G0 Z10
G0 X11.578 Y-14.910
Z10
Z2
G1 Z-0.125 F80
G1 X11.578 Y-14.910 F200
G1 X10.828 Y-15.001
G1 X10.073 Y-15.059
G1 X9.317 Y-15.083
G1 X8.561 Y-15.073
G1 X7.805 Y-15.028
G1 X7.052 Y-14.949
G1 X6.303 Y-14.837
G1 X5.560 Y-14.690
G1 X4.824 Y-14.511
G1 X4.096 Y-14.298
G1 X3.379 Y-14.053
G1 X2.674 Y-13.776
G1 X1.982 Y-13.467
G1 X1.304 Y-13.127
G1 X0.642 Y-12.757
G1 X-0.002 Y-12.357
G1 X-0.628 Y-11.929
G1 X-1.234 Y-11.473
G1 X-1.819 Y-10.990
G1 X-2.381 Y-10.482
G1 X-2.920 Y-9.949
G1 X-3.435 Y-9.392
G1 X-3.923 Y-8.812
G1 X-4.385 Y-8.211
G1 X-4.820 Y-7.590
G1 X-5.226 Y-6.950
G1 X-5.602 Y-6.292
G1 X-5.949 Y-5.619
G1 X-6.264 Y-4.930
G1 X-6.548 Y-4.229
G1 X-6.801 Y-3.515
G1 X-7.020 Y-2.791
G1 X-7.207 Y-2.057
G1 X-7.360 Y-1.317
G1 X-7.480 Y-0.570
G1 X-7.566 Y0.181
G1 X-7.618 Y0.935
G1 X-7.636 Y1.690
G1 X-7.619 Y2.445
G1 X-7.569 Y3.198
G1 X-7.484 Y3.948
G1 X-7.366 Y4.693
G1 X-7.214 Y5.431
G1 X-7.028 Y6.162
G1 X-6.810 Y6.883
G1 X-6.560 Y7.593
G1 X-6.278 Y8.291
G1 X-5.964 Y8.975
G1 X-5.620 Y9.643
G1 X-5.246 Y10.295
G1 X-4.843 Y10.929
G1 X-4.412 Y11.544
G1 X-3.954 Y12.138
G1 X-3.469 Y12.711
G1 X-2.959 Y13.261
G1 X-2.424 Y13.786
G1 X-1.866 Y14.287
G1 X-1.287 Y14.761
G1 X-0.686 Y15.208
G1 X-0.067 Y15.627
G1 X0.572 Y16.017
G1 X1.227 Y16.378
G1 X1.897 Y16.708
G1 X2.582 Y17.007
G1 X3.279 Y17.274
G1 X3.988 Y17.509
G1 X4.706 Y17.711
G1 X5.432 Y17.880
G0 Z10
G0 X13.006 Y-13.819
Z10
Z2
G1 Z-0.125 F80
G1 X13.006 Y-13.819 F200
G1 X12.276 Y-14.014
G1 X11.537 Y-14.176
G1 X10.792 Y-14.304
G1 X10.041 Y-14.398
G1 X9.287 Y-14.458
G1 X8.531 Y-14.485
G1 X7.774 Y-14.477
G1 X7.017 Y-14.435
G1 X6.264 Y-14.359
G1 X5.514 Y-14.249
G1 X4.770 Y-14.105
G1 X4.034 Y-13.928
G1 X3.305 Y-13.718
G1 X2.587 Y-13.475
G1 X1.881 Y-13.200
G1 X1.187 Y-12.893
G1 X0.508 Y-12.556
G1 X-0.155 Y-12.188
G1 X-0.801 Y-11.791
G1 X-1.428 Y-11.365
G1 X-2.035 Y-10.911
G1 X-2.622 Y-10.430
G1 X-3.186 Y-9.924
G1 X-3.727 Y-9.392
G1 X-4.243 Y-8.837
G1 X-4.733 Y-8.259
G1 X-5.197 Y-7.660
G1 X-5.634 Y-7.041
G1 X-6.042 Y-6.402
G1 X-6.421 Y-5.746
G1 X-6.769 Y-5.074
G1 X-7.087 Y-4.387
G1 X-7.374 Y-3.686
G1 X-7.628 Y-2.974
G1 X-7.850 Y-2.251
G1 X-8.039 Y-1.518
G1 X-8.195 Y-0.778
G1 X-8.317 Y-0.033
G1 X-8.406 Y0.718
G1 X-8.460 Y1.471
G1 X-8.480 Y2.226
G1 X-8.466 Y2.980
G1 X-8.418 Y3.733
G1 X-8.335 Y4.483
G1 X-8.219 Y5.228
G1 X-8.070 Y5.966
G1 X-7.887 Y6.697
G1 X-7.671 Y7.418
G1 X-7.423 Y8.129
G1 X-7.143 Y8.827
G1 X-6.832 Y9.511
G1 X-6.490 Y10.180
G1 X-6.118 Y10.833
G1 X-5.717 Y11.468
G1 X-5.288 Y12.083
G1 X-4.832 Y12.679
G1 X-4.349 Y13.252
G1 X-3.840 Y13.803
G1 X-3.308 Y14.330
G1 X-2.752 Y14.831
G1 X-2.174 Y15.307
G1 X-1.575 Y15.755
G1 X-0.956 Y16.176
G1 X-0.320 Y16.567
G1 X0.334 Y16.929
G1 X1.003 Y17.261
G1 X1.687 Y17.561
G1 X2.383 Y17.830
G1 X3.091 Y18.066
G1 X3.808 Y18.270
G1 X4.534 Y18.441
G0 Z10
G0 X14.304 Y-12.479
Z10
Z2
G1 Z-0.125 F80
G1 X14.304 Y-12.479 F200
G1 X13.608 Y-12.773
G1 X12.899 Y-13.035
G1 X12.179 Y-13.265
G1 X11.450 Y-13.462
G1 X10.711 Y-13.626
G1 X9.966 Y-13.757
G1 X9.216 Y-13.854
G1 X8.461 Y-13.917
G1 X7.705 Y-13.945
G1 X6.947 Y-13.940
G1 X6.191 Y-13.901
G1 X5.437 Y-13.827
G1 X4.687 Y-13.720
G1 X3.942 Y-13.578
G1 X3.204 Y-13.404
G1 X2.475 Y-13.196
G1 X1.756 Y-12.956
G1 X1.049 Y-12.683
G1 X0.354 Y-12.379
G1 X-0.326 Y-12.044
G1 X-0.990 Y-11.678
G1 X-1.638 Y-11.283
G1 X-2.266 Y-10.860
G1 X-2.875 Y-10.408
G1 X-3.463 Y-9.929
G1 X-4.029 Y-9.425
G1 X-4.572 Y-8.895
G1 X-5.090 Y-8.342
G1 X-5.582 Y-7.766
G1 X-6.048 Y-7.169
G1 X-6.487 Y-6.551
G1 X-6.897 Y-5.914
G1 X-7.277 Y-5.260
G1 X-7.628 Y-4.589
G1 X-7.948 Y-3.903
G1 X-8.237 Y-3.204
G1 X-8.494 Y-2.492
G1 X-8.718 Y-1.770
G1 X-8.910 Y-1.039
G1 X-9.068 Y-0.300
G1 X-9.192 Y0.445
G1 X-9.283 Y1.195
G1 X-9.340 Y1.948
G1 X-9.362 Y2.702
G1 X-9.350 Y3.456
G1 X-9.305 Y4.209
G1 X-9.225 Y4.958
G1 X-9.111 Y5.703
G1 X-8.964 Y6.442
G1 X-8.783 Y7.172
G1 X-8.570 Y7.894
G1 X-8.324 Y8.604
G1 X-8.047 Y9.303
G1 X-7.737 Y9.988
G1 X-7.398 Y10.658
G1 X-7.028 Y11.311
G1 X-6.629 Y11.946
G1 X-6.202 Y12.563
G1 X-5.747 Y13.159
G1 X-5.266 Y13.733
G1 X-4.760 Y14.285
G1 X-4.229 Y14.813
G1 X-3.675 Y15.316
G1 X-3.098 Y15.792
G1 X-2.501 Y16.242
G1 X-1.884 Y16.664
G1 X-1.248 Y17.057
G1 X-0.596 Y17.420
G1 X0.072 Y17.753
G1 X0.754 Y18.055
G1 X1.450 Y18.326
G1 X2.156 Y18.564
G1 X2.873 Y18.769
G0 Z10
G0 X15.435 Y-10.906
Z10
Z2
G1 Z-0.125 F80
G1 X15.435 Y-10.906 F200
G1 X14.787 Y-11.293
G1 X14.122 Y-11.651
G1 X13.441 Y-11.978
G1 X12.746 Y-12.274
G1 X12.037 Y-12.539
G1 X11.318 Y-12.771
G1 X10.588 Y-12.971
G1 X9.850 Y-13.138
G1 X9.105 Y-13.271
G1 X8.355 Y-13.370
G1 X7.600 Y-13.436
G1 X6.844 Y-13.467
G1 X6.086 Y-13.465
G1 X5.329 Y-13.428
G1 X4.575 Y-13.357
G1 X3.824 Y-13.252
G1 X3.079 Y-13.113
G1 X2.341 Y-12.941
G1 X1.611 Y-12.736
G1 X0.891 Y-12.498
G1 X0.182 Y-12.228
G1 X-0.513 Y-11.926
G1 X-1.195 Y-11.593
G1 X-1.860 Y-11.230
G1 X-2.509 Y-10.837
G1 X-3.139 Y-10.416
G1 X-3.750 Y-9.967
G1 X-4.339 Y-9.490
G1 X-4.907 Y-8.988
G1 X-5.451 Y-8.460
G1 X-5.971 Y-7.909
G1 X-6.465 Y-7.335
G1 X-6.933 Y-6.739
G1 X-7.373 Y-6.123
G1 X-7.786 Y-5.488
G1 X-8.168 Y-4.835
G1 X-8.521 Y-4.165
G1 X-8.844 Y-3.481
G1 X-9.135 Y-2.783
G1 X-9.394 Y-2.072
G1 X-9.620 Y-1.351
G1 X-9.814 Y-0.621
G1 X-9.974 Y0.117
G1 X-10.101 Y0.861
G1 X-10.194 Y1.610
G1 X-10.253 Y2.363
G1 X-10.278 Y3.116
G1 X-10.269 Y3.870
G1 X-10.226 Y4.622
G1 X-10.148 Y5.372
G1 X-10.037 Y6.116
G1 X-9.892 Y6.855
G1 X-9.714 Y7.585
G1 X-9.502 Y8.307
G1 X-9.259 Y9.018
G1 X-8.983 Y9.717
G1 X-8.676 Y10.402
G1 X-8.339 Y11.072
G1 X-7.971 Y11.726
G1 X-7.574 Y12.363
G1 X-7.149 Y12.980
G1 X-6.697 Y13.577
G1 X-6.217 Y14.152
G1 X-5.713 Y14.705
G1 X-5.183 Y15.234
G1 X-4.631 Y15.738
G1 X-4.056 Y16.215
G1 X-3.460 Y16.666
G1 X-2.844 Y17.090
G1 X-2.210 Y17.484
G1 X-1.559 Y17.849
G1 X-0.892 Y18.183
G1 X-0.211 Y18.487
G1 X0.483 Y18.758
G0 Z10
G0 X16.363 Y-9.125
Z10
Z2
G1 Z-0.125 F80
G1 X16.363 Y-9.125 F200
G1 X15.776 Y-9.598
G1 X15.167 Y-10.044
G1 X14.538 Y-10.462
G1 X13.891 Y-10.851
G1 X13.227 Y-11.211
G1 X12.547 Y-11.541
G1 X11.852 Y-11.839
G1 X11.144 Y-12.107
G1 X10.425 Y-12.341
G1 X9.696 Y-12.544
G1 X8.958 Y-12.713
G1 X8.213 Y-12.849
G1 X7.463 Y-12.951
G1 X6.709 Y-13.019
G1 X5.952 Y-13.053
G1 X5.194 Y-13.053
G1 X4.437 Y-13.018
G1 X3.682 Y-12.950
G1 X2.931 Y-12.848
G1 X2.185 Y-12.712
G1 X1.446 Y-12.542
G1 X0.716 Y-12.339
G1 X-0.005 Y-12.104
G1 X-0.715 Y-11.836
G1 X-1.411 Y-11.537
G1 X-2.094 Y-11.207
G1 X-2.761 Y-10.846
G1 X-3.411 Y-10.455
G1 X-4.042 Y-10.036
G1 X-4.654 Y-9.589
G1 X-5.246 Y-9.115
G1 X-5.815 Y-8.614
G1 X-6.361 Y-8.089
G1 X-6.882 Y-7.539
G1 X-7.378 Y-6.967
G1 X-7.848 Y-6.373
G1 X-8.290 Y-5.759
G1 X-8.704 Y-5.125
G1 X-9.089 Y-4.474
G1 X-9.444 Y-3.806
G1 X-9.769 Y-3.123
G1 X-10.062 Y-2.426
G1 X-10.323 Y-1.717
G1 X-10.552 Y-0.997
G1 X-10.748 Y-0.267
G1 X-10.911 Y0.470
G1 X-11.040 Y1.213
G1 X-11.135 Y1.962
G1 X-11.197 Y2.713
G1 X-11.224 Y3.466
G1 X-11.217 Y4.220
G1 X-11.176 Y4.972
G1 X-11.101 Y5.721
G1 X-10.992 Y6.465
G1 X-10.849 Y7.203
G1 X-10.673 Y7.934
G1 X-10.464 Y8.656
G1 X-10.223 Y9.367
G1 X-9.949 Y10.066
G1 X-9.645 Y10.752
G1 X-9.309 Y11.423
G1 X-8.944 Y12.077
G1 X-8.549 Y12.714
G1 X-8.125 Y13.332
G1 X-7.675 Y13.930
G1 X-7.197 Y14.506
G1 X-6.694 Y15.060
G1 X-6.167 Y15.590
G1 X-5.616 Y16.095
G1 X-5.042 Y16.574
G1 X-4.448 Y17.026
G1 X-3.834 Y17.451
G1 X-3.201 Y17.846
G1 X-2.551 Y18.212
G1 X-1.885 Y18.548
G1 X-1.205 Y18.853
G0 Z10
G0 X18.013 Y-5.998
Z10
Z2
G1 Z-0.125 F80
G1 X18.013 Y-5.998 F200
G1 X17.549 Y-6.591
G1 X17.058 Y-7.163
G1 X16.542 Y-7.713
G1 X16.001 Y-8.239
G1 X15.437 Y-8.739
G1 X14.850 Y-9.215
G1 X14.242 Y-9.663
G1 X13.615 Y-10.083
G1 X12.969 Y-10.475
G1 X12.305 Y-10.837
G1 X11.626 Y-11.169
G1 X10.932 Y-11.470
G1 X10.225 Y-11.740
G1 X9.506 Y-11.977
G1 X8.777 Y-12.182
G1 X8.040 Y-12.354
G1 X7.295 Y-12.492
G1 X6.545 Y-12.597
G1 X5.791 Y-12.667
G1 X5.034 Y-12.704
G1 X4.276 Y-12.706
G1 X3.519 Y-12.675
G1 X2.763 Y-12.609
G1 X2.012 Y-12.509
G1 X1.265 Y-12.376
G1 X0.526 Y-12.209
G1 X-0.206 Y-12.009
G1 X-0.927 Y-11.776
G1 X-1.638 Y-11.511
G1 X-2.335 Y-11.214
G1 X-3.019 Y-10.886
G1 X-3.687 Y-10.527
G1 X-4.338 Y-10.139
G1 X-4.971 Y-9.722
G1 X-5.585 Y-9.277
G1 X-6.177 Y-8.805
G1 X-6.748 Y-8.307
G1 X-7.296 Y-7.783
G1 X-7.819 Y-7.236
G1 X-8.317 Y-6.665
G1 X-8.788 Y-6.073
G1 X-9.233 Y-5.460
G1 X-9.649 Y-4.829
G1 X-10.036 Y-4.179
G1 X-10.393 Y-3.512
G1 X-10.719 Y-2.830
G1 X-11.014 Y-2.135
G1 X-11.278 Y-1.427
G1 X-11.509 Y-0.708
G1 X-11.707 Y0.020
G1 X-11.872 Y0.756
G1 X-12.004 Y1.499
G1 X-12.101 Y2.247
G1 X-12.165 Y2.997
G1 X-12.194 Y3.750
G1 X-12.190 Y4.503
G1 X-12.151 Y5.255
G1 X-12.078 Y6.003
G1 X-11.971 Y6.748
G1 X-11.831 Y7.486
G1 X-11.657 Y8.217
G1 X-11.451 Y8.939
G1 X-11.211 Y9.650
G1 X-10.940 Y10.350
G1 X-10.637 Y11.036
G1 X-10.304 Y11.707
G1 X-9.940 Y12.362
G1 X-9.548 Y13.000
G1 X-9.126 Y13.618
G1 X-8.677 Y14.217
G1 X-8.202 Y14.794
G1 X-7.700 Y15.349
G1 X-7.175 Y15.880
G1 X-6.625 Y16.386
G1 X-6.053 Y16.866
G1 X-5.460 Y17.319
G1 X-4.848 Y17.745
G1 X-4.216 Y18.142
G1 X-3.567 Y18.510
G0 Z10
G0 X18.622 Y-3.101
Z10
Z2
G1 Z-0.125 F80
G1 X18.622 Y-3.101 F200
G1 X18.275 Y-3.769
G1 X17.898 Y-4.420
G1 X17.492 Y-5.055
G1 X17.057 Y-5.670
G1 X16.594 Y-6.265
G1 X16.105 Y-6.839
G1 X15.590 Y-7.390
G1 X15.051 Y-7.918
G1 X14.488 Y-8.421
G1 X13.902 Y-8.898
G1 X13.296 Y-9.349
G1 X12.669 Y-9.771
G1 X12.024 Y-10.165
G1 X11.361 Y-10.530
G1 X10.683 Y-10.864
G1 X9.990 Y-11.168
G1 X9.283 Y-11.440
G1 X8.565 Y-11.680
G1 X7.837 Y-11.887
G1 X7.100 Y-12.061
G1 X6.355 Y-12.202
G1 X5.605 Y-12.310
G1 X4.851 Y-12.383
G1 X4.094 Y-12.422
G1 X3.336 Y-12.427
G1 X2.579 Y-12.398
G1 X1.823 Y-12.335
G1 X1.071 Y-12.238
G1 X0.324 Y-12.107
G1 X-0.416 Y-11.943
G1 X-1.148 Y-11.745
G1 X-1.871 Y-11.515
G1 X-2.582 Y-11.252
G1 X-3.281 Y-10.958
G1 X-3.965 Y-10.632
G1 X-4.634 Y-10.276
G1 X-5.287 Y-9.890
G1 X-5.921 Y-9.476
G1 X-6.536 Y-9.033
G1 X-7.130 Y-8.563
G1 X-7.702 Y-8.066
G1 X-8.252 Y-7.545
G1 X-8.777 Y-6.999
G1 X-9.276 Y-6.431
G1 X-9.750 Y-5.841
G1 X-10.196 Y-5.230
G1 X-10.614 Y-4.599
G1 X-11.003 Y-3.951
G1 X-11.362 Y-3.286
G1 X-11.690 Y-2.606
G1 X-11.988 Y-1.912
G1 X-12.253 Y-1.205
G1 X-12.486 Y-0.487
G1 X-12.687 Y0.240
G1 X-12.854 Y0.975
G1 X-12.988 Y1.717
G1 X-13.088 Y2.464
G1 X-13.154 Y3.214
G1 X-13.185 Y3.966
G1 X-13.183 Y4.719
G1 X-13.146 Y5.470
G1 X-13.076 Y6.218
G1 X-12.971 Y6.962
G1 X-12.833 Y7.701
G1 X-12.662 Y8.432
G1 X-12.457 Y9.154
G1 X-12.220 Y9.865
G1 X-11.951 Y10.565
G1 X-11.650 Y11.251
G1 X-11.319 Y11.923
G1 X-10.957 Y12.579
G1 X-10.566 Y13.217
G1 X-10.147 Y13.836
G1 X-9.700 Y14.436
G1 X-9.226 Y15.014
G1 X-8.726 Y15.569
G1 X-8.202 Y16.101
G1 X-7.654 Y16.608
G1 X-7.084 Y17.090
G1 X-6.493 Y17.545
G1 X-5.881 Y17.971
G0 Z10
G0 X18.891 Y0.702
Z10
Z2
G1 Z-0.125 F80
G1 X18.891 Y0.702 F200
G1 X18.706 Y-0.026
G1 X18.488 Y-0.745
G1 X18.238 Y-1.454
G1 X17.955 Y-2.151
G1 X17.641 Y-2.835
G1 X17.296 Y-3.504
G1 X16.921 Y-4.157
G1 X16.516 Y-4.793
G1 X16.083 Y-5.410
G1 X15.622 Y-6.007
G1 X15.134 Y-6.583
G1 X14.621 Y-7.136
G1 X14.083 Y-7.666
G1 X13.521 Y-8.171
G1 X12.937 Y-8.651
G1 X12.332 Y-9.103
G1 X11.706 Y-9.528
G1 X11.062 Y-9.924
G1 X10.400 Y-10.291
G1 X9.723 Y-10.628
G1 X9.030 Y-10.934
G1 X8.325 Y-11.209
G1 X7.607 Y-11.451
G1 X6.879 Y-11.661
G1 X6.143 Y-11.838
G1 X5.398 Y-11.981
G1 X4.649 Y-12.091
G1 X3.894 Y-12.167
G1 X3.137 Y-12.209
G1 X2.379 Y-12.217
G1 X1.622 Y-12.190
G1 X0.866 Y-12.130
G1 X0.113 Y-12.035
G1 X-0.634 Y-11.907
G1 X-1.375 Y-11.745
G1 X-2.107 Y-11.550
G1 X-2.831 Y-11.322
G1 X-3.543 Y-11.062
G1 X-4.242 Y-10.770
G1 X-4.928 Y-10.447
G1 X-5.598 Y-10.094
G1 X-6.252 Y-9.710
G1 X-6.888 Y-9.298
G1 X-7.504 Y-8.857
G1 X-8.099 Y-8.389
G1 X-8.673 Y-7.895
G1 X-9.224 Y-7.376
G1 X-9.750 Y-6.832
G1 X-10.252 Y-6.265
G1 X-10.727 Y-5.677
G1 X-11.175 Y-5.068
G1 X-11.595 Y-4.439
G1 X-11.986 Y-3.793
G1 X-12.347 Y-3.129
G1 X-12.677 Y-2.450
G1 X-12.977 Y-1.757
G1 X-13.244 Y-1.052
G1 X-13.480 Y-0.335
G1 X-13.682 Y0.391
G1 X-13.852 Y1.125
G1 X-13.988 Y1.866
G1 X-14.090 Y2.612
G1 X-14.158 Y3.362
G1 X-14.192 Y4.113
G1 X-14.192 Y4.865
G1 X-14.157 Y5.616
G1 X-14.089 Y6.364
G1 X-13.987 Y7.108
G1 X-13.851 Y7.846
G1 X-13.681 Y8.577
G1 X-13.479 Y9.299
G1 X-13.244 Y10.011
G1 X-12.977 Y10.711
G1 X-12.679 Y11.398
G1 X-12.349 Y12.070
G1 X-11.989 Y12.726
G1 X-11.600 Y13.365
G1 X-11.183 Y13.985
G1 X-10.738 Y14.585
G1 X-10.265 Y15.164
G1 X-9.767 Y15.721
G1 X-9.245 Y16.254
G1 X-8.699 Y16.762
G0 Z10
G0 X18.297 Y4.628
Z10
Z2
G1 Z-0.125 F80
G1 X18.297 Y4.628 F200
G1 X18.283 Y3.878
G1 X18.235 Y3.129
G1 X18.153 Y2.383
G1 X18.037 Y1.641
G1 X17.888 Y0.905
G1 X17.705 Y0.176
G1 X17.489 Y-0.545
G1 X17.240 Y-1.255
G1 X16.959 Y-1.953
G1 X16.647 Y-2.639
G1 X16.304 Y-3.309
G1 X15.930 Y-3.964
G1 X15.527 Y-4.601
G1 X15.096 Y-5.220
G1 X14.637 Y-5.819
G1 X14.151 Y-6.397
G1 X13.639 Y-6.952
G1 X13.102 Y-7.484
G1 X12.542 Y-7.991
G1 X11.959 Y-8.472
G1 X11.355 Y-8.927
G1 X10.731 Y-9.354
G1 X10.087 Y-9.753
G1 X9.427 Y-10.122
G1 X8.750 Y-10.461
G1 X8.058 Y-10.770
G1 X7.353 Y-11.047
G1 X6.636 Y-11.292
G1 X5.909 Y-11.504
G1 X5.173 Y-11.684
G1 X4.429 Y-11.830
G1 X3.679 Y-11.942
G1 X2.925 Y-12.021
G1 X2.169 Y-12.065
G1 X1.410 Y-12.076
G1 X0.653 Y-12.052
G1 X-0.104 Y-11.994
G1 X-0.856 Y-11.902
G1 X-1.604 Y-11.777
G1 X-2.345 Y-11.617
G1 X-3.079 Y-11.425
G1 X-3.803 Y-11.200
G1 X-4.515 Y-10.942
G1 X-5.216 Y-10.653
G1 X-5.903 Y-10.332
G1 X-6.574 Y-9.981
G1 X-7.229 Y-9.600
G1 X-7.866 Y-9.189
G1 X-8.483 Y-8.751
G1 X-9.080 Y-8.285
G1 X-9.655 Y-7.793
G1 X-10.208 Y-7.276
G1 X-10.736 Y-6.734
G1 X-11.239 Y-6.170
G1 X-11.716 Y-5.583
G1 X-12.165 Y-4.976
G1 X-12.587 Y-4.349
G1 X-12.980 Y-3.704
G1 X-13.343 Y-3.042
G1 X-13.676 Y-2.364
G1 X-13.977 Y-1.673
G1 X-14.247 Y-0.969
G1 X-14.484 Y-0.253
G1 X-14.689 Y0.472
G1 X-14.860 Y1.205
G1 X-14.998 Y1.945
G1 X-15.103 Y2.691
G1 X-15.173 Y3.440
G1 X-15.209 Y4.190
G1 X-15.211 Y4.942
G1 X-15.179 Y5.692
G1 X-15.113 Y6.440
G1 X-15.013 Y7.184
G1 X-14.879 Y7.922
G1 X-14.712 Y8.653
G1 X-14.512 Y9.375
G1 X-14.279 Y10.087
G1 X-14.014 Y10.787
G1 X-13.717 Y11.475
G1 X-13.390 Y12.147
G1 X-13.032 Y12.804
G1 X-12.645 Y13.443
G1 X-12.229 Y14.064
G1 X-11.786 Y14.665
G1 X-11.315 Y15.245
G0 Z10
G0 X16.823 Y8.477
Z10
Z2
G1 Z-0.125 F80
G1 X16.823 Y8.477 F200
G1 X16.981 Y7.744
G1 X17.105 Y7.006
G1 X17.196 Y6.262
G1 X17.252 Y5.514
G1 X17.275 Y4.764
G1 X17.263 Y4.014
G1 X17.217 Y3.264
G1 X17.137 Y2.517
G1 X17.023 Y1.774
G1 X16.876 Y1.037
G1 X16.695 Y0.307
G1 X16.481 Y-0.415
G1 X16.234 Y-1.126
G1 X15.955 Y-1.826
G1 X15.645 Y-2.512
G1 X15.303 Y-3.185
G1 X14.932 Y-3.841
G1 X14.531 Y-4.480
G1 X14.101 Y-5.100
G1 X13.643 Y-5.701
G1 X13.159 Y-6.280
G1 X12.649 Y-6.838
G1 X12.114 Y-7.371
G1 X11.555 Y-7.881
G1 X10.973 Y-8.364
G1 X10.370 Y-8.821
G1 X9.747 Y-9.251
G1 X9.105 Y-9.652
G1 X8.445 Y-10.023
G1 X7.769 Y-10.365
G1 X7.079 Y-10.676
G1 X6.374 Y-10.955
G1 X5.658 Y-11.203
G1 X4.931 Y-11.418
G1 X4.196 Y-11.600
G1 X3.452 Y-11.749
G1 X2.703 Y-11.864
G1 X1.949 Y-11.945
G1 X1.192 Y-11.992
G1 X0.434 Y-12.005
G1 X-0.324 Y-11.984
G1 X-1.080 Y-11.929
G1 X-1.833 Y-11.840
G1 X-2.581 Y-11.716
G1 X-3.323 Y-11.560
G1 X-4.057 Y-11.370
G1 X-4.781 Y-11.147
G1 X-5.495 Y-10.892
G1 X-6.197 Y-10.605
G1 X-6.884 Y-10.287
G1 X-7.557 Y-9.938
G1 X-8.212 Y-9.559
G1 X-8.850 Y-9.151
G1 X-9.469 Y-8.715
G1 X-10.068 Y-8.252
G1 X-10.644 Y-7.762
G1 X-11.198 Y-7.247
G1 X-11.728 Y-6.707
G1 X-12.232 Y-6.144
G1 X-12.711 Y-5.559
G1 X-13.162 Y-4.954
G1 X-13.586 Y-4.329
G1 X-13.981 Y-3.685
G1 X-14.346 Y-3.025
G1 X-14.680 Y-2.349
G1 X-14.984 Y-1.659
G1 X-15.255 Y-0.956
G1 X-15.495 Y-0.241
G1 X-15.702 Y0.483
G1 X-15.875 Y1.215
G1 X-16.015 Y1.954
G1 X-16.122 Y2.699
G1 X-16.194 Y3.447
G1 X-16.233 Y4.197
G1 X-16.237 Y4.948
G1 X-16.207 Y5.698
G1 X-16.143 Y6.446
G1 X-16.045 Y7.189
G1 X-15.913 Y7.927
G1 X-15.748 Y8.658
G1 X-15.550 Y9.380
G1 X-15.319 Y10.092
G1 X-15.056 Y10.793
G1 X-14.762 Y11.481
G1 X-14.436 Y12.154
G0 Z10
G0 X14.500 Y12.048
Z10
Z2
G1 Z-0.125 F80
G1 X14.500 Y12.048 F200
G1 X14.820 Y11.373
G1 X15.110 Y10.683
G1 X15.368 Y9.980
G1 X15.593 Y9.267
G1 X15.786 Y8.543
G1 X15.946 Y7.811
G1 X16.073 Y7.072
G1 X16.165 Y6.328
G1 X16.224 Y5.579
G1 X16.248 Y4.829
G1 X16.239 Y4.078
G1 X16.195 Y3.328
G1 X16.117 Y2.580
G1 X16.005 Y1.837
G1 X15.860 Y1.099
G1 X15.681 Y0.367
G1 X15.469 Y-0.355
G1 X15.224 Y-1.068
G1 X14.947 Y-1.769
G1 X14.639 Y-2.457
G1 X14.300 Y-3.130
G1 X13.930 Y-3.788
G1 X13.531 Y-4.429
G1 X13.103 Y-5.051
G1 X12.647 Y-5.653
G1 X12.164 Y-6.235
G1 X11.655 Y-6.794
G1 X11.122 Y-7.330
G1 X10.564 Y-7.841
G1 X9.984 Y-8.327
G1 X9.382 Y-8.786
G1 X8.760 Y-9.218
G1 X8.120 Y-9.621
G1 X7.461 Y-9.995
G1 X6.786 Y-10.339
G1 X6.096 Y-10.652
G1 X5.393 Y-10.934
G1 X4.677 Y-11.184
G1 X3.951 Y-11.402
G1 X3.216 Y-11.587
G1 X2.473 Y-11.738
G1 X1.724 Y-11.856
G1 X0.970 Y-11.939
G1 X0.214 Y-11.989
G1 X-0.545 Y-12.005
G1 X-1.303 Y-11.987
G1 X-2.059 Y-11.934
G1 X-2.812 Y-11.847
G1 X-3.561 Y-11.727
G1 X-4.303 Y-11.573
G1 X-5.037 Y-11.386
G1 X-5.763 Y-11.165
G1 X-6.477 Y-10.913
G1 X-7.179 Y-10.628
G1 X-7.868 Y-10.312
G1 X-8.541 Y-9.966
G1 X-9.198 Y-9.590
G1 X-9.837 Y-9.184
G1 X-10.457 Y-8.750
G1 X-11.057 Y-8.289
G1 X-11.635 Y-7.801
G1 X-12.190 Y-7.288
G1 X-12.721 Y-6.750
G1 X-13.228 Y-6.190
G1 X-13.708 Y-5.607
G1 X-14.161 Y-5.003
G1 X-14.586 Y-4.379
G1 X-14.983 Y-3.737
G1 X-15.350 Y-3.078
G1 X-15.686 Y-2.404
G1 X-15.991 Y-1.715
G1 X-16.265 Y-1.013
G1 X-16.507 Y-0.300
G1 X-16.716 Y0.423
G1 X-16.891 Y1.154
G1 X-17.034 Y1.892
G1 X-17.142 Y2.636
G1 X-17.217 Y3.383
G1 X-17.257 Y4.133
G1 X-17.263 Y4.884
G1 X-17.236 Y5.633
G1 X-17.174 Y6.380
G1 X-17.078 Y7.124
G1 X-16.948 Y7.862
G1 X-16.785 Y8.592
G0 Z10
G0 X11.401 Y15.155
Z10
Z2
G1 Z-0.125 F80
G1 X11.401 Y15.155 F200
G1 X11.868 Y14.572
G1 X12.307 Y13.968
G1 X12.718 Y13.344
G1 X13.101 Y12.702
G1 X13.454 Y12.042
G1 X13.776 Y11.367
G1 X14.068 Y10.678
G1 X14.328 Y9.976
G1 X14.555 Y9.262
G1 X14.751 Y8.538
G1 X14.912 Y7.806
G1 X15.041 Y7.067
G1 X15.136 Y6.323
G1 X15.196 Y5.574
G1 X15.223 Y4.824
G1 X15.216 Y4.072
G1 X15.174 Y3.321
G1 X15.098 Y2.573
G1 X14.989 Y1.828
G1 X14.845 Y1.089
G1 X14.669 Y0.357
G1 X14.459 Y-0.366
G1 X14.216 Y-1.080
G1 X13.941 Y-1.782
G1 X13.635 Y-2.472
G1 X13.297 Y-3.147
G1 X12.929 Y-3.806
G1 X12.532 Y-4.449
G1 X12.106 Y-5.072
G1 X11.652 Y-5.677
G1 X11.171 Y-6.260
G1 X10.664 Y-6.821
G1 X10.131 Y-7.359
G1 X9.575 Y-7.872
G1 X8.997 Y-8.360
G1 X8.396 Y-8.821
G1 X7.776 Y-9.255
G1 X7.136 Y-9.661
G1 X6.479 Y-10.037
G1 X5.805 Y-10.384
G1 X5.116 Y-10.700
G1 X4.413 Y-10.984
G1 X3.698 Y-11.237
G1 X2.973 Y-11.457
G1 X2.238 Y-11.644
G1 X1.496 Y-11.798
G1 X0.747 Y-11.918
G1 X-0.006 Y-12.005
G1 X-0.763 Y-12.057
G1 X-1.521 Y-12.075
G1 X-2.279 Y-12.060
G1 X-3.035 Y-12.010
G1 X-3.789 Y-11.926
G1 X-4.538 Y-11.808
G1 X-5.280 Y-11.656
G1 X-6.015 Y-11.472
G1 X-6.741 Y-11.254
G1 X-7.456 Y-11.004
G1 X-8.159 Y-10.722
G1 X-8.848 Y-10.409
G1 X-9.523 Y-10.065
G1 X-10.181 Y-9.691
G1 X-10.821 Y-9.287
G1 X-11.442 Y-8.856
G1 X-12.043 Y-8.397
G1 X-12.622 Y-7.911
G1 X-13.179 Y-7.400
G1 X-13.712 Y-6.864
G1 X-14.220 Y-6.305
G1 X-14.702 Y-5.724
G1 X-15.156 Y-5.122
G1 X-15.583 Y-4.500
G1 X-15.982 Y-3.860
G1 X-16.350 Y-3.203
G1 X-16.689 Y-2.530
G1 X-16.996 Y-1.842
G1 X-17.272 Y-1.142
G1 X-17.515 Y-0.430
G1 X-17.726 Y0.292
G1 X-17.904 Y1.022
G1 X-18.048 Y1.760
G1 X-18.159 Y2.503
G1 X-18.235 Y3.249
G1 X-18.278 Y3.998
G1 X-18.286 Y4.748
G0 Z10
G0 X8.797 Y16.685
Z10
Z2
G1 Z-0.125 F80
G1 X8.797 Y16.685 F200
G1 X9.339 Y16.172
G1 X9.858 Y15.636
G1 X10.352 Y15.075
G1 X10.820 Y14.493
G1 X11.261 Y13.890
G1 X11.674 Y13.267
G1 X12.058 Y12.625
G1 X12.413 Y11.966
G1 X12.738 Y11.291
G1 X13.031 Y10.602
G1 X13.293 Y9.900
G1 X13.523 Y9.187
G1 X13.720 Y8.463
G1 X13.884 Y7.731
G1 X14.015 Y6.992
G1 X14.112 Y6.247
G1 X14.175 Y5.499
G1 X14.204 Y4.747
G1 X14.199 Y3.995
G1 X14.159 Y3.244
G1 X14.086 Y2.495
G1 X13.978 Y1.750
G1 X13.837 Y1.010
G1 X13.662 Y0.277
G1 X13.454 Y-0.448
G1 X13.214 Y-1.163
G1 X12.941 Y-1.867
G1 X12.637 Y-2.557
G1 X12.301 Y-3.234
G1 X11.935 Y-3.895
G1 X11.540 Y-4.539
G1 X11.116 Y-5.164
G1 X10.663 Y-5.770
G1 X10.184 Y-6.355
G1 X9.678 Y-6.918
G1 X9.148 Y-7.458
G1 X8.593 Y-7.974
G1 X8.016 Y-8.464
G1 X7.417 Y-8.927
G1 X6.798 Y-9.363
G1 X6.159 Y-9.771
G1 X5.503 Y-10.150
G1 X4.830 Y-10.499
G1 X4.142 Y-10.817
G1 X3.440 Y-11.104
G1 X2.726 Y-11.359
G1 X2.002 Y-11.582
G1 X1.268 Y-11.771
G1 X0.526 Y-11.928
G1 X-0.223 Y-12.051
G1 X-0.976 Y-12.140
G1 X-1.732 Y-12.195
G1 X-2.490 Y-12.216
G1 X-3.248 Y-12.203
G1 X-4.004 Y-12.156
G1 X-4.758 Y-12.074
G1 X-5.507 Y-11.959
G1 X-6.250 Y-11.810
G1 X-6.986 Y-11.628
G1 X-7.712 Y-11.413
G1 X-8.428 Y-11.165
G1 X-9.131 Y-10.886
G1 X-9.821 Y-10.575
G1 X-10.497 Y-10.233
G1 X-11.156 Y-9.862
G1 X-11.797 Y-9.461
G1 X-12.419 Y-9.031
G1 X-13.021 Y-8.574
G1 X-13.602 Y-8.091
G1 X-14.160 Y-7.582
G1 X-14.694 Y-7.048
G1 X-15.204 Y-6.491
G1 X-15.687 Y-5.912
G1 X-16.144 Y-5.312
G1 X-16.572 Y-4.692
G1 X-16.972 Y-4.053
G1 X-17.343 Y-3.397
G1 X-17.683 Y-2.726
G1 X-17.992 Y-2.040
G1 X-18.270 Y-1.340
G1 X-18.515 Y-0.630
G1 X-18.728 Y0.091
G1 X-18.908 Y0.820
G0 Z10
G0 X5.989 Y17.908
Z10
Z2
G1 Z-0.125 F80
G1 X5.989 Y17.908 F200
G1 X6.598 Y17.476
G1 X7.186 Y17.017
G1 X7.753 Y16.532
G1 X8.297 Y16.021
G1 X8.817 Y15.485
G1 X9.313 Y14.926
G1 X9.782 Y14.344
G1 X10.225 Y13.742
G1 X10.640 Y13.119
G1 X11.026 Y12.478
G1 X11.383 Y11.820
G1 X11.710 Y11.146
G1 X12.005 Y10.457
G1 X12.270 Y9.755
G1 X12.501 Y9.042
G1 X12.701 Y8.318
G1 X12.867 Y7.586
G1 X13.000 Y6.847
G1 X13.099 Y6.102
G1 X13.164 Y5.353
G1 X13.195 Y4.601
G1 X13.192 Y3.849
G1 X13.155 Y3.097
G1 X13.084 Y2.347
G1 X12.979 Y1.601
G1 X12.840 Y0.860
G1 X12.667 Y0.126
G1 X12.461 Y-0.600
G1 X12.223 Y-1.316
G1 X11.952 Y-2.020
G1 X11.650 Y-2.713
G1 X11.316 Y-3.390
G1 X10.953 Y-4.053
G1 X10.559 Y-4.698
G1 X10.136 Y-5.326
G1 X9.686 Y-5.933
G1 X9.208 Y-6.520
G1 X8.705 Y-7.085
G1 X8.176 Y-7.627
G1 X7.623 Y-8.145
G1 X7.047 Y-8.637
G1 X6.450 Y-9.102
G1 X5.832 Y-9.541
G1 X5.194 Y-9.951
G1 X4.539 Y-10.332
G1 X3.867 Y-10.683
G1 X3.180 Y-11.004
G1 X2.480 Y-11.294
G1 X1.766 Y-11.551
G1 X1.042 Y-11.776
G1 X0.309 Y-11.969
G1 X-0.433 Y-12.128
G1 X-1.180 Y-12.253
G1 X-1.933 Y-12.345
G1 X-2.689 Y-12.403
G1 X-3.447 Y-12.426
G1 X-4.205 Y-12.416
G1 X-4.961 Y-12.371
G1 X-5.715 Y-12.292
G1 X-6.464 Y-12.180
G1 X-7.208 Y-12.034
G1 X-7.943 Y-11.854
G1 X-8.670 Y-11.641
G1 X-9.387 Y-11.396
G1 X-10.091 Y-11.119
G1 X-10.782 Y-10.811
G1 X-11.458 Y-10.472
G1 X-12.118 Y-10.102
G1 X-12.760 Y-9.704
G1 X-13.384 Y-9.277
G1 X-13.987 Y-8.822
G1 X-14.569 Y-8.341
G1 X-15.128 Y-7.834
G1 X-15.664 Y-7.302
G1 X-16.175 Y-6.747
G1 X-16.660 Y-6.170
G1 X-17.118 Y-5.571
G1 X-17.548 Y-4.953
G1 X-17.950 Y-4.316
G1 X-18.322 Y-3.661
G1 X-18.664 Y-2.991
G0 Z10
G0 X3.681 Y18.456
Z10
Z2
G1 Z-0.125 F80
G1 X3.681 Y18.456 F200
G1 X4.327 Y18.084
G1 X4.956 Y17.682
G1 X5.566 Y17.252
G1 X6.155 Y16.794
G1 X6.723 Y16.310
G1 X7.269 Y15.800
G1 X7.791 Y15.265
G1 X8.288 Y14.707
G1 X8.760 Y14.126
G1 X9.205 Y13.524
G1 X9.621 Y12.902
G1 X10.010 Y12.262
G1 X10.369 Y11.604
G1 X10.697 Y10.931
G1 X10.995 Y10.242
G1 X11.261 Y9.541
G1 X11.495 Y8.828
G1 X11.697 Y8.104
G1 X11.865 Y7.372
G1 X12.000 Y6.633
G1 X12.101 Y5.888
G1 X12.169 Y5.138
G1 X12.202 Y4.386
G1 X12.202 Y3.633
G1 X12.167 Y2.881
G1 X12.098 Y2.131
G1 X11.995 Y1.384
G1 X11.858 Y0.642
G1 X11.688 Y-0.093
G1 X11.484 Y-0.820
G1 X11.248 Y-1.537
G1 X10.979 Y-2.243
G1 X10.679 Y-2.937
G1 X10.348 Y-3.616
G1 X9.986 Y-4.280
G1 X9.594 Y-4.927
G1 X9.174 Y-5.556
G1 X8.725 Y-6.165
G1 X8.249 Y-6.754
G1 X7.747 Y-7.321
G1 X7.220 Y-7.865
G1 X6.669 Y-8.384
G1 X6.094 Y-8.879
G1 X5.498 Y-9.347
G1 X4.882 Y-9.787
G1 X4.246 Y-10.200
G1 X3.592 Y-10.583
G1 X2.921 Y-10.937
G1 X2.235 Y-11.260
G1 X1.535 Y-11.552
G1 X0.823 Y-11.812
G1 X0.100 Y-12.040
G1 X-0.633 Y-12.234
G1 X-1.374 Y-12.396
G1 X-2.121 Y-12.524
G1 X-2.873 Y-12.619
G1 X-3.629 Y-12.679
G1 X-4.387 Y-12.705
G1 X-5.145 Y-12.697
G1 X-5.901 Y-12.655
G1 X-6.655 Y-12.579
G1 X-7.404 Y-12.469
G1 X-8.148 Y-12.325
G1 X-8.884 Y-12.148
G1 X-9.611 Y-11.938
G1 X-10.328 Y-11.696
G1 X-11.033 Y-11.421
G1 X-11.725 Y-11.115
G1 X-12.402 Y-10.778
G1 X-13.063 Y-10.411
G1 X-13.706 Y-10.015
G1 X-14.331 Y-9.590
G1 X-14.935 Y-9.138
G1 X-15.518 Y-8.659
G1 X-16.079 Y-8.154
G1 X-16.616 Y-7.624
G1 X-17.128 Y-7.071
G1 X-17.615 Y-6.495
G0 Z10
G0 X1.323 Y18.810
Z10
Z2
G1 Z-0.125 F80
G1 X1.323 Y18.810 F200
G1 X2.001 Y18.500
G1 X2.665 Y18.160
G1 X3.312 Y17.789
G1 X3.942 Y17.389
G1 X4.553 Y16.960
G1 X5.144 Y16.503
G1 X5.714 Y16.020
G1 X6.261 Y15.511
G1 X6.785 Y14.977
G1 X7.284 Y14.420
G1 X7.757 Y13.840
G1 X8.204 Y13.239
G1 X8.623 Y12.618
G1 X9.013 Y11.978
G1 X9.374 Y11.321
G1 X9.704 Y10.648
G1 X10.004 Y9.960
G1 X10.273 Y9.259
G1 X10.509 Y8.546
G1 X10.713 Y7.822
G1 X10.883 Y7.090
G1 X11.021 Y6.351
G1 X11.124 Y5.605
G1 X11.194 Y4.856
G1 X11.230 Y4.104
G1 X11.231 Y3.350
G1 X11.199 Y2.597
G1 X11.132 Y1.846
G1 X11.031 Y1.098
G1 X10.897 Y0.356
G1 X10.728 Y-0.380
G1 X10.527 Y-1.108
G1 X10.293 Y-1.826
G1 X10.027 Y-2.534
G1 X9.729 Y-3.228
G1 X9.399 Y-3.909
G1 X9.040 Y-4.575
G1 X8.650 Y-5.223
G1 X8.231 Y-5.854
G1 X7.785 Y-6.465
G1 X7.311 Y-7.056
G1 X6.810 Y-7.624
G1 X6.285 Y-8.170
G1 X5.735 Y-8.692
G1 X5.163 Y-9.188
G1 X4.568 Y-9.658
G1 X3.953 Y-10.101
G1 X3.318 Y-10.516
G1 X2.665 Y-10.901
G1 X1.996 Y-11.257
G1 X1.311 Y-11.583
G1 X0.612 Y-11.877
G1 X-0.099 Y-12.140
G1 X-0.822 Y-12.370
G1 X-1.554 Y-12.568
G1 X-2.294 Y-12.732
G1 X-3.041 Y-12.863
G1 X-3.792 Y-12.959
G1 X-4.548 Y-13.022
G1 X-5.305 Y-13.051
G1 X-6.063 Y-13.046
G1 X-6.819 Y-13.007
G1 X-7.573 Y-12.933
G1 X-8.323 Y-12.826
G1 X-9.067 Y-12.685
G1 X-9.803 Y-12.510
G1 X-10.531 Y-12.303
G1 X-11.248 Y-12.063
G1 X-11.954 Y-11.790
G1 X-12.646 Y-11.487
G1 X-13.324 Y-11.152
G1 X-13.986 Y-10.788
G1 X-14.630 Y-10.394
G1 X-15.256 Y-9.971
G1 X-15.861 Y-9.521
G1 X-16.445 Y-9.044
G0 Z10
G0 X-1.067 Y18.966
Z10
Z2
G1 Z-0.125 F80
G1 X-1.067 Y18.966 F200
G1 X-0.363 Y18.722
G1 X0.329 Y18.445
G1 X1.008 Y18.136
G1 X1.673 Y17.797
G1 X2.321 Y17.427
G1 X2.953 Y17.028
G1 X3.565 Y16.601
G1 X4.158 Y16.145
G1 X4.729 Y15.663
G1 X5.278 Y15.155
G1 X5.803 Y14.623
G1 X6.304 Y14.066
G1 X6.779 Y13.488
G1 X7.228 Y12.887
G1 X7.648 Y12.267
G1 X8.041 Y11.628
G1 X8.404 Y10.971
G1 X8.736 Y10.299
G1 X9.038 Y9.611
G1 X9.309 Y8.910
G1 X9.547 Y8.197
G1 X9.753 Y7.474
G1 X9.926 Y6.742
G1 X10.066 Y6.003
G1 X10.172 Y5.257
G1 X10.244 Y4.507
G1 X10.282 Y3.755
G1 X10.286 Y3.001
G1 X10.255 Y2.247
G1 X10.191 Y1.496
G1 X10.093 Y0.747
G1 X9.960 Y0.004
G1 X9.795 Y-0.733
G1 X9.596 Y-1.462
G1 X9.364 Y-2.182
G1 X9.100 Y-2.890
G1 X8.804 Y-3.586
G1 X8.476 Y-4.268
G1 X8.119 Y-4.935
G1 X7.731 Y-5.585
G1 X7.314 Y-6.218
G1 X6.870 Y-6.831
G1 X6.398 Y-7.423
G1 X5.899 Y-7.994
G1 X5.375 Y-8.541
G1 X4.827 Y-9.065
G1 X4.256 Y-9.563
G1 X3.663 Y-10.035
G1 X3.050 Y-10.480
G1 X2.416 Y-10.897
G1 X1.765 Y-11.286
G1 X1.097 Y-11.644
G1 X0.413 Y-11.972
G1 X-0.285 Y-12.269
G1 X-0.995 Y-12.534
G1 X-1.717 Y-12.766
G1 X-2.448 Y-12.966
G1 X-3.188 Y-13.133
G1 X-3.934 Y-13.266
G1 X-4.685 Y-13.366
G1 X-5.440 Y-13.431
G1 X-6.197 Y-13.463
G1 X-6.955 Y-13.460
G1 X-7.711 Y-13.423
G1 X-8.465 Y-13.352
G1 X-9.215 Y-13.248
G1 X-9.959 Y-13.109
G1 X-10.696 Y-12.937
G1 X-11.424 Y-12.732
G1 X-12.142 Y-12.495
G1 X-12.848 Y-12.225
G1 X-13.541 Y-11.924
G1 X-14.219 Y-11.592
G1 X-14.882 Y-11.229
G1 X-15.527 Y-10.838
G0 Z10
G0 X-2.750 Y18.743
Z10
Z2
G1 Z-0.125 F80
G1 X-2.750 Y18.743 F200
G1 X-2.035 Y18.533
G1 X-1.330 Y18.289
G1 X-0.636 Y18.014
G1 X0.044 Y17.707
G1 X0.710 Y17.369
G1 X1.359 Y17.001
G1 X1.992 Y16.604
G1 X2.606 Y16.177
G1 X3.200 Y15.723
G1 X3.773 Y15.242
G1 X4.323 Y14.735
G1 X4.851 Y14.204
G1 X5.353 Y13.648
G1 X5.830 Y13.070
G1 X6.280 Y12.471
G1 X6.703 Y11.852
G1 X7.097 Y11.213
G1 X7.462 Y10.557
G1 X7.797 Y9.885
G1 X8.101 Y9.198
G1 X8.374 Y8.497
G1 X8.615 Y7.785
G1 X8.823 Y7.062
G1 X8.998 Y6.330
G1 X9.140 Y5.590
G1 X9.249 Y4.844
G1 X9.323 Y4.094
G1 X9.363 Y3.342
G1 X9.370 Y2.587
G1 X9.342 Y1.833
G1 X9.280 Y1.081
G1 X9.184 Y0.332
G1 X9.054 Y-0.413
G1 X8.890 Y-1.150
G1 X8.694 Y-1.880
G1 X8.464 Y-2.601
G1 X8.202 Y-3.311
G1 X7.908 Y-4.008
G1 X7.583 Y-4.691
G1 X7.228 Y-5.360
G1 X6.842 Y-6.011
G1 X6.428 Y-6.645
G1 X5.985 Y-7.260
G1 X5.515 Y-7.854
G1 X5.018 Y-8.427
G1 X4.496 Y-8.976
G1 X3.950 Y-9.502
G1 X3.380 Y-10.002
G1 X2.789 Y-10.477
G1 X2.177 Y-10.924
G1 X1.545 Y-11.343
G1 X0.895 Y-11.733
G1 X0.228 Y-12.094
G1 X-0.455 Y-12.424
G1 X-1.152 Y-12.724
G1 X-1.861 Y-12.991
G1 X-2.582 Y-13.226
G1 X-3.312 Y-13.429
G1 X-4.051 Y-13.598
G1 X-4.797 Y-13.734
G1 X-5.548 Y-13.836
G1 X-6.302 Y-13.904
G1 X-7.059 Y-13.938
G1 X-7.816 Y-13.938
G1 X-8.572 Y-13.904
G1 X-9.326 Y-13.836
G1 X-10.076 Y-13.733
G1 X-10.820 Y-13.597
G1 X-11.557 Y-13.428
G1 X-12.286 Y-13.225
G1 X-13.004 Y-12.990
G1 X-13.711 Y-12.723
G0 Z10
G0 X-4.410 Y18.421
Z10
Z2
G1 Z-0.125 F80
G1 X-4.410 Y18.421 F200
G1 X-3.685 Y18.245
G1 X-2.969 Y18.036
G1 X-2.263 Y17.795
G1 X-1.569 Y17.521
G1 X-0.888 Y17.215
G1 X-0.221 Y16.879
G1 X0.430 Y16.512
G1 X1.064 Y16.116
G1 X1.680 Y15.691
G1 X2.275 Y15.238
G1 X2.850 Y14.759
G1 X3.402 Y14.253
G1 X3.931 Y13.722
G1 X4.436 Y13.168
G1 X4.914 Y12.591
G1 X5.367 Y11.992
G1 X5.791 Y11.374
G1 X6.188 Y10.736
G1 X6.555 Y10.081
G1 X6.892 Y9.409
G1 X7.198 Y8.722
G1 X7.473 Y8.022
G1 X7.716 Y7.310
G1 X7.927 Y6.587
G1 X8.104 Y5.855
G1 X8.249 Y5.115
G1 X8.359 Y4.370
G1 X8.436 Y3.619
G1 X8.479 Y2.866
G1 X8.487 Y2.111
G1 X8.462 Y1.357
G1 X8.402 Y0.604
G1 X8.308 Y-0.146
G1 X8.181 Y-0.891
G1 X8.020 Y-1.630
G1 X7.826 Y-2.361
G1 X7.598 Y-3.082
G1 X7.339 Y-3.793
G1 X7.047 Y-4.492
G1 X6.724 Y-5.176
G1 X6.371 Y-5.846
G1 X5.987 Y-6.499
G1 X5.575 Y-7.135
G1 X5.134 Y-7.751
G1 X4.666 Y-8.347
G1 X4.171 Y-8.921
G1 X3.651 Y-9.473
G1 X3.106 Y-10.000
G1 X2.539 Y-10.503
G1 X1.949 Y-10.979
G1 X1.338 Y-11.429
G1 X0.708 Y-11.850
G1 X0.059 Y-12.243
G1 X-0.607 Y-12.606
G1 X-1.288 Y-12.939
G1 X-1.984 Y-13.240
G1 X-2.692 Y-13.510
G1 X-3.412 Y-13.748
G1 X-4.142 Y-13.953
G1 X-4.880 Y-14.125
G1 X-5.625 Y-14.263
G1 X-6.375 Y-14.368
G1 X-7.129 Y-14.438
G1 X-7.885 Y-14.475
G1 X-8.642 Y-14.477
G1 X-9.399 Y-14.446
G1 X-10.152 Y-14.380
G1 X-10.902 Y-14.280
G1 X-11.646 Y-14.147
G1 X-12.384 Y-13.980
G0 Z10
G0 X-6.041 Y18.002
Z10
Z2
G1 Z-0.125 F80
G1 X-6.041 Y18.002 F200
G1 X-5.309 Y17.861
G1 X-4.583 Y17.687
G1 X-3.866 Y17.480
G1 X-3.160 Y17.240
G1 X-2.464 Y16.967
G1 X-1.782 Y16.664
G1 X-1.114 Y16.329
G1 X-0.461 Y15.963
G1 X0.174 Y15.569
G1 X0.791 Y15.145
G1 X1.388 Y14.693
G1 X1.964 Y14.215
G1 X2.518 Y13.710
G1 X3.049 Y13.181
G1 X3.555 Y12.628
G1 X4.036 Y12.052
G1 X4.490 Y11.454
G1 X4.917 Y10.836
G1 X5.316 Y10.199
G1 X5.685 Y9.544
G1 X6.024 Y8.873
G1 X6.333 Y8.187
G1 X6.610 Y7.487
G1 X6.855 Y6.775
G1 X7.068 Y6.052
G1 X7.248 Y5.321
G1 X7.395 Y4.581
G1 X7.508 Y3.835
G1 X7.587 Y3.085
G1 X7.632 Y2.331
G1 X7.643 Y1.576
G1 X7.620 Y0.821
G1 X7.563 Y0.068
G1 X7.472 Y-0.683
G1 X7.346 Y-1.429
G1 X7.188 Y-2.168
G1 X6.996 Y-2.900
G1 X6.771 Y-3.623
G1 X6.513 Y-4.335
G1 X6.224 Y-5.035
G1 X5.904 Y-5.721
G1 X5.552 Y-6.392
G1 X5.171 Y-7.047
G1 X4.761 Y-7.684
G1 X4.322 Y-8.302
G1 X3.855 Y-8.899
G1 X3.363 Y-9.475
G1 X2.844 Y-10.029
G1 X2.302 Y-10.558
G1 X1.736 Y-11.063
G1 X1.147 Y-11.541
G1 X0.538 Y-11.993
G1 X-0.091 Y-12.417
G1 X-0.738 Y-12.811
G1 X-1.402 Y-13.177
G1 X-2.082 Y-13.512
G1 X-2.777 Y-13.816
G1 X-3.484 Y-14.088
G1 X-4.203 Y-14.328
G1 X-4.932 Y-14.535
G1 X-5.669 Y-14.710
G1 X-6.413 Y-14.851
G1 X-7.163 Y-14.958
G1 X-7.917 Y-15.031
G1 X-8.673 Y-15.070
G1 X-9.429 Y-15.075
G1 X-10.185 Y-15.046
G1 X-10.939 Y-14.983
G1 X-11.689 Y-14.886
G0 Z10
G0 X-6.899 Y17.383
Z10
Z2
G1 Z-0.125 F80
G1 X-6.899 Y17.383 F200
G1 X-6.166 Y17.244
G1 X-5.440 Y17.071
G1 X-4.722 Y16.866
G1 X-4.014 Y16.627
G1 X-3.318 Y16.357
G1 X-2.634 Y16.054
G1 X-1.965 Y15.721
G1 X-1.311 Y15.357
G1 X-0.674 Y14.964
G1 X-0.056 Y14.541
G1 X0.543 Y14.091
G1 X1.121 Y13.614
G1 X1.676 Y13.111
G1 X2.209 Y12.582
G1 X2.717 Y12.030
G1 X3.200 Y11.455
G1 X3.656 Y10.858
G1 X4.085 Y10.241
G1 X4.485 Y9.605
G1 X4.857 Y8.951
G1 X5.198 Y8.280
G1 X5.509 Y7.594
G1 X5.788 Y6.895
G1 X6.036 Y6.183
G1 X6.251 Y5.461
G1 X6.434 Y4.729
G1 X6.583 Y3.990
G1 X6.698 Y3.244
G1 X6.780 Y2.493
G1 X6.827 Y1.739
G1 X6.841 Y0.984
G1 X6.820 Y0.228
G1 X6.765 Y-0.526
G1 X6.677 Y-1.277
G1 X6.554 Y-2.023
G1 X6.398 Y-2.764
G1 X6.208 Y-3.496
G1 X5.986 Y-4.220
G1 X5.730 Y-4.933
G1 X5.444 Y-5.634
G1 X5.125 Y-6.322
G1 X4.776 Y-6.994
G1 X4.397 Y-7.650
G1 X3.989 Y-8.289
G1 X3.552 Y-8.909
G1 X3.088 Y-9.508
G1 X2.597 Y-10.086
G1 X2.080 Y-10.641
G1 X1.540 Y-11.172
G1 X0.975 Y-11.679
G1 X0.389 Y-12.160
G1 X-0.219 Y-12.613
G1 X-0.846 Y-13.039
G1 X-1.492 Y-13.436
G1 X-2.155 Y-13.804
G1 X-2.834 Y-14.141
G1 X-3.527 Y-14.447
G1 X-4.234 Y-14.722
G1 X-4.951 Y-14.964
G1 X-5.679 Y-15.174
G1 X-6.416 Y-15.351
G1 X-7.159 Y-15.495
G1 X-7.908 Y-15.604
G1 X-8.661 Y-15.680
G1 X-9.417 Y-15.722
G1 X-10.173 Y-15.729
G0 Z10
G0 X-8.451 Y16.813
Z10
Z2
G1 Z-0.125 F80
G1 X-8.451 Y16.813 F200
G1 X-7.712 Y16.709
G1 X-6.979 Y16.572
G1 X-6.252 Y16.401
G1 X-5.533 Y16.197
G1 X-4.824 Y15.960
G1 X-4.127 Y15.691
G1 X-3.442 Y15.390
G1 X-2.771 Y15.058
G1 X-2.116 Y14.696
G1 X-1.478 Y14.304
G1 X-0.858 Y13.883
G1 X-0.258 Y13.434
G1 X0.322 Y12.959
G1 X0.880 Y12.456
G1 X1.414 Y11.929
G1 X1.924 Y11.378
G1 X2.409 Y10.804
G1 X2.867 Y10.208
G1 X3.298 Y9.592
G1 X3.700 Y8.956
G1 X4.074 Y8.303
G1 X4.418 Y7.633
G1 X4.731 Y6.948
G1 X5.013 Y6.249
G1 X5.263 Y5.538
G1 X5.480 Y4.815
G1 X5.665 Y4.084
G1 X5.816 Y3.344
G1 X5.934 Y2.598
G1 X6.018 Y1.848
G1 X6.069 Y1.094
G1 X6.085 Y0.338
G1 X6.066 Y-0.418
G1 X6.014 Y-1.172
G1 X5.928 Y-1.924
G1 X5.807 Y-2.671
G1 X5.654 Y-3.413
G1 X5.466 Y-4.146
G1 X5.246 Y-4.871
G1 X4.994 Y-5.585
G1 X4.709 Y-6.287
G1 X4.393 Y-6.976
G1 X4.046 Y-7.650
G1 X3.669 Y-8.308
G1 X3.263 Y-8.948
G1 X2.828 Y-9.569
G1 X2.366 Y-10.170
G1 X1.877 Y-10.750
G1 X1.363 Y-11.307
G1 X0.824 Y-11.840
G1 X0.261 Y-12.348
G1 X-0.324 Y-12.831
G1 X-0.930 Y-13.287
G1 X-1.555 Y-13.715
G1 X-2.200 Y-14.114
G1 X-2.861 Y-14.484
G1 X-3.539 Y-14.823
G1 X-4.231 Y-15.132
G1 X-4.936 Y-15.409
G1 X-5.653 Y-15.654
G1 X-6.380 Y-15.866
G1 X-7.116 Y-16.046
G1 X-7.858 Y-16.191
G1 X-8.607 Y-16.304
G1 X-9.359 Y-16.382
G0 Z10
G0 X-9.959 Y16.154
Z10
Z2
G1 Z-0.125 F80
G1 X-9.959 Y16.154 F200
G1 X-9.216 Y16.086
G1 X-8.477 Y15.984
G1 X-7.742 Y15.849
G1 X-7.014 Y15.679
G1 X-6.295 Y15.477
G1 X-5.585 Y15.242
G1 X-4.886 Y14.974
G1 X-4.200 Y14.675
G1 X-3.528 Y14.345
G1 X-2.872 Y13.984
G1 X-2.232 Y13.594
G1 X-1.611 Y13.174
G1 X-1.009 Y12.727
G1 X-0.428 Y12.252
G1 X0.132 Y11.751
G1 X0.668 Y11.225
G1 X1.180 Y10.675
G1 X1.667 Y10.102
G1 X2.127 Y9.507
G1 X2.560 Y8.892
G1 X2.965 Y8.257
G1 X3.340 Y7.605
G1 X3.686 Y6.935
G1 X4.002 Y6.251
G1 X4.286 Y5.552
G1 X4.538 Y4.841
G1 X4.758 Y4.119
G1 X4.946 Y3.388
G1 X5.099 Y2.648
G1 X5.220 Y1.903
G1 X5.306 Y1.152
G1 X5.359 Y0.398
G1 X5.378 Y-0.358
G1 X5.362 Y-1.115
G1 X5.312 Y-1.870
G1 X5.228 Y-2.622
G1 X5.110 Y-3.370
G1 X4.959 Y-4.112
G1 X4.774 Y-4.846
G1 X4.557 Y-5.572
G1 X4.306 Y-6.287
G1 X4.024 Y-6.991
G1 X3.710 Y-7.681
G1 X3.366 Y-8.356
G1 X2.991 Y-9.015
G1 X2.587 Y-9.657
G1 X2.155 Y-10.279
G1 X1.694 Y-10.882
G1 X1.208 Y-11.463
G1 X0.695 Y-12.022
G1 X0.158 Y-12.557
G1 X-0.403 Y-13.068
G1 X-0.986 Y-13.552
G1 X-1.590 Y-14.010
G1 X-2.214 Y-14.440
G1 X-2.857 Y-14.842
G1 X-3.518 Y-15.214
G1 X-4.194 Y-15.555
G1 X-4.885 Y-15.866
G1 X-5.589 Y-16.146
G1 X-6.304 Y-16.393
G1 X-7.030 Y-16.608
G1 X-7.765 Y-16.790
G1 X-8.507 Y-16.938
G0 Z10
G0 X-10.673 Y15.378
Z10
Z2
G1 Z-0.125 F80
G1 X-10.673 Y15.378 F200
G1 X-9.929 Y15.311
G1 X-9.189 Y15.211
G1 X-8.454 Y15.077
G1 X-7.725 Y14.910
G1 X-7.005 Y14.709
G1 X-6.294 Y14.476
G1 X-5.594 Y14.210
G1 X-4.907 Y13.912
G1 X-4.233 Y13.584
G1 X-3.575 Y13.225
G1 X-2.934 Y12.836
G1 X-2.311 Y12.418
G1 X-1.708 Y11.971
G1 X-1.125 Y11.498
G1 X-0.564 Y10.999
G1 X-0.026 Y10.474
G1 X0.488 Y9.925
G1 X0.977 Y9.353
G1 X1.439 Y8.759
G1 X1.875 Y8.145
G1 X2.282 Y7.511
G1 X2.660 Y6.859
G1 X3.008 Y6.190
G1 X3.325 Y5.506
G1 X3.612 Y4.808
G1 X3.867 Y4.098
G1 X4.089 Y3.376
G1 X4.279 Y2.645
G1 X4.435 Y1.906
G1 X4.558 Y1.160
G1 X4.647 Y0.409
G1 X4.702 Y-0.345
G1 X4.723 Y-1.102
G1 X4.710 Y-1.858
G1 X4.663 Y-2.614
G1 X4.582 Y-3.367
G1 X4.466 Y-4.115
G1 X4.317 Y-4.858
G1 X4.135 Y-5.593
G1 X3.920 Y-6.320
G1 X3.672 Y-7.036
G1 X3.392 Y-7.741
G1 X3.081 Y-8.432
G1 X2.739 Y-9.108
G1 X2.366 Y-9.769
G1 X1.964 Y-10.412
G1 X1.534 Y-11.036
G1 X1.076 Y-11.640
G1 X0.591 Y-12.223
G1 X0.081 Y-12.784
G1 X-0.455 Y-13.321
G1 X-1.014 Y-13.833
G1 X-1.595 Y-14.320
G1 X-2.198 Y-14.780
G1 X-2.820 Y-15.212
G1 X-3.462 Y-15.615
G1 X-4.120 Y-15.990
G1 X-4.795 Y-16.334
G1 X-5.485 Y-16.647
G1 X-6.188 Y-16.929
G1 X-6.902 Y-17.178
G1 X-7.627 Y-17.395
G0 Z10
G0 X-12.077 Y14.587
Z10
Z2
G1 Z-0.125 F80
G1 X-12.077 Y14.587 F200
G1 X-11.331 Y14.557
G1 X-10.587 Y14.492
G1 X-9.846 Y14.394
G1 X-9.110 Y14.262
G1 X-8.380 Y14.096
G1 X-7.659 Y13.897
G1 X-6.947 Y13.666
G1 X-6.246 Y13.402
G1 X-5.557 Y13.106
G1 X-4.883 Y12.779
G1 X-4.224 Y12.421
G1 X-3.581 Y12.034
G1 X-2.956 Y11.617
G1 X-2.351 Y11.172
G1 X-1.766 Y10.700
G1 X-1.203 Y10.202
G1 X-0.663 Y9.679
G1 X-0.148 Y9.131
G1 X0.343 Y8.560
G1 X0.808 Y7.967
G1 X1.245 Y7.354
G1 X1.654 Y6.721
G1 X2.034 Y6.069
G1 X2.385 Y5.402
G1 X2.705 Y4.718
G1 X2.994 Y4.021
G1 X3.251 Y3.311
G1 X3.476 Y2.589
G1 X3.668 Y1.858
G1 X3.827 Y1.119
G1 X3.952 Y0.374
G1 X4.044 Y-0.377
G1 X4.102 Y-1.132
G1 X4.125 Y-1.888
G1 X4.115 Y-2.645
G1 X4.070 Y-3.401
G1 X3.991 Y-4.155
G1 X3.878 Y-4.904
G1 X3.732 Y-5.647
G1 X3.552 Y-6.383
G1 X3.339 Y-7.111
G1 X3.094 Y-7.828
G1 X2.816 Y-8.534
G1 X2.507 Y-9.226
G1 X2.167 Y-9.904
G1 X1.797 Y-10.565
G1 X1.398 Y-11.210
G1 X0.970 Y-11.836
G1 X0.514 Y-12.442
G1 X0.031 Y-13.026
G1 X-0.478 Y-13.589
G1 X-1.011 Y-14.127
G1 X-1.568 Y-14.642
G1 X-2.148 Y-15.130
G1 X-2.749 Y-15.592
G1 X-3.370 Y-16.026
G1 X-4.009 Y-16.432
G1 X-4.667 Y-16.808
G1 X-5.340 Y-17.154
G1 X-6.028 Y-17.470
G1 X-6.730 Y-17.754
G0 Z10
G0 X-12.678 Y13.724
Z10
Z2
G1 Z-0.125 F80
G1 X-12.678 Y13.724 F200
G1 X-11.931 Y13.696
G1 X-11.186 Y13.633
G1 X-10.444 Y13.537
G1 X-9.708 Y13.406
G1 X-8.977 Y13.242
G1 X-8.255 Y13.045
G1 X-7.542 Y12.815
G1 X-6.840 Y12.553
G1 X-6.150 Y12.259
G1 X-5.474 Y11.933
G1 X-4.813 Y11.577
G1 X-4.169 Y11.191
G1 X-3.543 Y10.777
G1 X-2.936 Y10.333
G1 X-2.349 Y9.863
G1 X-1.785 Y9.366
G1 X-1.243 Y8.844
G1 X-0.725 Y8.297
G1 X-0.232 Y7.727
G1 X0.234 Y7.135
G1 X0.674 Y6.523
G1 X1.085 Y5.891
G1 X1.468 Y5.241
G1 X1.820 Y4.573
G1 X2.143 Y3.891
G1 X2.434 Y3.194
G1 X2.694 Y2.484
G1 X2.921 Y1.763
G1 X3.116 Y1.033
G1 X3.277 Y0.294
G1 X3.405 Y-0.452
G1 X3.499 Y-1.203
G1 X3.560 Y-1.957
G1 X3.586 Y-2.714
G1 X3.578 Y-3.471
G1 X3.535 Y-4.228
G1 X3.459 Y-4.982
G1 X3.349 Y-5.731
G1 X3.205 Y-6.475
G1 X3.028 Y-7.212
G1 X2.818 Y-7.941
G1 X2.575 Y-8.659
G1 X2.300 Y-9.365
G1 X1.993 Y-10.059
G1 X1.655 Y-10.738
G1 X1.288 Y-11.401
G1 X0.890 Y-12.047
G1 X0.464 Y-12.674
G1 X0.010 Y-13.281
G1 X-0.470 Y-13.868
G1 X-0.977 Y-14.432
G1 X-1.508 Y-14.972
G1 X-2.063 Y-15.488
G1 X-2.641 Y-15.979
G1 X-3.240 Y-16.443
G1 X-3.860 Y-16.879
G1 X-4.498 Y-17.286
G1 X-5.154 Y-17.665
G1 X-5.826 Y-18.013
G0 Z10
G0 X-13.965 Y12.817
Z10
Z2
G1 Z-0.125 F80
G1 X-13.965 Y12.817 F200
G1 X-13.217 Y12.825
G1 X-12.470 Y12.798
G1 X-11.724 Y12.738
G1 X-10.982 Y12.643
G1 X-10.245 Y12.514
G1 X-9.513 Y12.352
G1 X-8.790 Y12.157
G1 X-8.076 Y11.929
G1 X-7.372 Y11.668
G1 X-6.681 Y11.376
G1 X-6.004 Y11.052
G1 X-5.342 Y10.698
G1 X-4.696 Y10.314
G1 X-4.069 Y9.900
G1 X-3.460 Y9.458
G1 X-2.872 Y8.989
G1 X-2.305 Y8.494
G1 X-1.761 Y7.973
G1 X-1.242 Y7.427
G1 X-0.747 Y6.859
G1 X-0.278 Y6.268
G1 X0.164 Y5.657
G1 X0.577 Y5.026
G1 X0.962 Y4.376
G1 X1.317 Y3.710
G1 X1.642 Y3.028
G1 X1.936 Y2.331
G1 X2.198 Y1.622
G1 X2.428 Y0.902
G1 X2.625 Y0.172
G1 X2.789 Y-0.567
G1 X2.919 Y-1.313
G1 X3.016 Y-2.064
G1 X3.079 Y-2.818
G1 X3.107 Y-3.575
G1 X3.102 Y-4.333
G1 X3.062 Y-5.089
G1 X2.989 Y-5.843
G1 X2.881 Y-6.594
G1 X2.740 Y-7.338
G1 X2.565 Y-8.076
G1 X2.357 Y-8.805
G1 X2.117 Y-9.524
G1 X1.844 Y-10.232
G1 X1.540 Y-10.926
G1 X1.205 Y-11.607
G1 X0.839 Y-12.271
G1 X0.444 Y-12.918
G1 X0.020 Y-13.547
G1 X-0.431 Y-14.156
G1 X-0.910 Y-14.744
G1 X-1.414 Y-15.309
G1 X-1.944 Y-15.852
G1 X-2.497 Y-16.370
G1 X-3.073 Y-16.862
G1 X-3.670 Y-17.327
G1 X-4.288 Y-17.766
G1 X-4.924 Y-18.175
G0 Z10
G0 X-14.441 Y11.884
Z10
Z2
G1 Z-0.125 F80
G1 X-14.441 Y11.884 F200
G1 X-13.694 Y11.893
G1 X-12.946 Y11.869
G1 X-12.200 Y11.810
G1 X-11.457 Y11.717
G1 X-10.718 Y11.591
G1 X-9.986 Y11.431
G1 X-9.262 Y11.237
G1 X-8.546 Y11.011
G1 X-7.842 Y10.752
G1 X-7.150 Y10.462
G1 X-6.471 Y10.140
G1 X-5.807 Y9.787
G1 X-5.160 Y9.404
G1 X-4.531 Y8.992
G1 X-3.920 Y8.552
G1 X-3.330 Y8.084
G1 X-2.762 Y7.590
G1 X-2.216 Y7.071
G1 X-1.695 Y6.527
G1 X-1.198 Y5.959
G1 X-0.727 Y5.370
G1 X-0.283 Y4.759
G1 X0.133 Y4.129
G1 X0.520 Y3.481
G1 X0.877 Y2.815
G1 X1.205 Y2.134
G1 X1.501 Y1.438
G1 X1.765 Y0.729
G1 X1.998 Y0.009
G1 X2.197 Y-0.721
G1 X2.364 Y-1.459
G1 X2.497 Y-2.204
G1 X2.596 Y-2.955
G1 X2.662 Y-3.710
G1 X2.693 Y-4.467
G1 X2.690 Y-5.224
G1 X2.653 Y-5.981
G1 X2.582 Y-6.736
G1 X2.477 Y-7.487
G1 X2.338 Y-8.232
G1 X2.166 Y-8.970
G1 X1.961 Y-9.700
G1 X1.723 Y-10.420
G1 X1.453 Y-11.129
G1 X1.151 Y-11.824
G1 X0.818 Y-12.506
G1 X0.455 Y-13.171
G1 X0.062 Y-13.820
G1 X-0.359 Y-14.450
G1 X-0.809 Y-15.060
G1 X-1.285 Y-15.650
G1 X-1.788 Y-16.217
G1 X-2.315 Y-16.761
G1 X-2.867 Y-17.281
G1 X-3.441 Y-17.775
G1 X-4.036 Y-18.242
G0 Z10
G0 X-14.853 Y10.923
Z10
Z2
G1 Z-0.125 F80
G1 X-14.853 Y10.923 F200
G1 X-14.105 Y10.935
G1 X-13.357 Y10.912
G1 X-12.610 Y10.855
G1 X-11.866 Y10.765
G1 X-11.127 Y10.640
G1 X-10.394 Y10.482
G1 X-9.668 Y10.290
G1 X-8.952 Y10.066
G1 X-8.246 Y9.809
G1 X-7.553 Y9.520
G1 X-6.873 Y9.200
G1 X-6.208 Y8.849
G1 X-5.559 Y8.468
G1 X-4.928 Y8.057
G1 X-4.316 Y7.619
G1 X-3.724 Y7.153
G1 X-3.154 Y6.660
G1 X-2.606 Y6.142
G1 X-2.082 Y5.599
G1 X-1.583 Y5.033
G1 X-1.110 Y4.444
G1 X-0.664 Y3.835
G1 X-0.246 Y3.206
G1 X0.143 Y2.558
G1 X0.503 Y1.894
G1 X0.833 Y1.213
G1 X1.131 Y0.518
G1 X1.398 Y-0.190
G1 X1.633 Y-0.909
G1 X1.835 Y-1.639
G1 X2.004 Y-2.377
G1 X2.140 Y-3.122
G1 X2.242 Y-3.873
G1 X2.310 Y-4.628
G1 X2.344 Y-5.385
G1 X2.344 Y-6.142
G1 X2.309 Y-6.900
G1 X2.241 Y-7.655
G1 X2.138 Y-8.406
G1 X2.002 Y-9.152
G1 X1.833 Y-9.891
G1 X1.630 Y-10.622
G1 X1.394 Y-11.342
G1 X1.127 Y-12.052
G1 X0.827 Y-12.748
G1 X0.497 Y-13.431
G1 X0.136 Y-14.098
G1 X-0.254 Y-14.747
G1 X-0.674 Y-15.379
G1 X-1.121 Y-15.991
G1 X-1.595 Y-16.582
G1 X-2.096 Y-17.151
G1 X-2.621 Y-17.696
G1 X-3.170 Y-18.218
G0 Z10
G0 X-15.945 Y9.892
Z10
Z2
G1 Z-0.125 F80
G1 X-15.945 Y9.892 F200
G1 X-15.198 Y9.939
G1 X-14.449 Y9.953
G1 X-13.700 Y9.932
G1 X-12.953 Y9.878
G1 X-12.208 Y9.789
G1 X-11.468 Y9.666
G1 X-10.734 Y9.510
G1 X-10.008 Y9.320
G1 X-9.290 Y9.098
G1 X-8.584 Y8.843
G1 X-7.889 Y8.555
G1 X-7.207 Y8.237
G1 X-6.541 Y7.888
G1 X-5.890 Y7.508
G1 X-5.258 Y7.100
G1 X-4.644 Y6.663
G1 X-4.050 Y6.198
G1 X-3.478 Y5.707
G1 X-2.929 Y5.190
G1 X-2.403 Y4.649
G1 X-1.902 Y4.084
G1 X-1.427 Y3.497
G1 X-0.979 Y2.889
G1 X-0.558 Y2.261
G1 X-0.166 Y1.614
G1 X0.196 Y0.950
G1 X0.528 Y0.270
G1 X0.829 Y-0.424
G1 X1.098 Y-1.131
G1 X1.336 Y-1.850
G1 X1.540 Y-2.579
G1 X1.712 Y-3.317
G1 X1.850 Y-4.062
G1 X1.955 Y-4.813
G1 X2.025 Y-5.567
G1 X2.062 Y-6.324
G1 X2.064 Y-7.082
G1 X2.033 Y-7.840
G1 X1.967 Y-8.595
G1 X1.867 Y-9.347
G1 X1.733 Y-10.093
G1 X1.566 Y-10.833
G1 X1.366 Y-11.564
G1 X1.133 Y-12.286
G1 X0.868 Y-12.996
G1 X0.571 Y-13.694
G1 X0.243 Y-14.377
G1 X-0.115 Y-15.045
G1 X-0.503 Y-15.696
G1 X-0.920 Y-16.329
G1 X-1.365 Y-16.942
G1 X-1.838 Y-17.535
G1 X-2.336 Y-18.105
G1 X-2.859 Y-18.652
G0 Z10
G0 X-16.221 Y8.888
Z10
Z2
G1 Z-0.125 F80
G1 X-16.221 Y8.888 F200
G1 X-15.474 Y8.937
G1 X-14.725 Y8.953
G1 X-13.975 Y8.934
G1 X-13.227 Y8.882
G1 X-12.482 Y8.795
G1 X-11.741 Y8.674
G1 X-11.006 Y8.520
G1 X-10.279 Y8.332
G1 X-9.560 Y8.111
G1 X-8.852 Y7.858
G1 X-8.156 Y7.573
G1 X-7.473 Y7.256
G1 X-6.805 Y6.909
G1 X-6.154 Y6.531
G1 X-5.519 Y6.125
G1 X-4.904 Y5.689
G1 X-4.308 Y5.226
G1 X-3.734 Y4.737
G1 X-3.183 Y4.221
G1 X-2.655 Y3.681
G1 X-2.152 Y3.118
G1 X-1.675 Y2.532
G1 X-1.224 Y1.925
G1 X-0.802 Y1.298
G1 X-0.408 Y0.652
G1 X-0.043 Y-0.011
G1 X0.291 Y-0.690
G1 X0.595 Y-1.383
G1 X0.867 Y-2.090
G1 X1.107 Y-2.808
G1 X1.314 Y-3.537
G1 X1.488 Y-4.274
G1 X1.629 Y-5.019
G1 X1.736 Y-5.769
G1 X1.810 Y-6.524
G1 X1.849 Y-7.281
G1 X1.854 Y-8.039
G1 X1.825 Y-8.797
G1 X1.761 Y-9.552
G1 X1.664 Y-10.304
G1 X1.533 Y-11.051
G1 X1.369 Y-11.791
G1 X1.171 Y-12.523
G1 X0.941 Y-13.246
G1 X0.678 Y-13.957
G1 X0.384 Y-14.655
G1 X0.058 Y-15.340
G1 X-0.298 Y-16.009
G1 X-0.684 Y-16.661
G1 X-1.099 Y-17.295
G1 X-1.541 Y-17.910
G1 X-2.011 Y-18.504
G0 Z10
G0 X-17.172 Y7.784
Z10
Z2
G1 Z-0.125 F80
G1 X-17.172 Y7.784 F200
G1 X-16.428 Y7.870
G1 X-15.681 Y7.922
G1 X-14.931 Y7.939
G1 X-14.181 Y7.923
G1 X-13.433 Y7.872
G1 X-12.687 Y7.787
G1 X-11.945 Y7.669
G1 X-11.209 Y7.516
G1 X-10.481 Y7.331
G1 X-9.761 Y7.112
G1 X-9.052 Y6.861
G1 X-8.354 Y6.578
G1 X-7.670 Y6.263
G1 X-7.001 Y5.917
G1 X-6.347 Y5.541
G1 X-5.711 Y5.136
G1 X-5.094 Y4.703
G1 X-4.497 Y4.241
G1 X-3.921 Y3.753
G1 X-3.367 Y3.239
G1 X-2.838 Y2.701
G1 X-2.332 Y2.138
G1 X-1.853 Y1.554
G1 X-1.400 Y0.948
G1 X-0.975 Y0.322
G1 X-0.579 Y-0.322
G1 X-0.212 Y-0.984
G1 X0.125 Y-1.662
G1 X0.431 Y-2.355
G1 X0.705 Y-3.061
G1 X0.947 Y-3.779
G1 X1.157 Y-4.507
G1 X1.334 Y-5.244
G1 X1.478 Y-5.988
G1 X1.587 Y-6.738
G1 X1.663 Y-7.493
G1 X1.705 Y-8.250
G1 X1.713 Y-9.008
G1 X1.686 Y-9.766
G1 X1.626 Y-10.521
G1 X1.531 Y-11.274
G1 X1.403 Y-12.021
G1 X1.241 Y-12.762
G1 X1.046 Y-13.495
G1 X0.818 Y-14.218
G1 X0.558 Y-14.930
G1 X0.266 Y-15.629
G1 X-0.057 Y-16.315
G1 X-0.411 Y-16.985
G1 X-0.795 Y-17.638
G1 X-1.207 Y-18.273
G1 X-1.648 Y-18.889
G0 Z10
G0 X-17.310 Y6.756
Z10
Z2
G1 Z-0.125 F80
G1 X-17.310 Y6.756 F200
G1 X-16.565 Y6.843
G1 X-15.817 Y6.897
G1 X-15.067 Y6.917
G1 X-14.317 Y6.903
G1 X-13.567 Y6.854
G1 X-12.821 Y6.771
G1 X-12.078 Y6.655
G1 X-11.342 Y6.505
G1 X-10.612 Y6.321
G1 X-9.891 Y6.104
G1 X-9.181 Y5.855
G1 X-8.482 Y5.574
G1 X-7.797 Y5.261
G1 X-7.126 Y4.917
G1 X-6.471 Y4.543
G1 X-5.833 Y4.140
G1 X-5.214 Y3.708
G1 X-4.615 Y3.248
G1 X-4.037 Y2.761
G1 X-3.482 Y2.249
G1 X-2.950 Y1.712
G1 X-2.443 Y1.151
G1 X-1.961 Y0.568
G1 X-1.506 Y-0.037
G1 X-1.079 Y-0.661
G1 X-0.681 Y-1.305
G1 X-0.311 Y-1.966
G1 X0.028 Y-2.643
G1 X0.336 Y-3.335
G1 X0.613 Y-4.040
G1 X0.858 Y-4.757
G1 X1.071 Y-5.485
G1 X1.250 Y-6.221
G1 X1.396 Y-6.965
G1 X1.509 Y-7.715
G1 X1.587 Y-8.469
G1 X1.632 Y-9.226
G1 X1.642 Y-9.984
G1 X1.618 Y-10.742
G1 X1.560 Y-11.498
G1 X1.468 Y-12.251
G1 X1.342 Y-12.998
G1 X1.183 Y-13.740
G1 X0.991 Y-14.473
G1 X0.765 Y-15.197
G1 X0.508 Y-15.909
G1 X0.218 Y-16.610
G1 X-0.103 Y-17.296
G1 X-0.454 Y-17.967
G1 X-0.835 Y-18.622
G0 Z10
G0 X-18.115 Y5.600
Z10
Z2
G1 Z-0.125 F80
G1 X-18.115 Y5.600 F200
G1 X-17.376 Y5.723
G1 X-16.631 Y5.813
G1 X-15.883 Y5.869
G1 X-15.133 Y5.891
G1 X-14.382 Y5.879
G1 X-13.632 Y5.832
G1 X-12.884 Y5.752
G1 X-12.141 Y5.637
G1 X-11.403 Y5.489
G1 X-10.673 Y5.307
G1 X-9.951 Y5.093
G1 X-9.239 Y4.846
G1 X-8.539 Y4.566
G1 X-7.852 Y4.255
G1 X-7.180 Y3.913
G1 X-6.523 Y3.541
G1 X-5.884 Y3.140
G1 X-5.264 Y2.709
G1 X-4.663 Y2.251
G1 X-4.083 Y1.767
G1 X-3.526 Y1.256
G1 X-2.992 Y0.720
G1 X-2.483 Y0.161
G1 X-1.999 Y-0.421
G1 X-1.542 Y-1.024
G1 X-1.112 Y-1.648
G1 X-0.711 Y-2.290
G1 X-0.340 Y-2.950
G1 X0.002 Y-3.626
G1 X0.313 Y-4.317
G1 X0.592 Y-5.022
G1 X0.840 Y-5.738
G1 X1.055 Y-6.465
G1 X1.237 Y-7.201
G1 X1.385 Y-7.944
G1 X1.500 Y-8.694
G1 X1.582 Y-9.448
G1 X1.629 Y-10.205
G1 X1.642 Y-10.963
G1 X1.620 Y-11.721
G1 X1.565 Y-12.477
G1 X1.476 Y-13.230
G1 X1.353 Y-13.978
G1 X1.196 Y-14.720
G1 X1.006 Y-15.453
G1 X0.783 Y-16.178
G1 X0.528 Y-16.891
G1 X0.241 Y-17.592
G1 X-0.077 Y-18.280
G1 X-0.426 Y-18.952
G0 Z10
G0 X-18.111 Y4.566
Z10
Z2
G1 Z-0.125 F80
G1 X-18.111 Y4.566 F200
G1 X-17.372 Y4.692
G1 X-16.627 Y4.784
G1 X-15.878 Y4.842
G1 X-15.127 Y4.866
G1 X-14.376 Y4.856
G1 X-13.625 Y4.811
G1 X-12.877 Y4.733
G1 X-12.133 Y4.621
G1 X-11.394 Y4.475
G1 X-10.663 Y4.295
G1 X-9.940 Y4.083
G1 X-9.227 Y3.837
G1 X-8.526 Y3.560
G1 X-7.838 Y3.251
G1 X-7.164 Y2.911
G1 X-6.506 Y2.541
G1 X-5.865 Y2.141
G1 X-5.242 Y1.713
G1 X-4.640 Y1.257
G1 X-4.058 Y0.773
G1 X-3.499 Y0.264
G1 X-2.963 Y-0.270
G1 X-2.452 Y-0.828
G1 X-1.966 Y-1.408
G1 X-1.507 Y-2.010
G1 X-1.075 Y-2.632
G1 X-0.672 Y-3.274
G1 X-0.298 Y-3.932
G1 X0.047 Y-4.608
G1 X0.360 Y-5.298
G1 X0.642 Y-6.001
G1 X0.892 Y-6.717
G1 X1.109 Y-7.443
G1 X1.294 Y-8.179
G1 X1.445 Y-8.922
G1 X1.563 Y-9.671
G1 X1.647 Y-10.424
G1 X1.696 Y-11.181
G1 X1.712 Y-11.939
G1 X1.693 Y-12.697
G1 X1.641 Y-13.453
G1 X1.554 Y-14.206
G1 X1.434 Y-14.955
G1 X1.279 Y-15.697
G1 X1.092 Y-16.431
G1 X0.872 Y-17.156
G1 X0.619 Y-17.870
G1 X0.335 Y-18.572
G0 Z10
G0 X-18.037 Y3.538
Z10
Z2
G1 Z-0.125 F80
G1 X-18.037 Y3.538 F200
G1 X-17.297 Y3.666
G1 X-16.552 Y3.760
G1 X-15.803 Y3.820
G1 X-15.052 Y3.847
G1 X-14.300 Y3.839
G1 X-13.548 Y3.797
G1 X-12.800 Y3.720
G1 X-12.055 Y3.610
G1 X-11.315 Y3.466
G1 X-10.583 Y3.289
G1 X-9.859 Y3.079
G1 X-9.145 Y2.835
G1 X-8.442 Y2.560
G1 X-7.752 Y2.253
G1 X-7.077 Y1.915
G1 X-6.417 Y1.547
G1 X-5.775 Y1.149
G1 X-5.151 Y0.723
G1 X-4.546 Y0.268
G1 X-3.963 Y-0.213
G1 X-3.402 Y-0.721
G1 X-2.864 Y-1.253
G1 X-2.350 Y-1.810
G1 X-1.863 Y-2.389
G1 X-1.401 Y-2.989
G1 X-0.967 Y-3.610
G1 X-0.561 Y-4.250
G1 X-0.185 Y-4.908
G1 X0.161 Y-5.582
G1 X0.477 Y-6.271
G1 X0.762 Y-6.974
G1 X1.014 Y-7.689
G1 X1.234 Y-8.414
G1 X1.421 Y-9.149
G1 X1.575 Y-9.892
G1 X1.695 Y-10.640
G1 X1.782 Y-11.394
G1 X1.834 Y-12.150
G1 X1.852 Y-12.908
G1 X1.837 Y-13.666
G1 X1.787 Y-14.422
G1 X1.702 Y-15.176
G1 X1.585 Y-15.924
G1 X1.433 Y-16.667
G1 X1.248 Y-17.402
G1 X1.031 Y-18.127
G1 X0.781 Y-18.842
G0 Z10
G0 X-18.625 Y2.357
Z10
Z2
G1 Z-0.125 F80
G1 X-18.625 Y2.357 F200
G1 X-17.892 Y2.521
G1 X-17.152 Y2.651
G1 X-16.407 Y2.747
G1 X-15.658 Y2.810
G1 X-14.906 Y2.838
G1 X-14.153 Y2.832
G1 X-13.402 Y2.793
G1 X-12.652 Y2.719
G1 X-11.906 Y2.611
G1 X-11.166 Y2.469
G1 X-10.432 Y2.294
G1 X-9.707 Y2.086
G1 X-8.992 Y1.845
G1 X-8.288 Y1.571
G1 X-7.597 Y1.266
G1 X-6.921 Y0.931
G1 X-6.259 Y0.564
G1 X-5.615 Y0.168
G1 X-4.990 Y-0.256
G1 X-4.383 Y-0.709
G1 X-3.798 Y-1.189
G1 X-3.235 Y-1.695
G1 X-2.695 Y-2.225
G1 X-2.180 Y-2.780
G1 X-1.690 Y-3.358
G1 X-1.226 Y-3.957
G1 X-0.790 Y-4.576
G1 X-0.382 Y-5.215
G1 X-0.003 Y-5.872
G1 X0.346 Y-6.545
G1 X0.664 Y-7.233
G1 X0.951 Y-7.935
G1 X1.206 Y-8.649
G1 X1.429 Y-9.374
G1 X1.618 Y-10.108
G1 X1.775 Y-10.850
G1 X1.898 Y-11.598
G1 X1.987 Y-12.351
G1 X2.042 Y-13.107
G1 X2.063 Y-13.865
G1 X2.049 Y-14.623
G1 X2.002 Y-15.379
G1 X1.921 Y-16.133
G1 X1.805 Y-16.882
G1 X1.656 Y-17.624
G1 X1.474 Y-18.360
G0 Z10
G0 X-18.411 Y1.353
Z10
Z2
G1 Z-0.125 F80
G1 X-18.411 Y1.353 F200
G1 X-17.678 Y1.519
G1 X-16.938 Y1.651
G1 X-16.193 Y1.750
G1 X-15.443 Y1.815
G1 X-14.691 Y1.845
G1 X-13.938 Y1.842
G1 X-13.186 Y1.804
G1 X-12.436 Y1.732
G1 X-11.689 Y1.627
G1 X-10.948 Y1.487
G1 X-10.213 Y1.314
G1 X-9.487 Y1.108
G1 X-8.771 Y0.869
G1 X-8.066 Y0.598
G1 X-7.373 Y0.296
G1 X-6.695 Y-0.038
G1 X-6.033 Y-0.403
G1 X-5.387 Y-0.796
G1 X-4.759 Y-1.219
G1 X-4.151 Y-1.670
G1 X-3.564 Y-2.148
G1 X-2.999 Y-2.652
G1 X-2.457 Y-3.181
G1 X-1.940 Y-3.734
G1 X-1.448 Y-4.310
G1 X-0.982 Y-4.908
G1 X-0.543 Y-5.526
G1 X-0.133 Y-6.164
G1 X0.248 Y-6.819
G1 X0.599 Y-7.491
G1 X0.920 Y-8.178
G1 X1.209 Y-8.879
G1 X1.467 Y-9.592
G1 X1.692 Y-10.316
G1 X1.884 Y-11.050
G1 X2.043 Y-11.791
G1 X2.168 Y-12.539
G1 X2.260 Y-13.292
G1 X2.318 Y-14.047
G1 X2.341 Y-14.805
G1 X2.331 Y-15.563
G1 X2.286 Y-16.319
G1 X2.207 Y-17.073
G1 X2.094 Y-17.822
G1 X1.948 Y-18.565
G0 Z10
G0 X-18.853 Y0.168
Z10
Z2
G1 Z-0.125 F80
G1 X-18.853 Y0.168 F200
G1 X-18.129 Y0.369
G1 X-17.397 Y0.537
G1 X-16.657 Y0.672
G1 X-15.911 Y0.773
G1 X-15.161 Y0.840
G1 X-14.409 Y0.873
G1 X-13.655 Y0.871
G1 X-12.902 Y0.836
G1 X-12.151 Y0.767
G1 X-11.404 Y0.663
G1 X-10.662 Y0.526
G1 X-9.927 Y0.355
G1 X-9.199 Y0.152
G1 X-8.482 Y-0.085
G1 X-7.776 Y-0.354
G1 X-7.082 Y-0.655
G1 X-6.402 Y-0.986
G1 X-5.738 Y-1.349
G1 X-5.091 Y-1.741
G1 X-4.462 Y-2.161
G1 X-3.852 Y-2.610
G1 X-3.263 Y-3.087
G1 X-2.696 Y-3.589
G1 X-2.152 Y-4.116
G1 X-1.633 Y-4.668
G1 X-1.139 Y-5.242
G1 X-0.671 Y-5.838
G1 X-0.230 Y-6.455
G1 X0.183 Y-7.091
G1 X0.566 Y-7.745
G1 X0.920 Y-8.416
G1 X1.243 Y-9.102
G1 X1.534 Y-9.802
G1 X1.794 Y-10.514
G1 X2.022 Y-11.238
G1 X2.217 Y-11.970
G1 X2.379 Y-12.711
G1 X2.507 Y-13.458
G1 X2.601 Y-14.211
G1 X2.661 Y-14.966
G1 X2.687 Y-15.724
G1 X2.679 Y-16.481
G1 X2.637 Y-17.238
G1 X2.561 Y-17.991
G1 X2.451 Y-18.740
G0 Z10
G0 X-18.505 Y-0.794
Z10
Z2
G1 Z-0.125 F80
G1 X-18.505 Y-0.794 F200
G1 X-17.782 Y-0.590
G1 X-17.049 Y-0.420
G1 X-16.309 Y-0.283
G1 X-15.563 Y-0.180
G1 X-14.813 Y-0.110
G1 X-14.060 Y-0.075
G1 X-13.306 Y-0.074
G1 X-12.553 Y-0.107
G1 X-11.801 Y-0.174
G1 X-11.053 Y-0.275
G1 X-10.310 Y-0.410
G1 X-9.574 Y-0.578
G1 X-8.846 Y-0.780
G1 X-8.127 Y-1.014
G1 X-7.419 Y-1.281
G1 X-6.724 Y-1.580
G1 X-6.043 Y-1.909
G1 X-5.378 Y-2.269
G1 X-4.729 Y-2.659
G1 X-4.098 Y-3.078
G1 X-3.487 Y-3.525
G1 X-2.896 Y-4.000
G1 X-2.327 Y-4.500
G1 X-1.782 Y-5.026
G1 X-1.260 Y-5.576
G1 X-0.764 Y-6.148
G1 X-0.293 Y-6.743
G1 X0.149 Y-7.358
G1 X0.564 Y-7.993
G1 X0.950 Y-8.646
G1 X1.306 Y-9.316
G1 X1.631 Y-10.000
G1 X1.926 Y-10.699
G1 X2.188 Y-11.411
G1 X2.418 Y-12.133
G1 X2.616 Y-12.865
G1 X2.780 Y-13.605
G1 X2.910 Y-14.352
G1 X3.007 Y-15.104
G1 X3.070 Y-15.859
G1 X3.099 Y-16.616
G1 X3.093 Y-17.373
G1 X3.054 Y-18.130
G0 Z10
G0 X-18.806 Y-1.964
Z10
Z2
G1 Z-0.125 F80
G1 X-18.806 Y-1.964 F200
G1 X-18.093 Y-1.726
G1 X-17.369 Y-1.520
G1 X-16.637 Y-1.348
G1 X-15.896 Y-1.208
G1 X-15.151 Y-1.103
G1 X-14.400 Y-1.031
G1 X-13.647 Y-0.993
G1 X-12.893 Y-0.990
G1 X-12.139 Y-1.021
G1 X-11.387 Y-1.085
G1 X-10.638 Y-1.184
G1 X-9.894 Y-1.317
G1 X-9.157 Y-1.483
G1 X-8.428 Y-1.682
G1 X-7.708 Y-1.914
G1 X-6.999 Y-2.179
G1 X-6.303 Y-2.475
G1 X-5.620 Y-2.802
G1 X-4.953 Y-3.160
G1 X-4.303 Y-3.548
G1 X-3.671 Y-3.965
G1 X-3.058 Y-4.410
G1 X-2.465 Y-4.883
G1 X-1.894 Y-5.381
G1 X-1.347 Y-5.905
G1 X-0.823 Y-6.453
G1 X-0.325 Y-7.024
G1 X0.148 Y-7.618
G1 X0.593 Y-8.232
G1 X1.010 Y-8.865
G1 X1.398 Y-9.516
G1 X1.756 Y-10.185
G1 X2.084 Y-10.868
G1 X2.380 Y-11.566
G1 X2.645 Y-12.277
G1 X2.878 Y-12.998
G1 X3.078 Y-13.729
G1 X3.245 Y-14.469
G1 X3.378 Y-15.215
G1 X3.477 Y-15.966
G1 X3.543 Y-16.721
G1 X3.574 Y-17.477
G1 X3.571 Y-18.235
G0 Z10
G0 X-18.332 Y-2.865
Z10
Z2
G1 Z-0.125 F80
G1 X-18.332 Y-2.865 F200
G1 X-17.618 Y-2.625
G1 X-16.895 Y-2.417
G1 X-16.162 Y-2.242
G1 X-15.422 Y-2.100
G1 X-14.676 Y-1.992
G1 X-13.925 Y-1.918
G1 X-13.172 Y-1.878
G1 X-12.417 Y-1.872
G1 X-11.663 Y-1.900
G1 X-10.910 Y-1.963
G1 X-10.161 Y-2.059
G1 X-9.416 Y-2.189
G1 X-8.678 Y-2.353
G1 X-7.948 Y-2.550
G1 X-7.227 Y-2.780
G1 X-6.517 Y-3.042
G1 X-5.819 Y-3.336
G1 X-5.136 Y-3.661
G1 X-4.467 Y-4.017
G1 X-3.815 Y-4.403
G1 X-3.181 Y-4.818
G1 X-2.566 Y-5.261
G1 X-1.972 Y-5.731
G1 X-1.400 Y-6.228
G1 X-0.850 Y-6.750
G1 X-0.324 Y-7.297
G1 X0.176 Y-7.866
G1 X0.650 Y-8.458
G1 X1.098 Y-9.070
G1 X1.517 Y-9.702
G1 X1.907 Y-10.352
G1 X2.268 Y-11.019
G1 X2.598 Y-11.702
G1 X2.897 Y-12.398
G1 X3.164 Y-13.108
G1 X3.399 Y-13.828
G1 X3.602 Y-14.559
G1 X3.771 Y-15.297
G1 X3.907 Y-16.043
G1 X4.009 Y-16.793
G1 X4.077 Y-17.548
G1 X4.111 Y-18.304
G0 Z10
G0 X-18.498 Y-4.003
Z10
Z2
G1 Z-0.125 F80
G1 X-18.498 Y-4.003 F200
G1 X-17.797 Y-3.728
G1 X-17.084 Y-3.486
G1 X-16.361 Y-3.275
G1 X-15.628 Y-3.098
G1 X-14.888 Y-2.954
G1 X-14.142 Y-2.844
G1 X-13.391 Y-2.767
G1 X-12.637 Y-2.725
G1 X-11.882 Y-2.716
G1 X-11.127 Y-2.742
G1 X-10.374 Y-2.802
G1 X-9.624 Y-2.896
G1 X-8.878 Y-3.024
G1 X-8.139 Y-3.185
G1 X-7.408 Y-3.380
G1 X-6.686 Y-3.607
G1 X-5.975 Y-3.867
G1 X-5.276 Y-4.159
G1 X-4.591 Y-4.482
G1 X-3.922 Y-4.836
G1 X-3.268 Y-5.219
G1 X-2.633 Y-5.632
G1 X-2.016 Y-6.073
G1 X-1.420 Y-6.542
G1 X-0.846 Y-7.037
G1 X-0.294 Y-7.557
G1 X0.233 Y-8.101
G1 X0.736 Y-8.669
G1 X1.212 Y-9.259
G1 X1.661 Y-9.870
G1 X2.083 Y-10.500
G1 X2.475 Y-11.149
G1 X2.838 Y-11.815
G1 X3.171 Y-12.496
G1 X3.472 Y-13.192
G1 X3.742 Y-13.900
G1 X3.980 Y-14.620
G1 X4.184 Y-15.349
G1 X4.356 Y-16.087
G1 X4.494 Y-16.832
G1 X4.599 Y-17.582
G1 X4.670 Y-18.336
G0 Z10
G0 X-17.906 Y-4.827
Z10
Z2
G1 Z-0.125 F80
G1 X-17.906 Y-4.827 F200
G1 X-17.205 Y-4.550
G1 X-16.493 Y-4.305
G1 X-15.769 Y-4.092
G1 X-15.037 Y-3.913
G1 X-14.297 Y-3.766
G1 X-13.551 Y-3.653
G1 X-12.800 Y-3.574
G1 X-12.046 Y-3.529
G1 X-11.290 Y-3.519
G1 X-10.535 Y-3.542
G1 X-9.781 Y-3.600
G1 X-9.030 Y-3.691
G1 X-8.284 Y-3.816
G1 X-7.544 Y-3.975
G1 X-6.812 Y-4.168
G1 X-6.089 Y-4.393
G1 X-5.377 Y-4.650
G1 X-4.677 Y-4.940
G1 X-3.991 Y-5.261
G1 X-3.319 Y-5.612
G1 X-2.665 Y-5.994
G1 X-2.027 Y-6.404
G1 X-1.409 Y-6.843
G1 X-0.812 Y-7.310
G1 X-0.236 Y-7.802
G1 X0.318 Y-8.321
G1 X0.847 Y-8.864
G1 X1.352 Y-9.430
G1 X1.830 Y-10.018
G1 X2.282 Y-10.627
G1 X2.705 Y-11.256
G1 X3.100 Y-11.903
G1 X3.465 Y-12.568
G1 X3.800 Y-13.248
G1 X4.104 Y-13.942
G1 X4.376 Y-14.649
G1 X4.616 Y-15.368
G1 X4.823 Y-16.097
G1 X4.998 Y-16.834
G1 X5.138 Y-17.578
G0 Z10
G0 X-17.946 Y-5.916
Z10
Z2
G1 Z-0.125 F80
G1 X-17.946 Y-5.916 F200
G1 X-17.259 Y-5.605
G1 X-16.559 Y-5.326
G1 X-15.847 Y-5.078
G1 X-15.124 Y-4.863
G1 X-14.392 Y-4.681
G1 X-13.652 Y-4.532
G1 X-12.906 Y-4.417
G1 X-12.155 Y-4.336
G1 X-11.400 Y-4.288
G1 X-10.645 Y-4.275
G1 X-9.889 Y-4.296
G1 X-9.134 Y-4.351
G1 X-8.383 Y-4.440
G1 X-7.636 Y-4.563
G1 X-6.895 Y-4.720
G1 X-6.162 Y-4.909
G1 X-5.438 Y-5.132
G1 X-4.725 Y-5.387
G1 X-4.024 Y-5.674
G1 X-3.336 Y-5.993
G1 X-2.664 Y-6.342
G1 X-2.007 Y-6.721
G1 X-1.369 Y-7.130
G1 X-0.749 Y-7.567
G1 X-0.150 Y-8.031
G1 X0.428 Y-8.522
G1 X0.983 Y-9.039
G1 X1.515 Y-9.580
G1 X2.021 Y-10.144
G1 X2.502 Y-10.730
G1 X2.955 Y-11.338
G1 X3.381 Y-11.965
G1 X3.778 Y-12.611
G1 X4.145 Y-13.274
G1 X4.482 Y-13.953
G1 X4.789 Y-14.646
G1 X5.063 Y-15.352
G1 X5.305 Y-16.070
G1 X5.515 Y-16.798
G1 X5.692 Y-17.534
G0 Z10
G0 X-17.248 Y-6.647
Z10
Z2
G1 Z-0.125 F80
G1 X-17.248 Y-6.647 F200
G1 X-16.562 Y-6.334
G1 X-15.863 Y-6.052
G1 X-15.151 Y-5.803
G1 X-14.428 Y-5.585
G1 X-13.696 Y-5.401
G1 X-12.956 Y-5.249
G1 X-12.210 Y-5.132
G1 X-11.459 Y-5.048
G1 X-10.704 Y-4.998
G1 X-9.948 Y-4.982
G1 X-9.192 Y-5.000
G1 X-8.437 Y-5.053
G1 X-7.685 Y-5.140
G1 X-6.938 Y-5.260
G1 X-6.196 Y-5.414
G1 X-5.462 Y-5.601
G1 X-4.737 Y-5.822
G1 X-4.023 Y-6.075
G1 X-3.321 Y-6.359
G1 X-2.632 Y-6.676
G1 X-1.958 Y-7.023
G1 X-1.300 Y-7.400
G1 X-0.660 Y-7.806
G1 X-0.039 Y-8.241
G1 X0.562 Y-8.703
G1 X1.142 Y-9.192
G1 X1.699 Y-9.706
G1 X2.232 Y-10.246
G1 X2.740 Y-10.808
G1 X3.223 Y-11.393
G1 X3.678 Y-11.999
G1 X4.106 Y-12.625
G1 X4.505 Y-13.269
G1 X4.875 Y-13.930
G1 X5.214 Y-14.608
G1 X5.523 Y-15.300
G1 X5.800 Y-16.005
G1 X6.045 Y-16.721
G1 X6.257 Y-17.448
G0 Z10
G0 X-17.173 Y-7.672
Z10
Z2
G1 Z-0.125 F80
G1 X-17.173 Y-7.672 F200
G1 X-16.503 Y-7.326
G1 X-15.818 Y-7.011
G1 X-15.119 Y-6.727
G1 X-14.408 Y-6.474
G1 X-13.685 Y-6.255
G1 X-12.953 Y-6.068
G1 X-12.214 Y-5.914
G1 X-11.467 Y-5.793
G1 X-10.716 Y-5.707
G1 X-9.962 Y-5.655
G1 X-9.205 Y-5.636
G1 X-8.448 Y-5.652
G1 X-7.693 Y-5.702
G1 X-6.941 Y-5.786
G1 X-6.192 Y-5.904
G1 X-5.450 Y-6.056
G1 X-4.716 Y-6.241
G1 X-3.990 Y-6.459
G1 X-3.274 Y-6.709
G1 X-2.571 Y-6.991
G1 X-1.881 Y-7.305
G1 X-1.206 Y-7.650
G1 X-0.547 Y-8.025
G1 X0.095 Y-8.429
G1 X0.718 Y-8.861
G1 X1.321 Y-9.322
G1 X1.902 Y-9.808
G1 X2.461 Y-10.321
G1 X2.996 Y-10.858
G1 X3.506 Y-11.419
G1 X3.990 Y-12.002
G1 X4.448 Y-12.606
G1 X4.878 Y-13.230
G1 X5.279 Y-13.873
G1 X5.651 Y-14.533
G1 X5.993 Y-15.209
G1 X6.303 Y-15.900
G1 X6.583 Y-16.604
G1 X6.830 Y-17.319
G0 Z10
G0 X-16.384 Y-8.297
Z10
Z2
G1 Z-0.125 F80
G1 X-16.384 Y-8.297 F200
G1 X-15.715 Y-7.949
G1 X-15.030 Y-7.631
G1 X-14.332 Y-7.345
G1 X-13.621 Y-7.090
G1 X-12.899 Y-6.868
G1 X-12.167 Y-6.678
G1 X-11.428 Y-6.522
G1 X-10.681 Y-6.399
G1 X-9.930 Y-6.310
G1 X-9.175 Y-6.256
G1 X-8.419 Y-6.235
G1 X-7.662 Y-6.248
G1 X-6.906 Y-6.295
G1 X-6.153 Y-6.377
G1 X-5.404 Y-6.492
G1 X-4.661 Y-6.641
G1 X-3.926 Y-6.824
G1 X-3.199 Y-7.039
G1 X-2.483 Y-7.287
G1 X-1.778 Y-7.567
G1 X-1.087 Y-7.879
G1 X-0.410 Y-8.221
G1 X0.250 Y-8.594
G1 X0.893 Y-8.995
G1 X1.517 Y-9.426
G1 X2.122 Y-9.884
G1 X2.705 Y-10.369
G1 X3.265 Y-10.879
G1 X3.802 Y-11.415
G1 X4.314 Y-11.974
G1 X4.801 Y-12.555
G1 X5.260 Y-13.157
G1 X5.692 Y-13.780
G1 X6.096 Y-14.421
G1 X6.470 Y-15.080
G1 X6.813 Y-15.755
G1 X7.126 Y-16.444
G1 X7.408 Y-17.147
G0 Z10
G0 X-16.207 Y-9.244
Z10
Z2
G1 Z-0.125 F80
G1 X-16.207 Y-9.244 F200
G1 X-15.556 Y-8.864
G1 X-14.887 Y-8.513
G1 X-14.203 Y-8.193
G1 X-13.505 Y-7.905
G1 X-12.795 Y-7.648
G1 X-12.073 Y-7.423
G1 X-11.342 Y-7.231
G1 X-10.602 Y-7.072
G1 X-9.856 Y-6.947
G1 X-9.105 Y-6.855
G1 X-8.350 Y-6.798
G1 X-7.593 Y-6.774
G1 X-6.836 Y-6.785
G1 X-6.080 Y-6.830
G1 X-5.326 Y-6.909
G1 X-4.577 Y-7.022
G1 X-3.833 Y-7.168
G1 X-3.097 Y-7.348
G1 X-2.369 Y-7.561
G1 X-1.652 Y-7.807
G1 X-0.946 Y-8.084
G1 X-0.254 Y-8.393
G1 X0.424 Y-8.733
G1 X1.085 Y-9.103
G1 X1.730 Y-9.503
G1 X2.356 Y-9.931
G1 X2.961 Y-10.387
G1 X3.546 Y-10.870
G1 X4.108 Y-11.379
G1 X4.647 Y-11.912
G1 X5.161 Y-12.469
G1 X5.649 Y-13.048
G1 X6.111 Y-13.649
G1 X6.545 Y-14.270
G1 X6.950 Y-14.910
G1 X7.326 Y-15.567
G1 X7.672 Y-16.240
G1 X7.988 Y-16.928
G0 Z10
G0 X-15.975 Y-10.163
Z10
Z2
G1 Z-0.125 F80
G1 X-15.975 Y-10.163 F200
G1 X-15.342 Y-9.752
G1 X-14.691 Y-9.370
G1 X-14.024 Y-9.017
G1 X-13.340 Y-8.694
G1 X-12.643 Y-8.403
G1 X-11.933 Y-8.144
G1 X-11.212 Y-7.916
G1 X-10.481 Y-7.722
G1 X-9.741 Y-7.561
G1 X-8.995 Y-7.433
G1 X-8.244 Y-7.339
G1 X-7.489 Y-7.279
G1 X-6.732 Y-7.253
G1 X-5.975 Y-7.261
G1 X-5.218 Y-7.303
G1 X-4.464 Y-7.379
G1 X-3.714 Y-7.490
G1 X-2.970 Y-7.634
G1 X-2.233 Y-7.811
G1 X-1.505 Y-8.021
G1 X-0.787 Y-8.264
G1 X-0.080 Y-8.540
G1 X0.613 Y-8.846
G1 X1.292 Y-9.184
G1 X1.955 Y-9.552
G1 X2.601 Y-9.949
G1 X3.228 Y-10.375
G1 X3.836 Y-10.829
G1 X4.422 Y-11.310
G1 X4.986 Y-11.816
G1 X5.526 Y-12.348
G1 X6.042 Y-12.903
G1 X6.532 Y-13.480
G1 X6.996 Y-14.079
G1 X7.432 Y-14.699
G1 X7.839 Y-15.337
G1 X8.217 Y-15.992
G1 X8.566 Y-16.664
G0 Z10
G0 X-15.078 Y-10.610
Z10
Z2
G1 Z-0.125 F80
G1 X-15.078 Y-10.610 F200
G1 X-14.446 Y-10.197
G1 X-13.796 Y-9.812
G1 X-13.129 Y-9.457
G1 X-12.447 Y-9.132
G1 X-11.750 Y-8.838
G1 X-11.040 Y-8.576
G1 X-10.319 Y-8.347
G1 X-9.589 Y-8.150
G1 X-8.850 Y-7.986
G1 X-8.104 Y-7.855
G1 X-7.353 Y-7.759
G1 X-6.598 Y-7.696
G1 X-5.841 Y-7.667
G1 X-5.083 Y-7.673
G1 X-4.326 Y-7.712
G1 X-3.572 Y-7.786
G1 X-2.822 Y-7.894
G1 X-2.077 Y-8.035
G1 X-1.339 Y-8.210
G1 X-0.610 Y-8.418
G1 X0.109 Y-8.659
G1 X0.817 Y-8.931
G1 X1.511 Y-9.236
G1 X2.192 Y-9.571
G1 X2.856 Y-9.936
G1 X3.503 Y-10.332
G1 X4.132 Y-10.755
G1 X4.740 Y-11.207
G1 X5.328 Y-11.685
G1 X5.894 Y-12.190
G1 X6.436 Y-12.719
G1 X6.953 Y-13.272
G1 X7.445 Y-13.848
G1 X7.911 Y-14.446
G1 X8.349 Y-15.063
G1 X8.758 Y-15.700
G1 X9.138 Y-16.354
G0 Z10
G0 X-14.765 Y-11.435
Z10
Z2
G1 Z-0.125 F80
G1 X-14.765 Y-11.435 F200
G1 X-14.154 Y-10.992
G1 X-13.523 Y-10.576
G1 X-12.874 Y-10.189
G1 X-12.208 Y-9.831
G1 X-11.526 Y-9.504
G1 X-10.830 Y-9.208
G1 X-10.121 Y-8.943
G1 X-9.401 Y-8.711
G1 X-8.670 Y-8.512
G1 X-7.932 Y-8.345
G1 X-7.186 Y-8.212
G1 X-6.435 Y-8.113
G1 X-5.680 Y-8.048
G1 X-4.923 Y-8.016
G1 X-4.165 Y-8.019
G1 X-3.408 Y-8.056
G1 X-2.653 Y-8.128
G1 X-1.902 Y-8.233
G1 X-1.157 Y-8.372
G1 X-0.419 Y-8.544
G1 X0.311 Y-8.749
G1 X1.031 Y-8.987
G1 X1.740 Y-9.257
G1 X2.435 Y-9.559
G1 X3.117 Y-9.892
G1 X3.782 Y-10.255
G1 X4.430 Y-10.648
G1 X5.060 Y-11.070
G1 X5.671 Y-11.519
G1 X6.260 Y-11.995
G1 X6.827 Y-12.498
G1 X7.371 Y-13.025
G1 X7.890 Y-13.576
G1 X8.384 Y-14.150
G1 X8.851 Y-14.746
G1 X9.291 Y-15.362
G1 X9.702 Y-15.996
G0 Z10
G0 X-14.406 Y-12.225
Z10
Z2
G1 Z-0.125 F80
G1 X-14.406 Y-12.225 F200
G1 X-13.817 Y-11.752
G1 X-13.207 Y-11.306
G1 X-12.578 Y-10.888
G1 X-11.930 Y-10.498
G1 X-11.265 Y-10.139
G1 X-10.584 Y-9.809
G1 X-9.888 Y-9.510
G1 X-9.180 Y-9.243
G1 X-8.460 Y-9.009
G1 X-7.730 Y-8.807
G1 X-6.992 Y-8.638
G1 X-6.246 Y-8.502
G1 X-5.496 Y-8.400
G1 X-4.741 Y-8.332
G1 X-3.984 Y-8.298
G1 X-3.226 Y-8.299
G1 X-2.468 Y-8.333
G1 X-1.713 Y-8.402
G1 X-0.962 Y-8.504
G1 X-0.216 Y-8.640
G1 X0.523 Y-8.810
G1 X1.254 Y-9.013
G1 X1.975 Y-9.248
G1 X2.684 Y-9.516
G1 X3.381 Y-9.816
G1 X4.063 Y-10.146
G1 X4.729 Y-10.507
G1 X5.379 Y-10.897
G1 X6.010 Y-11.317
G1 X6.622 Y-11.764
G1 X7.213 Y-12.238
G1 X7.781 Y-12.738
G1 X8.327 Y-13.264
G1 X8.848 Y-13.813
G1 X9.343 Y-14.385
G1 X9.812 Y-14.979
G1 X10.254 Y-15.593
G0 Z10
G0 X-13.440 Y-12.475
Z10
Z2
G1 Z-0.125 F80
G1 X-13.440 Y-12.475 F200
G1 X-12.852 Y-12.000
G1 X-12.244 Y-11.552
G1 X-11.615 Y-11.131
G1 X-10.968 Y-10.740
G1 X-10.304 Y-10.377
G1 X-9.624 Y-10.045
G1 X-8.929 Y-9.744
G1 X-8.221 Y-9.475
G1 X-7.502 Y-9.238
G1 X-6.773 Y-9.033
G1 X-6.035 Y-8.861
G1 X-5.290 Y-8.723
G1 X-4.539 Y-8.619
G1 X-3.784 Y-8.548
G1 X-3.027 Y-8.512
G1 X-2.269 Y-8.509
G1 X-1.511 Y-8.541
G1 X-0.756 Y-8.607
G1 X-0.004 Y-8.707
G1 X0.742 Y-8.841
G1 X1.482 Y-9.008
G1 X2.213 Y-9.208
G1 X2.935 Y-9.441
G1 X3.645 Y-9.706
G1 X4.342 Y-10.003
G1 X5.026 Y-10.331
G1 X5.693 Y-10.690
G1 X6.344 Y-11.078
G1 X6.977 Y-11.495
G1 X7.590 Y-11.940
G1 X8.182 Y-12.412
G1 X8.752 Y-12.910
G1 X9.299 Y-13.433
G1 X9.822 Y-13.981
G1 X10.319 Y-14.551
G1 X10.790 Y-15.143
G0 Z10
G0 X-13.025 Y-13.159
Z10
Z2
G1 Z-0.125 F80
G1 X-13.025 Y-13.159 F200
G1 X-12.461 Y-12.656
G1 X-11.875 Y-12.179
G1 X-11.267 Y-11.728
G1 X-10.640 Y-11.305
G1 X-9.994 Y-10.911
G1 X-9.330 Y-10.547
G1 X-8.651 Y-10.212
G1 X-7.957 Y-9.909
G1 X-7.250 Y-9.637
G1 X-6.532 Y-9.397
G1 X-5.803 Y-9.190
G1 X-5.065 Y-9.016
G1 X-4.320 Y-8.875
G1 X-3.570 Y-8.768
G1 X-2.815 Y-8.695
G1 X-2.058 Y-8.656
G1 X-1.300 Y-8.651
G1 X-0.542 Y-8.680
G1 X0.213 Y-8.743
G1 X0.965 Y-8.840
G1 X1.712 Y-8.971
G1 X2.452 Y-9.136
G1 X3.184 Y-9.334
G1 X3.907 Y-9.564
G1 X4.618 Y-9.827
G1 X5.316 Y-10.121
G1 X6.000 Y-10.447
G1 X6.669 Y-10.803
G1 X7.321 Y-11.189
G1 X7.955 Y-11.603
G1 X8.569 Y-12.046
G1 X9.163 Y-12.516
G1 X9.735 Y-13.012
G1 X10.283 Y-13.533
G1 X10.807 Y-14.079
G1 X11.306 Y-14.647
G0 Z10
G0 X-12.575 Y-13.802
Z10
Z2
G1 Z-0.125 F80
G1 X-12.575 Y-13.802 F200
G1 X-12.036 Y-13.272
G1 X-11.474 Y-12.766
G1 X-10.889 Y-12.287
G1 X-10.283 Y-11.834
G1 X-9.656 Y-11.409
G1 X-9.011 Y-11.013
G1 X-8.349 Y-10.646
G1 X-7.671 Y-10.309
G1 X-6.978 Y-10.003
G1 X-6.272 Y-9.729
G1 X-5.554 Y-9.486
G1 X-4.825 Y-9.277
G1 X-4.088 Y-9.100
G1 X-3.344 Y-8.957
G1 X-2.594 Y-8.847
G1 X-1.839 Y-8.771
G1 X-1.082 Y-8.729
G1 X-0.324 Y-8.722
G1 X0.434 Y-8.748
G1 X1.190 Y-8.809
G1 X1.942 Y-8.903
G1 X2.689 Y-9.032
G1 X3.430 Y-9.194
G1 X4.163 Y-9.389
G1 X4.886 Y-9.617
G1 X5.597 Y-9.877
G1 X6.297 Y-10.169
G1 X6.982 Y-10.492
G1 X7.652 Y-10.846
G1 X8.305 Y-11.229
G1 X8.940 Y-11.642
G1 X9.556 Y-12.082
G1 X10.151 Y-12.550
G1 X10.724 Y-13.044
G1 X11.274 Y-13.563
G1 X11.799 Y-14.106
G0 Z10
G0 X-12.095 Y-14.401
Z10
Z2
G1 Z-0.125 F80
G1 X-12.095 Y-14.401 F200
G1 X-11.582 Y-13.846
G1 X-11.045 Y-13.314
G1 X-10.484 Y-12.806
G1 X-9.900 Y-12.325
G1 X-9.295 Y-11.870
G1 X-8.670 Y-11.443
G1 X-8.026 Y-11.044
G1 X-7.365 Y-10.675
G1 X-6.687 Y-10.335
G1 X-5.995 Y-10.027
G1 X-5.290 Y-9.750
G1 X-4.573 Y-9.505
G1 X-3.845 Y-9.293
G1 X-3.108 Y-9.113
G1 X-2.364 Y-8.967
G1 X-1.615 Y-8.855
G1 X-0.860 Y-8.777
G1 X-0.103 Y-8.732
G1 X0.655 Y-8.722
G1 X1.413 Y-8.746
G1 X2.169 Y-8.804
G1 X2.921 Y-8.896
G1 X3.669 Y-9.022
G1 X4.410 Y-9.181
G1 X5.143 Y-9.374
G1 X5.867 Y-9.599
G1 X6.579 Y-9.857
G1 X7.279 Y-10.146
G1 X7.966 Y-10.467
G1 X8.636 Y-10.818
G1 X9.291 Y-11.199
G1 X9.927 Y-11.609
G1 X10.544 Y-12.048
G1 X11.140 Y-12.513
G1 X11.715 Y-13.005
G1 X12.266 Y-13.522
G0 Z10
G0 X-11.587 Y-14.956
Z10
Z2
G1 Z-0.125 F80
G1 X-11.587 Y-14.956 F200
G1 X-11.102 Y-14.377
G1 X-10.591 Y-13.819
G1 X-10.055 Y-13.285
G1 X-9.495 Y-12.776
G1 X-8.913 Y-12.292
G1 X-8.309 Y-11.835
G1 X-7.685 Y-11.405
G1 X-7.043 Y-11.004
G1 X-6.383 Y-10.633
G1 X-5.706 Y-10.291
G1 X-5.015 Y-9.980
G1 X-4.310 Y-9.701
G1 X-3.594 Y-9.453
G1 X-2.867 Y-9.238
G1 X-2.131 Y-9.056
G1 X-1.387 Y-8.908
G1 X-0.638 Y-8.793
G1 X0.116 Y-8.712
G1 X0.873 Y-8.665
G1 X1.631 Y-8.652
G1 X2.389 Y-8.673
G1 X3.145 Y-8.728
G1 X3.898 Y-8.818
G1 X4.646 Y-8.941
G1 X5.388 Y-9.098
G1 X6.121 Y-9.288
G1 X6.845 Y-9.511
G1 X7.559 Y-9.766
G1 X8.259 Y-10.053
G1 X8.947 Y-10.371
G1 X9.618 Y-10.720
G1 X10.274 Y-11.099
G1 X10.911 Y-11.506
G1 X11.529 Y-11.942
G1 X12.127 Y-12.406
G1 X12.702 Y-12.896
G1 X13.255 Y-13.411
G0 Z10
G0 X-10.599 Y-14.863
Z10
Z2
G1 Z-0.125 F80
G1 X-10.599 Y-14.863 F200
G1 X-10.115 Y-14.282
G1 X-9.606 Y-13.722
G1 X-9.071 Y-13.186
G1 X-8.513 Y-12.675
G1 X-7.932 Y-12.189
G1 X-7.330 Y-11.729
G1 X-6.708 Y-11.298
G1 X-6.066 Y-10.894
G1 X-5.407 Y-10.520
G1 X-4.732 Y-10.176
G1 X-4.042 Y-9.863
G1 X-3.338 Y-9.581
G1 X-2.622 Y-9.331
G1 X-1.896 Y-9.114
G1 X-1.160 Y-8.929
G1 X-0.417 Y-8.778
G1 X0.332 Y-8.660
G1 X1.086 Y-8.577
G1 X1.842 Y-8.527
G1 X2.600 Y-8.511
G1 X3.358 Y-8.530
G1 X4.114 Y-8.583
G1 X4.867 Y-8.669
G1 X5.616 Y-8.790
G1 X6.358 Y-8.944
G1 X7.092 Y-9.132
G1 X7.816 Y-9.352
G1 X8.530 Y-9.605
G1 X9.232 Y-9.889
G1 X9.920 Y-10.205
G1 X10.593 Y-10.551
G1 X11.249 Y-10.928
G1 X11.887 Y-11.333
G1 X12.506 Y-11.767
G1 X13.105 Y-12.228
G1 X13.682 Y-12.716
G0 Z10
G0 X-10.077 Y-15.305
Z10
Z2
G1 Z-0.125 F80
G1 X-10.077 Y-15.305 F200
G1 X-9.622 Y-14.700
G1 X-9.140 Y-14.117
G1 X-8.632 Y-13.555
G1 X-8.099 Y-13.017
G1 X-7.543 Y-12.504
G1 X-6.963 Y-12.016
G1 X-6.363 Y-11.554
G1 X-5.741 Y-11.120
G1 X-5.101 Y-10.715
G1 X-4.443 Y-10.338
G1 X-3.769 Y-9.992
G1 X-3.080 Y-9.676
G1 X-2.377 Y-9.392
G1 X-1.662 Y-9.139
G1 X-0.936 Y-8.919
G1 X-0.201 Y-8.732
G1 X0.541 Y-8.578
G1 X1.290 Y-8.458
G1 X2.043 Y-8.372
G1 X2.799 Y-8.320
G1 X3.557 Y-8.301
G1 X4.315 Y-8.317
G1 X5.071 Y-8.367
G1 X5.825 Y-8.452
G1 X6.573 Y-8.570
G1 X7.315 Y-8.721
G1 X8.050 Y-8.906
G1 X8.775 Y-9.124
G1 X9.489 Y-9.374
G1 X10.192 Y-9.656
G1 X10.881 Y-9.969
G1 X11.554 Y-10.313
G1 X12.211 Y-10.687
G1 X12.851 Y-11.091
G1 X13.471 Y-11.522
G1 X14.071 Y-11.981
G0 Z10
G0 X-9.539 Y-15.701
Z10
Z2
G1 Z-0.125 F80
G1 X-9.539 Y-15.701 F200
G1 X-9.114 Y-15.075
G1 X-8.661 Y-14.469
G1 X-8.181 Y-13.883
G1 X-7.675 Y-13.320
G1 X-7.143 Y-12.780
G1 X-6.588 Y-12.264
G1 X-6.011 Y-11.774
G1 X-5.411 Y-11.311
G1 X-4.791 Y-10.874
G1 X-4.153 Y-10.466
G1 X-3.496 Y-10.088
G1 X-2.823 Y-9.739
G1 X-2.134 Y-9.421
G1 X-1.433 Y-9.134
G1 X-0.718 Y-8.879
G1 X0.006 Y-8.656
G1 X0.741 Y-8.467
G1 X1.483 Y-8.310
G1 X2.231 Y-8.188
G1 X2.984 Y-8.099
G1 X3.740 Y-8.044
G1 X4.497 Y-8.023
G1 X5.255 Y-8.036
G1 X6.011 Y-8.084
G1 X6.765 Y-8.165
G1 X7.513 Y-8.281
G1 X8.256 Y-8.429
G1 X8.991 Y-8.612
G1 X9.716 Y-8.827
G1 X10.432 Y-9.075
G1 X11.135 Y-9.354
G1 X11.824 Y-9.665
G1 X12.498 Y-10.007
G1 X13.157 Y-10.379
G1 X13.797 Y-10.779
G1 X14.419 Y-11.209
G0 Z10
G0 X-8.989 Y-16.051
Z10
Z2
G1 Z-0.125 F80
G1 X-8.989 Y-16.051 F200
G1 X-8.595 Y-15.405
G1 X-8.172 Y-14.777
G1 X-7.720 Y-14.169
G1 X-7.242 Y-13.582
G1 X-6.738 Y-13.017
G1 X-6.209 Y-12.475
G1 X-5.655 Y-11.957
G1 X-5.079 Y-11.465
G1 X-4.481 Y-10.999
G1 X-3.863 Y-10.561
G1 X-3.225 Y-10.151
G1 X-2.570 Y-9.770
G1 X-1.898 Y-9.418
G1 X-1.210 Y-9.098
G1 X-0.510 Y-8.809
G1 X0.204 Y-8.551
G1 X0.928 Y-8.326
G1 X1.661 Y-8.134
G1 X2.403 Y-7.975
G1 X3.150 Y-7.850
G1 X3.903 Y-7.758
G1 X4.659 Y-7.700
G1 X5.416 Y-7.677
G1 X6.174 Y-7.688
G1 X6.930 Y-7.733
G1 X7.683 Y-7.811
G1 X8.432 Y-7.924
G1 X9.175 Y-8.071
G1 X9.910 Y-8.250
G1 X10.636 Y-8.463
G1 X11.352 Y-8.708
G1 X12.055 Y-8.985
G1 X12.746 Y-9.294
G1 X13.421 Y-9.633
G1 X14.080 Y-10.003
G1 X14.721 Y-10.401
G1 X15.344 Y-10.828
G0 Z10
G0 X-8.431 Y-16.355
Z10
Z2
G1 Z-0.125 F80
G1 X-8.431 Y-16.355 F200
G1 X-8.068 Y-15.691
G1 X-7.676 Y-15.043
G1 X-7.255 Y-14.414
G1 X-6.806 Y-13.804
G1 X-6.329 Y-13.215
G1 X-5.827 Y-12.648
G1 X-5.299 Y-12.104
G1 X-4.747 Y-11.585
G1 X-4.173 Y-11.090
G1 X-3.576 Y-10.622
G1 X-2.959 Y-10.182
G1 X-2.323 Y-9.769
G1 X-1.669 Y-9.386
G1 X-0.998 Y-9.032
G1 X-0.312 Y-8.709
G1 X0.388 Y-8.418
G1 X1.100 Y-8.158
G1 X1.823 Y-7.930
G1 X2.556 Y-7.735
G1 X3.297 Y-7.574
G1 X4.044 Y-7.446
G1 X4.796 Y-7.352
G1 X5.551 Y-7.292
G1 X6.308 Y-7.266
G1 X7.066 Y-7.274
G1 X7.822 Y-7.316
G1 X8.575 Y-7.392
G1 X9.324 Y-7.502
G1 X10.067 Y-7.646
G1 X10.803 Y-7.823
G1 X11.529 Y-8.034
G1 X12.246 Y-8.276
G1 X12.950 Y-8.551
G1 X13.641 Y-8.857
G1 X14.317 Y-9.194
G1 X14.976 Y-9.561
G1 X15.619 Y-9.957
G0 Z10
G0 X-7.868 Y-16.614
Z10
Z2
G1 Z-0.125 F80
G1 X-7.868 Y-16.614 F200
G1 X-7.538 Y-15.932
G1 X-7.177 Y-15.267
G1 X-6.787 Y-14.618
G1 X-6.368 Y-13.987
G1 X-5.921 Y-13.375
G1 X-5.446 Y-12.784
G1 X-4.946 Y-12.215
G1 X-4.420 Y-11.670
G1 X-3.870 Y-11.148
G1 X-3.297 Y-10.652
G1 X-2.702 Y-10.182
G1 X-2.086 Y-9.739
G1 X-1.451 Y-9.324
G1 X-0.799 Y-8.938
G1 X-0.129 Y-8.582
G1 X0.556 Y-8.257
G1 X1.255 Y-7.963
G1 X1.966 Y-7.700
G1 X2.688 Y-7.470
G1 X3.420 Y-7.273
G1 X4.160 Y-7.109
G1 X4.907 Y-6.979
G1 X5.658 Y-6.882
G1 X6.413 Y-6.819
G1 X7.170 Y-6.790
G1 X7.927 Y-6.796
G1 X8.684 Y-6.836
G1 X9.437 Y-6.909
G1 X10.186 Y-7.017
G1 X10.929 Y-7.158
G1 X11.665 Y-7.333
G1 X12.392 Y-7.541
G1 X13.108 Y-7.781
G1 X13.813 Y-8.053
G1 X14.505 Y-8.357
G1 X15.181 Y-8.691
G1 X15.842 Y-9.056
G0 Z10
G0 X-7.303 Y-16.827
Z10
Z2
G1 Z-0.125 F80
G1 X-7.303 Y-16.827 F200
G1 X-7.006 Y-16.130
G1 X-6.679 Y-15.448
G1 X-6.320 Y-14.780
G1 X-5.932 Y-14.130
G1 X-5.515 Y-13.497
G1 X-5.070 Y-12.884
G1 X-4.597 Y-12.292
G1 X-4.099 Y-11.721
G1 X-3.574 Y-11.173
G1 X-3.026 Y-10.650
G1 X-2.455 Y-10.151
G1 X-1.862 Y-9.679
G1 X-1.248 Y-9.234
G1 X-0.614 Y-8.817
G1 X0.037 Y-8.429
G1 X0.705 Y-8.071
G1 X1.389 Y-7.743
G1 X2.087 Y-7.446
G1 X2.797 Y-7.182
G1 X3.519 Y-6.949
G1 X4.250 Y-6.749
G1 X4.989 Y-6.583
G1 X5.735 Y-6.450
G1 X6.486 Y-6.350
G1 X7.241 Y-6.285
G1 X7.997 Y-6.254
G1 X8.754 Y-6.257
G1 X9.510 Y-6.294
G1 X10.263 Y-6.365
G1 X11.012 Y-6.470
G1 X11.756 Y-6.609
G1 X12.492 Y-6.781
G1 X13.219 Y-6.986
G1 X13.936 Y-7.224
G1 X14.641 Y-7.494
G1 X15.333 Y-7.795
G1 X16.011 Y-8.128
G1 X16.672 Y-8.490
G0 Z10
G0 X-6.740 Y-16.995
Z10
Z2
G1 Z-0.125 F80
G1 X-6.740 Y-16.995 F200
G1 X-6.478 Y-16.285
G1 X-6.183 Y-15.588
G1 X-5.858 Y-14.904
G1 X-5.502 Y-14.235
G1 X-5.116 Y-13.583
G1 X-4.701 Y-12.949
G1 X-4.258 Y-12.334
G1 X-3.787 Y-11.740
G1 X-3.290 Y-11.167
G1 X-2.768 Y-10.618
G1 X-2.221 Y-10.092
G1 X-1.652 Y-9.592
G1 X-1.060 Y-9.117
G1 X-0.448 Y-8.670
G1 X0.184 Y-8.251
G1 X0.834 Y-7.861
G1 X1.501 Y-7.500
G1 X2.184 Y-7.170
G1 X2.880 Y-6.871
G1 X3.590 Y-6.604
G1 X4.310 Y-6.369
G1 X5.040 Y-6.167
G1 X5.779 Y-5.998
G1 X6.524 Y-5.862
G1 X7.275 Y-5.760
G1 X8.029 Y-5.692
G1 X8.785 Y-5.659
G1 X9.542 Y-5.659
G1 X10.297 Y-5.694
G1 X11.050 Y-5.762
G1 X11.800 Y-5.865
G1 X12.543 Y-6.001
G1 X13.279 Y-6.171
G1 X14.007 Y-6.373
G1 X14.724 Y-6.609
G1 X15.430 Y-6.876
G1 X16.122 Y-7.175
G1 X16.801 Y-7.505
G0 Z10
G0 X-6.377 Y-17.852
Z10
Z2
G1 Z-0.125 F80
G1 X-6.377 Y-17.852 F200
G1 X-6.182 Y-17.121
G1 X-5.955 Y-16.399
G1 X-5.695 Y-15.687
G1 X-5.403 Y-14.988
G1 X-5.079 Y-14.303
G1 X-4.725 Y-13.633
G1 X-4.342 Y-12.980
G1 X-3.929 Y-12.344
G1 X-3.488 Y-11.727
G1 X-3.019 Y-11.131
G1 X-2.524 Y-10.557
G1 X-2.004 Y-10.006
G1 X-1.459 Y-9.478
G1 X-0.891 Y-8.976
G1 X-0.301 Y-8.499
G1 X0.310 Y-8.050
G1 X0.940 Y-7.629
G1 X1.589 Y-7.236
G1 X2.254 Y-6.873
G1 X2.936 Y-6.541
G1 X3.631 Y-6.240
G1 X4.339 Y-5.970
G1 X5.059 Y-5.733
G1 X5.788 Y-5.528
G1 X6.526 Y-5.356
G1 X7.270 Y-5.218
G1 X8.020 Y-5.114
G1 X8.774 Y-5.044
G1 X9.530 Y-5.007
G1 X10.286 Y-5.005
G1 X11.041 Y-5.037
G1 X11.794 Y-5.103
G1 X12.544 Y-5.203
G1 X13.287 Y-5.337
G1 X14.023 Y-5.504
G1 X14.751 Y-5.705
G1 X15.469 Y-5.938
G1 X16.175 Y-6.203
G1 X16.868 Y-6.499
G1 X17.547 Y-6.827
G0 Z10
G0 X-5.792 Y-17.944
Z10
Z2
G1 Z-0.125 F80
G1 X-5.792 Y-17.944 F200
G1 X-5.633 Y-17.203
G1 X-5.441 Y-16.471
G1 X-5.215 Y-15.748
G1 X-4.958 Y-15.036
G1 X-4.668 Y-14.336
G1 X-4.347 Y-13.649
G1 X-3.995 Y-12.978
G1 X-3.614 Y-12.323
G1 X-3.203 Y-11.685
G1 X-2.764 Y-11.067
G1 X-2.297 Y-10.470
G1 X-1.804 Y-9.894
G1 X-1.286 Y-9.340
G1 X-0.743 Y-8.811
G1 X-0.177 Y-8.306
G1 X0.411 Y-7.828
G1 X1.021 Y-7.377
G1 X1.649 Y-6.953
G1 X2.297 Y-6.558
G1 X2.961 Y-6.193
G1 X3.641 Y-5.859
G1 X4.335 Y-5.555
G1 X5.042 Y-5.283
G1 X5.761 Y-5.043
G1 X6.489 Y-4.836
G1 X7.226 Y-4.662
G1 X7.970 Y-4.522
G1 X8.719 Y-4.415
G1 X9.472 Y-4.342
G1 X10.227 Y-4.303
G1 X10.983 Y-4.299
G1 X11.739 Y-4.328
G1 X12.492 Y-4.392
G1 X13.241 Y-4.489
G1 X13.984 Y-4.621
G1 X14.721 Y-4.785
G1 X15.449 Y-4.983
G1 X16.167 Y-5.214
G1 X16.873 Y-5.476
G1 X17.567 Y-5.771
G0 Z10
G0 X-5.218 Y-17.992
Z10
Z2
G1 Z-0.125 F80
G1 X-5.218 Y-17.992 F200
G1 X-5.095 Y-17.245
G1 X-4.939 Y-16.504
G1 X-4.749 Y-15.771
G1 X-4.526 Y-15.047
G1 X-4.270 Y-14.334
G1 X-3.983 Y-13.632
G1 X-3.664 Y-12.945
G1 X-3.315 Y-12.272
G1 X-2.936 Y-11.616
G1 X-2.527 Y-10.977
G1 X-2.090 Y-10.357
G1 X-1.625 Y-9.758
G1 X-1.134 Y-9.180
G1 X-0.618 Y-8.625
G1 X-0.077 Y-8.094
G1 X0.487 Y-7.587
G1 X1.074 Y-7.107
G1 X1.681 Y-6.653
G1 X2.309 Y-6.228
G1 X2.954 Y-5.831
G1 X3.617 Y-5.464
G1 X4.296 Y-5.127
G1 X4.989 Y-4.821
G1 X5.695 Y-4.546
G1 X6.412 Y-4.304
G1 X7.140 Y-4.095
G1 X7.876 Y-3.918
G1 X8.619 Y-3.775
G1 X9.368 Y-3.666
G1 X10.120 Y-3.591
G1 X10.875 Y-3.549
G1 X11.631 Y-3.542
G1 X12.385 Y-3.569
G1 X13.138 Y-3.631
G1 X13.887 Y-3.726
G1 X14.631 Y-3.855
G1 X15.367 Y-4.017
G1 X16.095 Y-4.212
G1 X16.814 Y-4.440
G1 X17.521 Y-4.701
G1 X18.215 Y-4.993
G0 Z10
G0 X-4.658 Y-18.000
Z10
Z2
G1 Z-0.125 F80
G1 X-4.658 Y-18.000 F200
G1 X-4.572 Y-17.248
G1 X-4.451 Y-16.500
G1 X-4.297 Y-15.759
G1 X-4.109 Y-15.025
G1 X-3.889 Y-14.300
G1 X-3.636 Y-13.585
G1 X-3.351 Y-12.883
G1 X-3.035 Y-12.194
G1 X-2.687 Y-11.520
G1 X-2.310 Y-10.862
G1 X-1.904 Y-10.222
G1 X-1.469 Y-9.601
G1 X-1.007 Y-9.000
G1 X-0.518 Y-8.420
G1 X-0.003 Y-7.863
G1 X0.536 Y-7.330
G1 X1.098 Y-6.822
G1 X1.683 Y-6.339
G1 X2.289 Y-5.884
G1 X2.915 Y-5.456
G1 X3.559 Y-5.057
G1 X4.220 Y-4.688
G1 X4.898 Y-4.349
G1 X5.590 Y-4.040
G1 X6.294 Y-3.764
G1 X7.011 Y-3.519
G1 X7.737 Y-3.307
G1 X8.472 Y-3.128
G1 X9.215 Y-2.983
G1 X9.962 Y-2.871
G1 X10.714 Y-2.793
G1 X11.469 Y-2.750
G1 X12.224 Y-2.740
G1 X12.979 Y-2.765
G1 X13.731 Y-2.824
G1 X14.480 Y-2.916
G1 X15.223 Y-3.043
G1 X15.960 Y-3.203
G1 X16.688 Y-3.396
G1 X17.407 Y-3.621
G1 X18.114 Y-3.879
G0 Z10
G0 X-4.115 Y-17.969
Z10
Z2
G1 Z-0.125 F80
G1 X-4.115 Y-17.969 F200
G1 X-4.065 Y-17.213
G1 X-3.981 Y-16.461
G1 X-3.863 Y-15.712
G1 X-3.711 Y-14.970
G1 X-3.526 Y-14.235
G1 X-3.308 Y-13.509
G1 X-3.057 Y-12.794
G1 X-2.775 Y-12.090
G1 X-2.461 Y-11.400
G1 X-2.116 Y-10.725
G1 X-1.741 Y-10.065
G1 X-1.337 Y-9.424
G1 X-0.905 Y-8.801
G1 X-0.444 Y-8.199
G1 X0.043 Y-7.617
G1 X0.555 Y-7.059
G1 X1.092 Y-6.524
G1 X1.653 Y-6.014
G1 X2.236 Y-5.529
G1 X2.840 Y-5.072
G1 X3.464 Y-4.642
G1 X4.107 Y-4.241
G1 X4.767 Y-3.869
G1 X5.443 Y-3.528
G1 X6.133 Y-3.217
G1 X6.837 Y-2.938
G1 X7.552 Y-2.692
G1 X8.278 Y-2.477
G1 X9.012 Y-2.296
G1 X9.754 Y-2.148
G1 X10.501 Y-2.034
G1 X11.252 Y-1.954
G1 X12.006 Y-1.908
G1 X12.760 Y-1.896
G1 X13.515 Y-1.918
G1 X14.267 Y-1.974
G1 X15.016 Y-2.065
G1 X15.759 Y-2.189
G1 X16.496 Y-2.346
G1 X17.224 Y-2.537
G1 X17.943 Y-2.760
G1 X18.651 Y-3.016
G0 Z10
G0 X-3.571 Y-18.657
Z10
Z2
G1 Z-0.125 F80
G1 X-3.571 Y-18.657 F200
G1 X-3.592 Y-17.900
G1 X-3.578 Y-17.143
G1 X-3.531 Y-16.387
G1 X-3.449 Y-15.634
G1 X-3.333 Y-14.885
G1 X-3.184 Y-14.142
G1 X-3.002 Y-13.406
G1 X-2.786 Y-12.679
G1 X-2.538 Y-11.963
G1 X-2.258 Y-11.258
G1 X-1.946 Y-10.567
G1 X-1.604 Y-9.891
G1 X-1.231 Y-9.230
G1 X-0.829 Y-8.587
G1 X-0.399 Y-7.963
G1 X0.059 Y-7.359
G1 X0.544 Y-6.776
G1 X1.055 Y-6.216
G1 X1.590 Y-5.679
G1 X2.149 Y-5.167
G1 X2.730 Y-4.681
G1 X3.332 Y-4.221
G1 X3.955 Y-3.789
G1 X4.596 Y-3.386
G1 X5.254 Y-3.012
G1 X5.929 Y-2.669
G1 X6.618 Y-2.356
G1 X7.321 Y-2.075
G1 X8.035 Y-1.826
G1 X8.759 Y-1.609
G1 X9.492 Y-1.426
G1 X10.233 Y-1.276
G1 X10.979 Y-1.159
G1 X11.730 Y-1.077
G1 X12.483 Y-1.028
G1 X13.238 Y-1.014
G1 X13.991 Y-1.033
G1 X14.743 Y-1.087
G1 X15.492 Y-1.175
G1 X16.235 Y-1.297
G1 X16.972 Y-1.452
G1 X17.701 Y-1.641
G1 X18.420 Y-1.862
G0 Z10
G0 X-3.033 Y-18.552
Z10
Z2
G1 Z-0.125 F80
G1 X-3.033 Y-18.552 F200
G1 X-3.090 Y-17.797
G1 X-3.113 Y-17.040
G1 X-3.102 Y-16.282
G1 X-3.057 Y-15.526
G1 X-2.978 Y-14.772
G1 X-2.865 Y-14.023
G1 X-2.719 Y-13.279
G1 X-2.539 Y-12.543
G1 X-2.326 Y-11.815
G1 X-2.080 Y-11.098
G1 X-1.802 Y-10.392
G1 X-1.493 Y-9.700
G1 X-1.153 Y-9.022
G1 X-0.783 Y-8.360
G1 X-0.383 Y-7.716
G1 X0.045 Y-7.090
G1 X0.501 Y-6.484
G1 X0.984 Y-5.900
G1 X1.492 Y-5.338
G1 X2.026 Y-4.799
G1 X2.583 Y-4.286
G1 X3.162 Y-3.798
G1 X3.763 Y-3.336
G1 X4.383 Y-2.902
G1 X5.023 Y-2.497
G1 X5.680 Y-2.121
G1 X6.353 Y-1.776
G1 X7.041 Y-1.461
G1 X7.742 Y-1.177
G1 X8.455 Y-0.926
G1 X9.178 Y-0.707
G1 X9.911 Y-0.521
G1 X10.650 Y-0.369
G1 X11.396 Y-0.250
G1 X12.146 Y-0.165
G1 X12.899 Y-0.114
G1 X13.653 Y-0.097
G1 X14.406 Y-0.115
G1 X15.158 Y-0.166
G1 X15.906 Y-0.252
G1 X16.649 Y-0.371
G1 X17.386 Y-0.524
G1 X18.115 Y-0.710
G1 X18.834 Y-0.929
G0 Z10
G0 X-2.519 Y-18.412
Z10
Z2
G1 Z-0.125 F80
G1 X-2.519 Y-18.412 F200
G1 X-2.613 Y-17.661
G1 X-2.673 Y-16.906
G1 X-2.698 Y-16.148
G1 X-2.690 Y-15.391
G1 X-2.648 Y-14.634
G1 X-2.571 Y-13.880
G1 X-2.461 Y-13.130
G1 X-2.317 Y-12.386
G1 X-2.139 Y-11.648
G1 X-1.929 Y-10.920
G1 X-1.686 Y-10.202
G1 X-1.410 Y-9.495
G1 X-1.104 Y-8.802
G1 X-0.766 Y-8.123
G1 X-0.398 Y-7.460
G1 X-0.001 Y-6.814
G1 X0.425 Y-6.187
G1 X0.879 Y-5.580
G1 X1.360 Y-4.994
G1 X1.866 Y-4.430
G1 X2.397 Y-3.890
G1 X2.952 Y-3.374
G1 X3.530 Y-2.884
G1 X4.129 Y-2.421
G1 X4.748 Y-1.986
G1 X5.386 Y-1.578
G1 X6.041 Y-1.200
G1 X6.713 Y-0.853
G1 X7.400 Y-0.536
G1 X8.100 Y-0.250
G1 X8.811 Y0.004
G1 X9.534 Y0.225
G1 X10.265 Y0.413
G1 X11.004 Y0.568
G1 X11.749 Y0.689
G1 X12.498 Y0.776
G1 X13.250 Y0.829
G1 X14.003 Y0.848
G1 X14.756 Y0.833
G1 X15.508 Y0.784
G1 X16.256 Y0.701
G1 X16.999 Y0.584
G1 X17.736 Y0.433
G1 X18.465 Y0.249
G0 Z10
G0 X-2.031 Y-18.241
Z10
Z2
G1 Z-0.125 F80
G1 X-2.031 Y-18.241 F200
G1 X-2.161 Y-17.494
G1 X-2.258 Y-16.743
G1 X-2.321 Y-15.988
G1 X-2.349 Y-15.231
G1 X-2.344 Y-14.473
G1 X-2.304 Y-13.716
G1 X-2.230 Y-12.961
G1 X-2.122 Y-12.211
G1 X-1.981 Y-11.466
G1 X-1.806 Y-10.728
G1 X-1.598 Y-9.999
G1 X-1.357 Y-9.280
G1 X-1.084 Y-8.572
G1 X-0.780 Y-7.878
G1 X-0.445 Y-7.198
G1 X-0.079 Y-6.534
G1 X0.316 Y-5.887
G1 X0.740 Y-5.258
G1 X1.191 Y-4.650
G1 X1.670 Y-4.062
G1 X2.174 Y-3.497
G1 X2.704 Y-2.955
G1 X3.257 Y-2.438
G1 X3.832 Y-1.946
G1 X4.429 Y-1.481
G1 X5.047 Y-1.043
G1 X5.683 Y-0.634
G1 X6.337 Y-0.254
G1 X7.007 Y0.096
G1 X7.692 Y0.415
G1 X8.391 Y0.703
G1 X9.102 Y0.959
G1 X9.823 Y1.182
G1 X10.553 Y1.372
G1 X11.291 Y1.529
G1 X12.035 Y1.653
G1 X12.784 Y1.742
G1 X13.535 Y1.798
G1 X14.288 Y1.819
G1 X15.041 Y1.806
G1 X15.792 Y1.759
G1 X16.540 Y1.678
G1 X17.283 Y1.564
G1 X18.019 Y1.415
G1 X18.748 Y1.234
G0 Z10
G0 X-1.373 Y-18.770
Z10
Z2
G1 Z-0.125 F80
G1 X-1.373 Y-18.770 F200
G1 X-1.572 Y-18.040
G1 X-1.739 Y-17.301
G1 X-1.872 Y-16.555
G1 X-1.971 Y-15.804
G1 X-2.036 Y-15.049
G1 X-2.067 Y-14.291
G1 X-2.064 Y-13.533
G1 X-2.027 Y-12.776
G1 X-1.956 Y-12.021
G1 X-1.850 Y-11.270
G1 X-1.712 Y-10.525
G1 X-1.539 Y-9.786
G1 X-1.334 Y-9.056
G1 X-1.096 Y-8.337
G1 X-0.825 Y-7.628
G1 X-0.524 Y-6.933
G1 X-0.191 Y-6.252
G1 X0.173 Y-5.586
G1 X0.565 Y-4.938
G1 X0.987 Y-4.308
G1 X1.436 Y-3.698
G1 X1.913 Y-3.109
G1 X2.415 Y-2.542
G1 X2.942 Y-1.999
G1 X3.493 Y-1.480
G1 X4.067 Y-0.986
G1 X4.662 Y-0.519
G1 X5.278 Y-0.080
G1 X5.913 Y0.331
G1 X6.565 Y0.713
G1 X7.234 Y1.065
G1 X7.918 Y1.386
G1 X8.615 Y1.676
G1 X9.324 Y1.934
G1 X10.045 Y2.160
G1 X10.774 Y2.352
G1 X11.511 Y2.511
G1 X12.254 Y2.637
G1 X13.002 Y2.729
G1 X13.753 Y2.787
G1 X14.505 Y2.810
G1 X15.257 Y2.800
G1 X16.008 Y2.755
G1 X16.755 Y2.676
G1 X17.498 Y2.564
G1 X18.235 Y2.418
G0 Z10
G0 X-0.909 Y-18.533
Z10
Z2
G1 Z-0.125 F80
G1 X-0.909 Y-18.533 F200
G1 X-1.144 Y-17.812
G1 X-1.346 Y-17.082
G1 X-1.515 Y-16.344
G1 X-1.650 Y-15.598
G1 X-1.752 Y-14.847
G1 X-1.820 Y-14.092
G1 X-1.854 Y-13.335
G1 X-1.853 Y-12.577
G1 X-1.819 Y-11.819
G1 X-1.750 Y-11.064
G1 X-1.647 Y-10.313
G1 X-1.511 Y-9.567
G1 X-1.341 Y-8.828
G1 X-1.138 Y-8.097
G1 X-0.903 Y-7.377
G1 X-0.635 Y-6.667
G1 X-0.336 Y-5.971
G1 X-0.005 Y-5.289
G1 X0.356 Y-4.622
G1 X0.746 Y-3.973
G1 X1.165 Y-3.342
G1 X1.612 Y-2.730
G1 X2.087 Y-2.140
G1 X2.587 Y-1.571
G1 X3.112 Y-1.026
G1 X3.661 Y-0.506
G1 X4.233 Y-0.010
G1 X4.827 Y0.458
G1 X5.441 Y0.900
G1 X6.074 Y1.313
G1 X6.725 Y1.696
G1 X7.392 Y2.050
G1 X8.074 Y2.374
G1 X8.770 Y2.666
G1 X9.478 Y2.926
G1 X10.197 Y3.153
G1 X10.926 Y3.348
G1 X11.662 Y3.509
G1 X12.404 Y3.637
G1 X13.151 Y3.731
G1 X13.901 Y3.791
G1 X14.653 Y3.817
G1 X15.405 Y3.809
G1 X16.155 Y3.766
G1 X16.902 Y3.690
G1 X17.645 Y3.580
G1 X18.382 Y3.436
G0 Z10
G0 X-0.176 Y-18.964
Z10
Z2
G1 Z-0.125 F80
G1 X-0.176 Y-18.964 F200
G1 X-0.477 Y-18.270
G1 X-0.747 Y-17.562
G1 X-0.984 Y-16.842
G1 X-1.189 Y-16.113
G1 X-1.360 Y-15.374
G1 X-1.498 Y-14.629
G1 X-1.603 Y-13.878
G1 X-1.673 Y-13.123
G1 X-1.710 Y-12.366
G1 X-1.712 Y-11.608
G1 X-1.680 Y-10.850
G1 X-1.614 Y-10.095
G1 X-1.514 Y-9.343
G1 X-1.380 Y-8.597
G1 X-1.213 Y-7.857
G1 X-1.013 Y-7.126
G1 X-0.780 Y-6.405
G1 X-0.515 Y-5.695
G1 X-0.218 Y-4.997
G1 X0.111 Y-4.314
G1 X0.469 Y-3.646
G1 X0.857 Y-2.996
G1 X1.274 Y-2.364
G1 X1.719 Y-1.751
G1 X2.191 Y-1.159
G1 X2.689 Y-0.589
G1 X3.212 Y-0.042
G1 X3.760 Y0.480
G1 X4.330 Y0.977
G1 X4.921 Y1.447
G1 X5.533 Y1.890
G1 X6.165 Y2.305
G1 X6.814 Y2.691
G1 X7.480 Y3.047
G1 X8.161 Y3.372
G1 X8.855 Y3.666
G1 X9.562 Y3.928
G1 X10.280 Y4.158
G1 X11.008 Y4.355
G1 X11.743 Y4.518
G1 X12.484 Y4.648
G1 X13.230 Y4.745
G1 X13.980 Y4.807
G1 X14.731 Y4.835
G1 X15.482 Y4.829
G1 X16.232 Y4.789
G1 X16.979 Y4.714
G1 X17.722 Y4.606
G1 X18.458 Y4.464
G0 Z10
G0 X0.255 Y-18.664
Z10
Z2
G1 Z-0.125 F80
G1 X0.255 Y-18.664 F200
G1 X-0.079 Y-17.984
G1 X-0.383 Y-17.290
G1 X-0.655 Y-16.583
G1 X-0.895 Y-15.864
G1 X-1.102 Y-15.135
G1 X-1.276 Y-14.397
G1 X-1.417 Y-13.652
G1 X-1.524 Y-12.902
G1 X-1.597 Y-12.147
G1 X-1.636 Y-11.390
G1 X-1.641 Y-10.632
G1 X-1.611 Y-9.874
G1 X-1.548 Y-9.118
G1 X-1.451 Y-8.366
G1 X-1.320 Y-7.620
G1 X-1.155 Y-6.880
G1 X-0.957 Y-6.148
G1 X-0.727 Y-5.426
G1 X-0.464 Y-4.715
G1 X-0.170 Y-4.016
G1 X0.156 Y-3.332
G1 X0.512 Y-2.664
G1 X0.898 Y-2.012
G1 X1.312 Y-1.378
G1 X1.755 Y-0.764
G1 X2.225 Y-0.171
G1 X2.721 Y0.400
G1 X3.242 Y0.948
G1 X3.787 Y1.472
G1 X4.356 Y1.971
G1 X4.945 Y2.443
G1 X5.556 Y2.888
G1 X6.186 Y3.305
G1 X6.833 Y3.692
G1 X7.497 Y4.050
G1 X8.177 Y4.377
G1 X8.870 Y4.673
G1 X9.576 Y4.937
G1 X10.293 Y5.169
G1 X11.019 Y5.368
G1 X11.753 Y5.534
G1 X12.494 Y5.666
G1 X13.239 Y5.764
G1 X13.988 Y5.829
G1 X14.739 Y5.859
G1 X15.490 Y5.855
G1 X16.239 Y5.817
G1 X16.986 Y5.745
G1 X17.728 Y5.639
G0 Z10
G0 Z10
G17
G28 G91 Z10
G90
G28 G91 X0 Y0
G90
M30
%