%
(guilloche)
(T502  D=0.125 CR=0 - ZMIN=-0.129 - vee)
G90
G17
G21
G28 G91 Z10
G90

(scribe)
T502 M6
S10000 M3
G54
G0 X17.000 Y0.000
Z10
Z0.6
Z0.2
Z0.01
G1 Z-0.425 F400
G1 X17.000 Y0.000
G1 X16.974 Y0.942
G1 X16.896 Y1.881
G1 X16.765 Y2.814
G1 X16.584 Y3.739
G1 X16.351 Y4.652
G1 X16.068 Y5.551
G1 X15.736 Y6.433
G1 X15.355 Y7.295
G1 X14.927 Y8.135
G1 X14.454 Y8.949
G1 X13.936 Y9.736
G1 X13.375 Y10.494
G1 X12.773 Y11.219
G1 X12.131 Y11.909
G1 X11.453 Y12.563
G1 X10.739 Y13.178
G1 X9.992 Y13.753
G1 X9.215 Y14.286
G1 X8.409 Y14.775
G1 X7.578 Y15.218
G1 X6.723 Y15.614
G1 X5.847 Y15.963
G1 X4.954 Y16.262
G1 X4.045 Y16.512
G1 X3.124 Y16.711
G1 X2.193 Y16.858
G1 X1.255 Y16.954
G1 X0.314 Y16.997
G1 X-0.628 Y16.988
G1 X-1.569 Y16.927
G1 X-2.504 Y16.815
G1 X-3.432 Y16.650
G1 X-4.349 Y16.434
G1 X-5.253 Y16.168
G1 X-6.141 Y15.852
G1 X-7.010 Y15.487
G1 X-7.857 Y15.075
G1 X-8.681 Y14.617
G1 X-9.477 Y14.113
G1 X-10.245 Y13.566
G1 X-10.981 Y12.978
G1 X-11.683 Y12.349
G1 X-12.349 Y11.683
G1 X-12.978 Y10.981
G1 X-13.566 Y10.245
G1 X-14.113 Y9.477
G1 X-14.617 Y8.681
G1 X-15.075 Y7.857
G1 X-15.487 Y7.010
G1 X-15.852 Y6.141
G1 X-16.168 Y5.253
G1 X-16.434 Y4.349
G1 X-16.650 Y3.432
G1 X-16.815 Y2.504
G1 X-16.927 Y1.569
G1 X-16.988 Y0.628
G1 X-16.997 Y-0.314
G1 X-16.954 Y-1.255
G1 X-16.858 Y-2.193
G1 X-16.711 Y-3.124
G1 X-16.512 Y-4.045
G1 X-16.262 Y-4.954
G1 X-15.963 Y-5.847
G1 X-15.614 Y-6.723
G1 X-15.218 Y-7.578
G1 X-14.775 Y-8.409
G1 X-14.286 Y-9.215
G1 X-13.753 Y-9.992
G1 X-13.178 Y-10.739
G1 X-12.563 Y-11.453
G1 X-11.909 Y-12.131
G1 X-11.219 Y-12.773
G1 X-10.494 Y-13.375
G1 X-9.736 Y-13.936
G1 X-8.949 Y-14.454
G1 X-8.135 Y-14.927
G1 X-7.295 Y-15.355
G1 X-6.433 Y-15.736
G1 X-5.551 Y-16.068
G1 X-4.652 Y-16.351
G1 X-3.739 Y-16.584
G1 X-2.814 Y-16.765
G1 X-1.881 Y-16.896
G1 X-0.942 Y-16.974
G1 X-0.000 Y-17.000
G1 X0.942 Y-16.974
G1 X1.881 Y-16.896
G1 X2.814 Y-16.765
G1 X3.739 Y-16.584
G1 X4.652 Y-16.351
G1 X5.551 Y-16.068
G1 X6.433 Y-15.736
G1 X7.295 Y-15.355
G1 X8.135 Y-14.927
G1 X8.949 Y-14.454
G1 X9.736 Y-13.936
G1 X10.494 Y-13.375
G1 X11.219 Y-12.773
G1 X11.909 Y-12.131
G1 X12.563 Y-11.453
G1 X13.178 Y-10.739
G1 X13.753 Y-9.992
G1 X14.286 Y-9.215
G1 X14.775 Y-8.409
G1 X15.218 Y-7.578
G1 X15.614 Y-6.723
G1 X15.963 Y-5.847
G1 X16.262 Y-4.954
G1 X16.512 Y-4.045
G1 X16.711 Y-3.124
G1 X16.858 Y-2.193
G1 X16.954 Y-1.255
G1 X16.997 Y-0.314
G1 X16.988 Y0.628
G1 X16.927 Y1.569
G1 X16.815 Y2.504
G1 X16.650 Y3.432
G1 X16.434 Y4.349
G1 X16.168 Y5.253
G0 Z10
G0 X17.250 Y0.000
Z10
Z0.6
Z0.2
Z0.01
G1 Z-0.425 F400
G1 X17.250 Y0.000
G1 X17.223 Y0.956
G1 X17.144 Y1.909
G1 X17.012 Y2.856
G1 X16.828 Y3.794
G1 X16.591 Y4.721
G1 X16.304 Y5.633
G1 X15.967 Y6.528
G1 X15.581 Y7.402
G1 X15.147 Y8.254
G1 X14.666 Y9.081
G1 X14.141 Y9.880
G1 X13.571 Y10.648
G1 X12.960 Y11.384
G1 X12.310 Y12.084
G1 X11.621 Y12.748
G1 X10.897 Y13.372
G1 X10.139 Y13.956
G1 X9.350 Y14.496
G1 X8.533 Y14.992
G1 X7.689 Y15.442
G1 X6.822 Y15.844
G1 X5.933 Y16.198
G1 X5.026 Y16.501
G1 X4.104 Y16.755
G1 X3.170 Y16.956
G1 X2.225 Y17.106
G1 X1.274 Y17.203
G1 X0.319 Y17.247
G1 X-0.637 Y17.238
G1 X-1.592 Y17.176
G1 X-2.541 Y17.062
G1 X-3.482 Y16.895
G1 X-4.413 Y16.676
G1 X-5.331 Y16.406
G1 X-6.231 Y16.085
G1 X-7.113 Y15.715
G1 X-7.973 Y15.297
G1 X-8.808 Y14.832
G1 X-9.617 Y14.321
G1 X-10.395 Y13.766
G1 X-11.142 Y13.169
G1 X-11.855 Y12.531
G1 X-12.531 Y11.855
G1 X-13.169 Y11.142
G1 X-13.766 Y10.395
G1 X-14.321 Y9.617
G1 X-14.832 Y8.808
G1 X-15.297 Y7.973
G1 X-15.715 Y7.113
G1 X-16.085 Y6.231
G1 X-16.406 Y5.331
G1 X-16.676 Y4.413
G1 X-16.895 Y3.482
G1 X-17.062 Y2.541
G1 X-17.176 Y1.592
G1 X-17.238 Y0.637
G1 X-17.247 Y-0.319
G1 X-17.203 Y-1.274
G1 X-17.106 Y-2.225
G1 X-16.956 Y-3.170
G1 X-16.755 Y-4.104
G1 X-16.501 Y-5.026
G1 X-16.198 Y-5.933
G1 X-15.844 Y-6.822
G1 X-15.442 Y-7.689
G1 X-14.992 Y-8.533
G1 X-14.496 Y-9.350
G1 X-13.956 Y-10.139
G1 X-13.372 Y-10.897
G1 X-12.748 Y-11.621
G1 X-12.084 Y-12.310
G1 X-11.384 Y-12.960
G1 X-10.648 Y-13.571
G1 X-9.880 Y-14.141
G1 X-9.081 Y-14.666
G1 X-8.254 Y-15.147
G1 X-7.402 Y-15.581
G1 X-6.528 Y-15.967
G1 X-5.633 Y-16.304
G1 X-4.721 Y-16.591
G1 X-3.794 Y-16.828
G1 X-2.856 Y-17.012
G1 X-1.909 Y-17.144
G1 X-0.956 Y-17.223
G1 X-0.000 Y-17.250
G1 X0.956 Y-17.223
G1 X1.909 Y-17.144
G1 X2.856 Y-17.012
G1 X3.794 Y-16.828
G1 X4.721 Y-16.591
G1 X5.633 Y-16.304
G1 X6.528 Y-15.967
G1 X7.402 Y-15.581
G1 X8.254 Y-15.147
G1 X9.081 Y-14.666
G1 X9.880 Y-14.141
G1 X10.648 Y-13.571
G1 X11.384 Y-12.960
G1 X12.084 Y-12.310
G1 X12.748 Y-11.621
G1 X13.372 Y-10.897
G1 X13.956 Y-10.139
G1 X14.496 Y-9.350
G1 X14.992 Y-8.533
G1 X15.442 Y-7.689
G1 X15.844 Y-6.822
G1 X16.198 Y-5.933
G1 X16.501 Y-5.026
G1 X16.755 Y-4.104
G1 X16.956 Y-3.170
G1 X17.106 Y-2.225
G1 X17.203 Y-1.274
G1 X17.247 Y-0.319
G1 X17.238 Y0.637
G1 X17.176 Y1.592
G1 X17.062 Y2.541
G1 X16.895 Y3.482
G1 X16.676 Y4.413
G1 X16.406 Y5.331
G0 Z10
G0 X17.500 Y0.000
Z10
Z0.6
Z0.2
Z0.01
G1 Z-0.425 F400
G1 X17.500 Y0.000
G1 X17.473 Y0.970
G1 X17.393 Y1.936
G1 X17.259 Y2.897
G1 X17.071 Y3.849
G1 X16.832 Y4.789
G1 X16.541 Y5.714
G1 X16.199 Y6.622
G1 X15.807 Y7.510
G1 X15.366 Y8.374
G1 X14.879 Y9.213
G1 X14.345 Y10.023
G1 X13.768 Y10.802
G1 X13.148 Y11.549
G1 X12.488 Y12.260
G1 X11.790 Y12.933
G1 X11.055 Y13.566
G1 X10.286 Y14.158
G1 X9.486 Y14.706
G1 X8.656 Y15.209
G1 X7.800 Y15.665
G1 X6.920 Y16.074
G1 X6.019 Y16.432
G1 X5.099 Y16.741
G1 X4.164 Y16.997
G1 X3.216 Y17.202
G1 X2.257 Y17.354
G1 X1.292 Y17.452
G1 X0.323 Y17.497
G1 X-0.647 Y17.488
G1 X-1.615 Y17.425
G1 X-2.578 Y17.309
G1 X-3.533 Y17.140
G1 X-4.477 Y16.918
G1 X-5.408 Y16.643
G1 X-6.322 Y16.318
G1 X-7.216 Y15.943
G1 X-8.089 Y15.519
G1 X-8.936 Y15.046
G1 X-9.756 Y14.528
G1 X-10.546 Y13.965
G1 X-11.304 Y13.359
G1 X-12.027 Y12.713
G1 X-12.713 Y12.027
G1 X-13.359 Y11.304
G1 X-13.965 Y10.546
G1 X-14.528 Y9.756
G1 X-15.046 Y8.936
G1 X-15.519 Y8.089
G1 X-15.943 Y7.216
G1 X-16.318 Y6.322
G1 X-16.643 Y5.408
G1 X-16.918 Y4.477
G1 X-17.140 Y3.533
G1 X-17.309 Y2.578
G1 X-17.425 Y1.615
G1 X-17.488 Y0.647
G1 X-17.497 Y-0.323
G1 X-17.452 Y-1.292
G1 X-17.354 Y-2.257
G1 X-17.202 Y-3.216
G1 X-16.997 Y-4.164
G1 X-16.741 Y-5.099
G1 X-16.432 Y-6.019
G1 X-16.074 Y-6.920
G1 X-15.665 Y-7.800
G1 X-15.209 Y-8.656
G1 X-14.706 Y-9.486
G1 X-14.158 Y-10.286
G1 X-13.566 Y-11.055
G1 X-12.933 Y-11.790
G1 X-12.260 Y-12.488
G1 X-11.549 Y-13.148
G1 X-10.802 Y-13.768
G1 X-10.023 Y-14.345
G1 X-9.213 Y-14.879
G1 X-8.374 Y-15.366
G1 X-7.510 Y-15.807
G1 X-6.622 Y-16.199
G1 X-5.714 Y-16.541
G1 X-4.789 Y-16.832
G1 X-3.849 Y-17.071
G1 X-2.897 Y-17.259
G1 X-1.936 Y-17.393
G1 X-0.970 Y-17.473
G1 X-0.000 Y-17.500
G1 X0.970 Y-17.473
G1 X1.936 Y-17.393
G1 X2.897 Y-17.259
G1 X3.849 Y-17.071
G1 X4.789 Y-16.832
G1 X5.714 Y-16.541
G1 X6.622 Y-16.199
G1 X7.510 Y-15.807
G1 X8.374 Y-15.366
G1 X9.213 Y-14.879
G1 X10.023 Y-14.345
G1 X10.802 Y-13.768
G1 X11.549 Y-13.148
G1 X12.260 Y-12.488
G1 X12.933 Y-11.790
G1 X13.566 Y-11.055
G1 X14.158 Y-10.286
G1 X14.706 Y-9.486
G1 X15.209 Y-8.656
G1 X15.665 Y-7.800
G1 X16.074 Y-6.920
G1 X16.432 Y-6.019
G1 X16.741 Y-5.099
G1 X16.997 Y-4.164
G1 X17.202 Y-3.216
G1 X17.354 Y-2.257
G1 X17.452 Y-1.292
G1 X17.497 Y-0.323
G1 X17.488 Y0.647
G1 X17.425 Y1.615
G1 X17.309 Y2.578
G1 X17.140 Y3.533
G1 X16.918 Y4.477
G1 X16.643 Y5.408
G0 Z10
G0 X17.750 Y0.000
Z10
Z0.6
Z0.2
Z0.01
G1 Z-0.425 F400
G1 X17.750 Y0.000
G1 X17.723 Y0.984
G1 X17.641 Y1.964
G1 X17.505 Y2.939
G1 X17.315 Y3.904
G1 X17.072 Y4.858
G1 X16.777 Y5.796
G1 X16.430 Y6.717
G1 X16.033 Y7.617
G1 X15.586 Y8.494
G1 X15.091 Y9.344
G1 X14.550 Y10.166
G1 X13.965 Y10.957
G1 X13.336 Y11.714
G1 X12.667 Y12.435
G1 X11.958 Y13.117
G1 X11.213 Y13.760
G1 X10.433 Y14.360
G1 X9.621 Y14.916
G1 X8.780 Y15.426
G1 X7.912 Y15.889
G1 X7.019 Y16.303
G1 X6.105 Y16.667
G1 X5.172 Y16.980
G1 X4.223 Y17.240
G1 X3.262 Y17.448
G1 X2.290 Y17.602
G1 X1.311 Y17.702
G1 X0.328 Y17.747
G1 X-0.656 Y17.738
G1 X-1.638 Y17.674
G1 X-2.615 Y17.556
G1 X-3.583 Y17.385
G1 X-4.541 Y17.159
G1 X-5.485 Y16.881
G1 X-6.412 Y16.551
G1 X-7.319 Y16.171
G1 X-8.204 Y15.740
G1 X-9.064 Y15.261
G1 X-9.895 Y14.736
G1 X-10.697 Y14.165
G1 X-11.465 Y13.550
G1 X-12.198 Y12.894
G1 X-12.894 Y12.198
G1 X-13.550 Y11.465
G1 X-14.165 Y10.697
G1 X-14.736 Y9.895
G1 X-15.261 Y9.064
G1 X-15.740 Y8.204
G1 X-16.171 Y7.319
G1 X-16.551 Y6.412
G1 X-16.881 Y5.485
G1 X-17.159 Y4.541
G1 X-17.385 Y3.583
G1 X-17.556 Y2.615
G1 X-17.674 Y1.638
G1 X-17.738 Y0.656
G1 X-17.747 Y-0.328
G1 X-17.702 Y-1.311
G1 X-17.602 Y-2.290
G1 X-17.448 Y-3.262
G1 X-17.240 Y-4.223
G1 X-16.980 Y-5.172
G1 X-16.667 Y-6.105
G1 X-16.303 Y-7.019
G1 X-15.889 Y-7.912
G1 X-15.426 Y-8.780
G1 X-14.916 Y-9.621
G1 X-14.360 Y-10.433
G1 X-13.760 Y-11.213
G1 X-13.117 Y-11.958
G1 X-12.435 Y-12.667
G1 X-11.714 Y-13.336
G1 X-10.957 Y-13.965
G1 X-10.166 Y-14.550
G1 X-9.344 Y-15.091
G1 X-8.494 Y-15.586
G1 X-7.617 Y-16.033
G1 X-6.717 Y-16.430
G1 X-5.796 Y-16.777
G1 X-4.858 Y-17.072
G1 X-3.904 Y-17.315
G1 X-2.939 Y-17.505
G1 X-1.964 Y-17.641
G1 X-0.984 Y-17.723
G1 X-0.000 Y-17.750
G1 X0.984 Y-17.723
G1 X1.964 Y-17.641
G1 X2.939 Y-17.505
G1 X3.904 Y-17.315
G1 X4.858 Y-17.072
G1 X5.796 Y-16.777
G1 X6.717 Y-16.430
G1 X7.617 Y-16.033
G1 X8.494 Y-15.586
G1 X9.344 Y-15.091
G1 X10.166 Y-14.550
G1 X10.957 Y-13.965
G1 X11.714 Y-13.336
G1 X12.435 Y-12.667
G1 X13.117 Y-11.958
G1 X13.760 Y-11.213
G1 X14.360 Y-10.433
G1 X14.916 Y-9.621
G1 X15.426 Y-8.780
G1 X15.889 Y-7.912
G1 X16.303 Y-7.019
G1 X16.667 Y-6.105
G1 X16.980 Y-5.172
G1 X17.240 Y-4.223
G1 X17.448 Y-3.262
G1 X17.602 Y-2.290
G1 X17.702 Y-1.311
G1 X17.747 Y-0.328
G1 X17.738 Y0.656
G1 X17.674 Y1.638
G1 X17.556 Y2.615
G1 X17.385 Y3.583
G1 X17.159 Y4.541
G1 X16.881 Y5.485
G0 Z10
G0 X18.000 Y0.000
Z10
Z0.6
Z0.2
Z0.01
G1 Z-0.425 F400
G1 X18.000 Y0.000
G1 X17.972 Y0.997
G1 X17.889 Y1.992
G1 X17.752 Y2.980
G1 X17.559 Y3.959
G1 X17.313 Y4.926
G1 X17.013 Y5.878
G1 X16.661 Y6.811
G1 X16.258 Y7.724
G1 X15.805 Y8.613
G1 X15.304 Y9.476
G1 X14.755 Y10.309
G1 X14.161 Y11.111
G1 X13.524 Y11.879
G1 X12.845 Y12.610
G1 X12.127 Y13.302
G1 X11.371 Y13.954
G1 X10.580 Y14.562
G1 X9.757 Y15.126
G1 X8.904 Y15.644
G1 X8.023 Y16.113
G1 X7.118 Y16.533
G1 X6.191 Y16.902
G1 X5.245 Y17.219
G1 X4.283 Y17.483
G1 X3.307 Y17.694
G1 X2.322 Y17.850
G1 X1.329 Y17.951
G1 X0.333 Y17.997
G1 X-0.665 Y17.988
G1 X-1.661 Y17.923
G1 X-2.651 Y17.804
G1 X-3.634 Y17.629
G1 X-4.605 Y17.401
G1 X-5.562 Y17.119
G1 X-6.502 Y16.785
G1 X-7.422 Y16.398
G1 X-8.320 Y15.962
G1 X-9.191 Y15.476
G1 X-10.035 Y14.943
G1 X-10.847 Y14.364
G1 X-11.627 Y13.741
G1 X-12.370 Y13.076
G1 X-13.076 Y12.370
G1 X-13.741 Y11.627
G1 X-14.364 Y10.847
G1 X-14.943 Y10.035
G1 X-15.476 Y9.191
G1 X-15.962 Y8.320
G1 X-16.398 Y7.422
G1 X-16.785 Y6.502
G1 X-17.119 Y5.562
G1 X-17.401 Y4.605
G1 X-17.629 Y3.634
G1 X-17.804 Y2.651
G1 X-17.923 Y1.661
G1 X-17.988 Y0.665
G1 X-17.997 Y-0.333
G1 X-17.951 Y-1.329
G1 X-17.850 Y-2.322
G1 X-17.694 Y-3.307
G1 X-17.483 Y-4.283
G1 X-17.219 Y-5.245
G1 X-16.902 Y-6.191
G1 X-16.533 Y-7.118
G1 X-16.113 Y-8.023
G1 X-15.644 Y-8.904
G1 X-15.126 Y-9.757
G1 X-14.562 Y-10.580
G1 X-13.954 Y-11.371
G1 X-13.302 Y-12.127
G1 X-12.610 Y-12.845
G1 X-11.879 Y-13.524
G1 X-11.111 Y-14.161
G1 X-10.309 Y-14.755
G1 X-9.476 Y-15.304
G1 X-8.613 Y-15.805
G1 X-7.724 Y-16.258
G1 X-6.811 Y-16.661
G1 X-5.878 Y-17.013
G1 X-4.926 Y-17.313
G1 X-3.959 Y-17.559
G1 X-2.980 Y-17.752
G1 X-1.992 Y-17.889
G1 X-0.997 Y-17.972
G1 X-0.000 Y-18.000
G1 X0.997 Y-17.972
G1 X1.992 Y-17.889
G1 X2.980 Y-17.752
G1 X3.959 Y-17.559
G1 X4.926 Y-17.313
G1 X5.878 Y-17.013
G1 X6.811 Y-16.661
G1 X7.724 Y-16.258
G1 X8.613 Y-15.805
G1 X9.476 Y-15.304
G1 X10.309 Y-14.755
G1 X11.111 Y-14.161
G1 X11.879 Y-13.524
G1 X12.610 Y-12.845
G1 X13.302 Y-12.127
G1 X13.954 Y-11.371
G1 X14.562 Y-10.580
G1 X15.126 Y-9.757
G1 X15.644 Y-8.904
G1 X16.113 Y-8.023
G1 X16.533 Y-7.118
G1 X16.902 Y-6.191
G1 X17.219 Y-5.245
G1 X17.483 Y-4.283
G1 X17.694 Y-3.307
G1 X17.850 Y-2.322
G1 X17.951 Y-1.329
G1 X17.997 Y-0.333
G1 X17.988 Y0.665
G1 X17.923 Y1.661
G1 X17.804 Y2.651
G1 X17.629 Y3.634
G1 X17.401 Y4.605
G1 X17.119 Y5.562
G0 Z10
G0 X18.250 Y0.000
Z10
Z0.6
Z0.2
Z0.01
G1 Z-0.425 F400
G1 X18.250 Y0.000
G1 X18.222 Y1.011
G1 X18.138 Y2.019
G1 X17.998 Y3.021
G1 X17.803 Y4.014
G1 X17.553 Y4.994
G1 X17.250 Y5.959
G1 X16.893 Y6.906
G1 X16.484 Y7.831
G1 X16.025 Y8.733
G1 X15.516 Y9.607
G1 X14.960 Y10.452
G1 X14.358 Y11.265
G1 X13.712 Y12.044
G1 X13.023 Y12.785
G1 X12.295 Y13.487
G1 X11.529 Y14.147
G1 X10.727 Y14.765
G1 X9.892 Y15.336
G1 X9.027 Y15.861
G1 X8.135 Y16.337
G1 X7.217 Y16.762
G1 X6.277 Y17.137
G1 X5.318 Y17.458
G1 X4.342 Y17.726
G1 X3.353 Y17.939
G1 X2.354 Y18.098
G1 X1.348 Y18.200
G1 X0.337 Y18.247
G1 X-0.674 Y18.238
G1 X-1.684 Y18.172
G1 X-2.688 Y18.051
G1 X-3.684 Y17.874
G1 X-4.669 Y17.643
G1 X-5.640 Y17.357
G1 X-6.593 Y17.018
G1 X-7.526 Y16.626
G1 X-8.435 Y16.184
G1 X-9.319 Y15.691
G1 X-10.174 Y15.151
G1 X-10.998 Y14.564
G1 X-11.788 Y13.932
G1 X-12.542 Y13.257
G1 X-13.257 Y12.542
G1 X-13.932 Y11.788
G1 X-14.564 Y10.998
G1 X-15.151 Y10.174
G1 X-15.691 Y9.319
G1 X-16.184 Y8.435
G1 X-16.626 Y7.526
G1 X-17.018 Y6.593
G1 X-17.357 Y5.640
G1 X-17.643 Y4.669
G1 X-17.874 Y3.684
G1 X-18.051 Y2.688
G1 X-18.172 Y1.684
G1 X-18.238 Y0.674
G1 X-18.247 Y-0.337
G1 X-18.200 Y-1.348
G1 X-18.098 Y-2.354
G1 X-17.939 Y-3.353
G1 X-17.726 Y-4.342
G1 X-17.458 Y-5.318
G1 X-17.137 Y-6.277
G1 X-16.762 Y-7.217
G1 X-16.337 Y-8.135
G1 X-15.861 Y-9.027
G1 X-15.336 Y-9.892
G1 X-14.765 Y-10.727
G1 X-14.147 Y-11.529
G1 X-13.487 Y-12.295
G1 X-12.785 Y-13.023
G1 X-12.044 Y-13.712
G1 X-11.265 Y-14.358
G1 X-10.452 Y-14.960
G1 X-9.607 Y-15.516
G1 X-8.733 Y-16.025
G1 X-7.831 Y-16.484
G1 X-6.906 Y-16.893
G1 X-5.959 Y-17.250
G1 X-4.994 Y-17.553
G1 X-4.014 Y-17.803
G1 X-3.021 Y-17.998
G1 X-2.019 Y-18.138
G1 X-1.011 Y-18.222
G1 X-0.000 Y-18.250
G1 X1.011 Y-18.222
G1 X2.019 Y-18.138
G1 X3.021 Y-17.998
G1 X4.014 Y-17.803
G1 X4.994 Y-17.553
G1 X5.959 Y-17.250
G1 X6.906 Y-16.893
G1 X7.831 Y-16.484
G1 X8.733 Y-16.025
G1 X9.607 Y-15.516
G1 X10.452 Y-14.960
G1 X11.265 Y-14.358
G1 X12.044 Y-13.712
G1 X12.785 Y-13.023
G1 X13.487 Y-12.295
G1 X14.147 Y-11.529
G1 X14.765 Y-10.727
G1 X15.336 Y-9.892
G1 X15.861 Y-9.027
G1 X16.337 Y-8.135
G1 X16.762 Y-7.217
G1 X17.137 Y-6.277
G1 X17.458 Y-5.318
G1 X17.726 Y-4.342
G1 X17.939 Y-3.353
G1 X18.098 Y-2.354
G1 X18.200 Y-1.348
G1 X18.247 Y-0.337
G1 X18.238 Y0.674
G1 X18.172 Y1.684
G1 X18.051 Y2.688
G1 X17.874 Y3.684
G1 X17.643 Y4.669
G1 X17.357 Y5.640
G0 Z10
G0 X18.500 Y0.000
Z10
Z0.6
Z0.2
Z0.01
G1 Z-0.425 F400
G1 X18.500 Y0.000
G1 X18.472 Y1.025
G1 X18.386 Y2.047
G1 X18.245 Y3.063
G1 X18.047 Y4.069
G1 X17.794 Y5.063
G1 X17.486 Y6.041
G1 X17.124 Y7.001
G1 X16.710 Y7.939
G1 X16.245 Y8.852
G1 X15.729 Y9.739
G1 X15.165 Y10.596
G1 X14.555 Y11.420
G1 X13.900 Y12.209
G1 X13.202 Y12.960
G1 X12.463 Y13.672
G1 X11.687 Y14.341
G1 X10.874 Y14.967
G1 X10.028 Y15.546
G1 X9.151 Y16.078
G1 X8.246 Y16.561
G1 X7.316 Y16.992
G1 X6.363 Y17.371
G1 X5.391 Y17.697
G1 X4.402 Y17.969
G1 X3.399 Y18.185
G1 X2.386 Y18.345
G1 X1.366 Y18.449
G1 X0.342 Y18.497
G1 X-0.684 Y18.487
G1 X-1.707 Y18.421
G1 X-2.725 Y18.298
G1 X-3.735 Y18.119
G1 X-4.733 Y17.884
G1 X-5.717 Y17.595
G1 X-6.683 Y17.251
G1 X-7.629 Y16.854
G1 X-8.551 Y16.405
G1 X-9.447 Y15.906
G1 X-10.314 Y15.358
G1 X-11.149 Y14.763
G1 X-11.950 Y14.123
G1 X-12.714 Y13.439
G1 X-13.439 Y12.714
G1 X-14.123 Y11.950
G1 X-14.763 Y11.149
G1 X-15.358 Y10.314
G1 X-15.906 Y9.447
G1 X-16.405 Y8.551
G1 X-16.854 Y7.629
G1 X-17.251 Y6.683
G1 X-17.595 Y5.717
G1 X-17.884 Y4.733
G1 X-18.119 Y3.735
G1 X-18.298 Y2.725
G1 X-18.421 Y1.707
G1 X-18.487 Y0.684
G1 X-18.497 Y-0.342
G1 X-18.449 Y-1.366
G1 X-18.345 Y-2.386
G1 X-18.185 Y-3.399
G1 X-17.969 Y-4.402
G1 X-17.697 Y-5.391
G1 X-17.371 Y-6.363
G1 X-16.992 Y-7.316
G1 X-16.561 Y-8.246
G1 X-16.078 Y-9.151
G1 X-15.546 Y-10.028
G1 X-14.967 Y-10.874
G1 X-14.341 Y-11.687
G1 X-13.672 Y-12.463
G1 X-12.960 Y-13.202
G1 X-12.209 Y-13.900
G1 X-11.420 Y-14.555
G1 X-10.596 Y-15.165
G1 X-9.739 Y-15.729
G1 X-8.852 Y-16.245
G1 X-7.939 Y-16.710
G1 X-7.001 Y-17.124
G1 X-6.041 Y-17.486
G1 X-5.063 Y-17.794
G1 X-4.069 Y-18.047
G1 X-3.063 Y-18.245
G1 X-2.047 Y-18.386
G1 X-1.025 Y-18.472
G1 X-0.000 Y-18.500
G1 X1.025 Y-18.472
G1 X2.047 Y-18.386
G1 X3.063 Y-18.245
G1 X4.069 Y-18.047
G1 X5.063 Y-17.794
G1 X6.041 Y-17.486
G1 X7.001 Y-17.124
G1 X7.939 Y-16.710
G1 X8.852 Y-16.245
G1 X9.739 Y-15.729
G1 X10.596 Y-15.165
G1 X11.420 Y-14.555
G1 X12.209 Y-13.900
G1 X12.960 Y-13.202
G1 X13.672 Y-12.463
G1 X14.341 Y-11.687
G1 X14.967 Y-10.874
G1 X15.546 Y-10.028
G1 X16.078 Y-9.151
G1 X16.561 Y-8.246
G1 X16.992 Y-7.316
G1 X17.371 Y-6.363
G1 X17.697 Y-5.391
G1 X17.969 Y-4.402
G1 X18.185 Y-3.399
G1 X18.345 Y-2.386
G1 X18.449 Y-1.366
G1 X18.497 Y-0.342
G1 X18.487 Y0.684
G1 X18.421 Y1.707
G1 X18.298 Y2.725
G1 X18.119 Y3.735
G1 X17.884 Y4.733
G1 X17.595 Y5.717
G0 Z10
G0 X18.750 Y0.000
Z10
Z0.6
Z0.2
Z0.01
G1 Z-0.425 F400
G1 X18.750 Y0.000
G1 X18.721 Y1.039
G1 X18.635 Y2.075
G1 X18.491 Y3.104
G1 X18.291 Y4.124
G1 X18.034 Y5.131
G1 X17.722 Y6.123
G1 X17.356 Y7.095
G1 X16.936 Y8.046
G1 X16.464 Y8.972
G1 X15.942 Y9.871
G1 X15.370 Y10.739
G1 X14.751 Y11.574
G1 X14.087 Y12.374
G1 X13.380 Y13.135
G1 X12.632 Y13.856
G1 X11.845 Y14.535
G1 X11.021 Y15.169
G1 X10.164 Y15.756
G1 X9.275 Y16.295
G1 X8.358 Y16.784
G1 X7.415 Y17.222
G1 X6.449 Y17.606
G1 X5.464 Y17.936
G1 X4.461 Y18.212
G1 X3.445 Y18.431
G1 X2.419 Y18.593
G1 X1.385 Y18.699
G1 X0.346 Y18.747
G1 X-0.693 Y18.737
G1 X-1.730 Y18.670
G1 X-2.762 Y18.545
G1 X-3.785 Y18.364
G1 X-4.797 Y18.126
G1 X-5.794 Y17.832
G1 X-6.773 Y17.484
G1 X-7.732 Y17.082
G1 X-8.666 Y16.627
G1 X-9.574 Y16.121
G1 X-10.453 Y15.566
G1 X-11.299 Y14.963
G1 X-12.111 Y14.314
G1 X-12.886 Y13.621
G1 X-13.621 Y12.886
G1 X-14.314 Y12.111
G1 X-14.963 Y11.299
G1 X-15.566 Y10.453
G1 X-16.121 Y9.574
G1 X-16.627 Y8.666
G1 X-17.082 Y7.732
G1 X-17.484 Y6.773
G1 X-17.832 Y5.794
G1 X-18.126 Y4.797
G1 X-18.364 Y3.785
G1 X-18.545 Y2.762
G1 X-18.670 Y1.730
G1 X-18.737 Y0.693
G1 X-18.747 Y-0.346
G1 X-18.699 Y-1.385
G1 X-18.593 Y-2.419
G1 X-18.431 Y-3.445
G1 X-18.212 Y-4.461
G1 X-17.936 Y-5.464
G1 X-17.606 Y-6.449
G1 X-17.222 Y-7.415
G1 X-16.784 Y-8.358
G1 X-16.295 Y-9.275
G1 X-15.756 Y-10.164
G1 X-15.169 Y-11.021
G1 X-14.535 Y-11.845
G1 X-13.856 Y-12.632
G1 X-13.135 Y-13.380
G1 X-12.374 Y-14.087
G1 X-11.574 Y-14.751
G1 X-10.739 Y-15.370
G1 X-9.871 Y-15.942
G1 X-8.972 Y-16.464
G1 X-8.046 Y-16.936
G1 X-7.095 Y-17.356
G1 X-6.123 Y-17.722
G1 X-5.131 Y-18.034
G1 X-4.124 Y-18.291
G1 X-3.104 Y-18.491
G1 X-2.075 Y-18.635
G1 X-1.039 Y-18.721
G1 X-0.000 Y-18.750
G1 X1.039 Y-18.721
G1 X2.075 Y-18.635
G1 X3.104 Y-18.491
G1 X4.124 Y-18.291
G1 X5.131 Y-18.034
G1 X6.123 Y-17.722
G1 X7.095 Y-17.356
G1 X8.046 Y-16.936
G1 X8.972 Y-16.464
G1 X9.871 Y-15.942
G1 X10.739 Y-15.370
G1 X11.574 Y-14.751
G1 X12.374 Y-14.087
G1 X13.135 Y-13.380
G1 X13.856 Y-12.632
G1 X14.535 Y-11.845
G1 X15.169 Y-11.021
G1 X15.756 Y-10.164
G1 X16.295 Y-9.275
G1 X16.784 Y-8.358
G1 X17.222 Y-7.415
G1 X17.606 Y-6.449
G1 X17.936 Y-5.464
G1 X18.212 Y-4.461
G1 X18.431 Y-3.445
G1 X18.593 Y-2.419
G1 X18.699 Y-1.385
G1 X18.747 Y-0.346
G1 X18.737 Y0.693
G1 X18.670 Y1.730
G1 X18.545 Y2.762
G1 X18.364 Y3.785
G1 X18.126 Y4.797
G1 X17.832 Y5.794
G0 Z10
G0 X19.000 Y0.000
Z10
Z0.6
Z0.2
Z0.01
G1 Z-0.425 F400
G1 X19.000 Y0.000
G1 X18.971 Y1.053
G1 X18.883 Y2.102
G1 X18.738 Y3.146
G1 X18.535 Y4.179
G1 X18.275 Y5.200
G1 X17.958 Y6.204
G1 X17.587 Y7.190
G1 X17.162 Y8.153
G1 X16.684 Y9.092
G1 X16.154 Y10.002
G1 X15.575 Y10.882
G1 X14.948 Y11.728
G1 X14.275 Y12.539
G1 X13.559 Y13.310
G1 X12.800 Y14.041
G1 X12.003 Y14.729
G1 X11.168 Y15.371
G1 X10.299 Y15.967
G1 X9.398 Y16.513
G1 X8.469 Y17.008
G1 X7.514 Y17.451
G1 X6.535 Y17.841
G1 X5.536 Y18.175
G1 X4.521 Y18.454
G1 X3.491 Y18.676
G1 X2.451 Y18.841
G1 X1.403 Y18.948
G1 X0.351 Y18.997
G1 X-0.702 Y18.987
G1 X-1.753 Y18.919
G1 X-2.799 Y18.793
G1 X-3.836 Y18.609
G1 X-4.861 Y18.368
G1 X-5.871 Y18.070
G1 X-6.864 Y17.717
G1 X-7.835 Y17.309
G1 X-8.782 Y16.849
G1 X-9.702 Y16.336
G1 X-10.592 Y15.773
G1 X-11.450 Y15.162
G1 X-12.273 Y14.505
G1 X-13.057 Y13.802
G1 X-13.802 Y13.057
G1 X-14.505 Y12.273
G1 X-15.162 Y11.450
G1 X-15.773 Y10.592
G1 X-16.336 Y9.702
G1 X-16.849 Y8.782
G1 X-17.309 Y7.835
G1 X-17.717 Y6.864
G1 X-18.070 Y5.871
G1 X-18.368 Y4.861
G1 X-18.609 Y3.836
G1 X-18.793 Y2.799
G1 X-18.919 Y1.753
G1 X-18.987 Y0.702
G1 X-18.997 Y-0.351
G1 X-18.948 Y-1.403
G1 X-18.841 Y-2.451
G1 X-18.676 Y-3.491
G1 X-18.454 Y-4.521
G1 X-18.175 Y-5.536
G1 X-17.841 Y-6.535
G1 X-17.451 Y-7.514
G1 X-17.008 Y-8.469
G1 X-16.513 Y-9.398
G1 X-15.967 Y-10.299
G1 X-15.371 Y-11.168
G1 X-14.729 Y-12.003
G1 X-14.041 Y-12.800
G1 X-13.310 Y-13.559
G1 X-12.539 Y-14.275
G1 X-11.728 Y-14.948
G1 X-10.882 Y-15.575
G1 X-10.002 Y-16.154
G1 X-9.092 Y-16.684
G1 X-8.153 Y-17.162
G1 X-7.190 Y-17.587
G1 X-6.204 Y-17.958
G1 X-5.200 Y-18.275
G1 X-4.179 Y-18.535
G1 X-3.146 Y-18.738
G1 X-2.102 Y-18.883
G1 X-1.053 Y-18.971
G1 X-0.000 Y-19.000
G1 X1.053 Y-18.971
G1 X2.102 Y-18.883
G1 X3.146 Y-18.738
G1 X4.179 Y-18.535
G1 X5.200 Y-18.275
G1 X6.204 Y-17.958
G1 X7.190 Y-17.587
G1 X8.153 Y-17.162
G1 X9.092 Y-16.684
G1 X10.002 Y-16.154
G1 X10.882 Y-15.575
G1 X11.728 Y-14.948
G1 X12.539 Y-14.275
G1 X13.310 Y-13.559
G1 X14.041 Y-12.800
G1 X14.729 Y-12.003
G1 X15.371 Y-11.168
G1 X15.967 Y-10.299
G1 X16.513 Y-9.398
G1 X17.008 Y-8.469
G1 X17.451 Y-7.514
G1 X17.841 Y-6.535
G1 X18.175 Y-5.536
G1 X18.454 Y-4.521
G1 X18.676 Y-3.491
G1 X18.841 Y-2.451
G1 X18.948 Y-1.403
G1 X18.997 Y-0.351
G1 X18.987 Y0.702
G1 X18.919 Y1.753
G1 X18.793 Y2.799
G1 X18.609 Y3.836
G1 X18.368 Y4.861
G1 X18.070 Y5.871
G0 Z10
G0 Z10
G17
G28 G91 Z10
G90
G28 G91 X0 Y0
G90
M30
%